src/ACES/PixelManager-v.2.0-RC6/luts/aces1.3_ref_gamut_compression.3dl
0 128 256 384 512 640 768 896 1023
     0     0     0
   373   387   512
   447   519  1024
   721   844  1536
  1142  1289  2048
  1626  1782  2559
  2130  2289  3071
  2640  2799  3583
  3151  3311  4095
   364   536   377
   375   520   511
   447   582  1024
   720   872  1536
  1141  1298  2048
  1626  1785  2559
  2130  2289  3071
  2640  2799  3583
  3151  3311  4095
   425  1032   423
   424  1027   521
   473  1027  1023
   723  1036  1535
  1141  1336  2047
  1626  1794  2559
  2130  2292  3071
  2640  2800  3583
  3151  3311  4095
   685  1540   633
   683  1539   693
   695  1537  1023
   769  1538  1535
  1145  1542  2047
  1625  1836  2559
  2130  2302  3071
  2640  2803  3583
  3151  3312  4095
  1099  2051  1012
  1098  2051  1036
  1096  2050  1135
  1114  2049  1535
  1202  2049  2047
  1630  2054  2559
  2129  2344  3071
  2640  2813  3583
  3151  3314  4095
  1580  2563  1481
  1580  2563  1489
  1579  2563  1517
  1578  2561  1629
  1598  2561  2047
  1691  2561  2559
  2135  2565  3071
  2639  2855  3583
  3151  3324  4095
  2084  3075  1981
  2084  3075  1983
  2084  3075  1991
  2083  3074  2020
  2082  3073  2137
  2102  3073  2559
  2196  3073  3071
  2644  3077  3583
  3151  3367  4095
  2594  3587  2490
  2594  3587  2491
  2594  3587  2493
  2593  3587  2500
  2593  3586  2530
  2591  3585  2647
  2612  3585  3071
  2706  3585  3583
  3156  3589  4095
  3105  4095  3001
  3105  4095  3001
  3105  4095  3002
  3105  4095  3004
  3105  4095  3011
  3104  4095  3041
  3103  4095  3159
  3124  4095  3582
  3218  4095  4095
   525   378   376
   517   394   513
   552   523  1024
   777   844  1536
  1161  1290  2048
  1632  1782  2559
  2132  2289  3071
  2641  2799  3583
  3152  3311  4095
   522   529   377
   512   512   512
   550   582  1024
   776   872  1536
  1161  1299  2048
  1632  1785  2559
  2132  2289  3071
  2641  2799  3583
  3152  3311  4095
   550  1030   421
   544  1024   521
   563  1024  1024
   777  1034  1535
  1161  1337  2048
  1631  1795  2559
  2132  2292  3071
  2641  2800  3583
  3152  3311  4095
   754  1540   632
   752  1538   692
   759  1537  1023
   815  1537  1535
  1164  1542  2047
  1631  1836  2559
  2132  2302  3071
  2640  2803  3583
  3152  3312  4095
  1124  2051  1012
  1123  2051  1036
  1121  2050  1135
  1137  2049  1535
  1218  2049  2047
  1635  2053  2559
  2131  2344  3071
  2640  2813  3583
  3152  3314  4095
  1588  2563  1481
  1588  2563  1489
  1587  2563  1517
  1585  2561  1629
  1605  2561  2047
  1695  2561  2559
  2136  2565  3071
  2640  2855  3583
  3151  3324  4095
  2086  3075  1981
  2086  3075  1983
  2086  3075  1991
  2085  3074  2020
  2083  3073  2137
  2104  3073  2559
  2197  3073  3071
  2645  3077  3583
  3151  3367  4095
  2594  3587  2490
  2594  3587  2491
  2594  3587  2493
  2594  3587  2500
  2593  3586  2530
  2592  3585  2647
  2613  3585  3071
  2707  3585  3583
  3156  3589  4095
  3105  4095  3001
  3105  4095  3001
  3105  4095  3002
  3105  4095  3004
  3105  4095  3011
  3104  4095  3041
  3103  4095  3159
  3124  4095  3582
  3218  4095  4095
  1028   473   403
  1026   476   517
  1026   563  1024
  1030   854  1536
  1237  1291  2048
  1653  1782  2559
  2138  2289  3071
  2642  2799  3583
  3152  3311  4095
  1027   563   403
  1024   558   516
  1025   609  1024
  1028   880  1536
  1237  1300  2048
  1653  1785  2559
  2138  2289  3071
  2642  2799  3583
  3152  3311  4095
  1027  1029   412
  1024  1024   518
  1024  1024  1024
  1024  1033  1536
  1236  1337  2048
  1653  1795  2559
  2138  2292  3071
  2642  2800  3583
  3152  3311  4095
  1030  1539   628
  1027  1537   689
  1024  1536  1024
  1026  1536  1536
  1237  1540  2047
  1652  1836  2559
  2137  2302  3071
  2642  2803  3583
  3152  3312  4095
  1216  2051  1011
  1215  2050  1035
  1213  2049  1134
  1222  2048  1535
  1278  2049  2047
  1656  2053  2559
  2137  2344  3071
  2642  2813  3583
  3152  3314  4095
  1615  2563  1481
  1615  2563  1488
  1614  2562  1516
  1612  2561  1629
  1630  2561  2047
  1712  2561  2559
  2142  2565  3071
  2641  2855  3583
  3152  3324  4095
  2094  3075  1981
  2094  3075  1983
  2093  3075  1991
  2092  3074  2020
  2091  3073  2137
  2111  3073  2559
  2202  3073  3071
  2646  3077  3583
  3151  3367  4095
  2596  3587  2490
  2596  3587  2491
  2596  3587  2493
  2596  3587  2500
  2595  3586  2530
  2594  3585  2647
  2614  3585  3071
  2708  3585  3583
  3156  3589  4095
  3106  4095  3001
  3106  4095  3001
  3106  4095  3002
  3106  4095  3004
  3105  4095  3011
  3105  4095  3041
  3103  4095  3159
  3124  4095  3582
  3218  4095  4095
  1538   761   586
  1537   761   659
  1537   790  1025
  1537   916  1536
  1541  1304  2048
  1736  1784  2560
  2160  2289  3071
  2648  2799  3583
  3154  3311  4095
  1538   806   586
  1537   805   659
  1537   827  1024
  1537   936  1536
  1541  1313  2048
  1736  1786  2560
  2160  2290  3071
  2648  2799  3583
  3154  3311  4095
  1537  1033   587
  1536  1029   659
  1536  1025  1024
  1536  1050  1536
  1539  1347  2048
  1735  1796  2560
  2160  2292  3071
  2648  2800  3583
  3154  3311  4095
  1537  1538   607
  1536  1537   673
  1536  1536  1024
  1536  1536  1536
  1536  1538  2048
  1734  1836  2559
  2160  2302  3071
  2648  2803  3583
  3154  3312  4095
  1541  2050  1005
  1540  2050  1030
  1538  2048  1131
  1536  2048  1536
  1536  2048  2048
  1736  2051  2559
  2159  2344  3071
  2648  2813  3583
  3153  3314  4095
  1715  2562  1480
  1715  2562  1487
  1714  2562  1515
  1711  2561  1629
  1721  2560  2047
  1777  2560  2559
  2163  2565  3071
  2647  2855  3583
  3153  3324  4095
  2122  3075  1981
  2122  3075  1983
  2121  3075  1991
  2121  3074  2020
  2119  3073  2136
  2136  3072  2559
  2219  3073  3071
  2652  3077  3583
  3153  3367  4095
  2604  3587  2490
  2604  3587  2490
  2604  3587  2492
  2604  3587  2500
  2603  3586  2530
  2601  3585  2647
  2621  3585  3071
  2712  3585  3583
  3158  3589  4095
  3108  4095  3001
  3108  4095  3001
  3108  4095  3002
  3108  4095  3004
  3107  4095  3011
  3107  4095  3041
  3105  4095  3159
  3126  4095  3582
  3219  4095  4095
  2050  1190   946
  2049  1190   977
  2049  1192  1102
  2049  1231  1537
  2049  1375  2048
  2053  1798  2560
  2244  2291  3071
  2670  2800  3583
  3159  3311  4095
  2050  1205   946
  2049  1205   977
  2049  1206  1102
  2049  1243  1536
  2049  1381  2048
  2053  1800  2560
  2244  2291  3071
  2670  2800  3583
  3159  3311  4095
  2049  1266   946
  2049  1265   977
  2048  1265  1101
  2048  1292  1536
  2049  1406  2048
  2052  1809  2560
  2244  2294  3071
  2670  2800  3583
  3159  3311  4095
  2049  1543   947
  2048  1542   978
  2048  1538  1101
  2048  1536  1536
  2048  1549  2048
  2051  1847  2560
  2244  2304  3071
  2670  2803  3583
  3159  3312  4095
  2049  2050   976
  2049  2049  1003
  2048  2048  1115
  2048  2048  1536
  2048  2048  2048
  2048  2049  2559
  2243  2345  3071
  2670  2813  3583
  3159  3314  4095
  2052  2562  1473
  2052  2562  1481
  2051  2561  1509
  2049  2560  1625
  2048  2559  2048
  2048  2559  2559
  2244  2563  3071
  2669  2855  3583
  3159  3325  4095
  2223  3074  1980
  2223  3074  1982
  2223  3074  1989
  2222  3074  2019
  2220  3073  2136
  2230  3072  2559
  2285  3072  3071
  2673  3076  3583
  3159  3367  4095
  2632  3587  2490
  2632  3587  2490
  2632  3586  2492
  2632  3586  2500
  2631  3586  2529
  2629  3585  2647
  2647  3584  3071
  2729  3585  3583
  3163  3589  4095
  3115  4095  3001
  3115  4095  3001
  3115  4095  3002
  3115  4095  3004
  3115  4095  3011
  3114  4095  3041
  3113  4095  3159
  3133  4095  3583
  3224  4095  4095
  2561  1677  1408
  2561  1677  1417
  2561  1677  1454
  2561  1680  1598
  2560  1722  2048
  2561  1872  2560
  2565  2305  3072
  2755  2801  3583
  3182  3311  4095
  2561  1681  1408
  2561  1681  1417
  2561  1681  1454
  2561  1684  1597
  2560  1725  2048
  2561  1873  2560
  2565  2306  3072
  2755  2801  3583
  3182  3311  4095
  2561  1698  1408
  2561  1698  1417
  2561  1698  1454
  2561  1700  1597
  2560  1739  2048
  2561  1880  2560
  2564  2308  3072
  2755  2802  3583
  3182  3311  4095
  2561  1764  1407
  2561  1763  1417
  2561  1763  1453
  2560  1763  1597
  2560  1792  2048
  2561  1907  2560
  2564  2317  3072
  2755  2805  3583
  3182  3312  4095
  2560  2055  1409
  2560  2054  1418
  2560  2053  1454
  2560  2049  1596
  2559  2048  2048
  2559  2058  2559
  2563  2356  3071
  2755  2815  3583
  3182  3315  4095
  2561  2561  1441
  2561  2561  1449
  2560  2561  1481
  2560  2560  1610
  2559  2559  2048
  2559  2559  2559
  2559  2560  3071
  2754  2856  3583
  3182  3325  4095
  2564  3073  1973
  2564  3073  1975
  2564  3073  1983
  2563  3073  2013
  2561  3072  2133
  2559  3071  2559
  2559  3071  3071
  2755  3075  3583
  3181  3367  4095
  2734  3586  2488
  2734  3586  2489
  2734  3586  2491
  2734  3586  2499
  2733  3586  2528
  2731  3585  2647
  2741  3584  3071
  2796  3584  3583
  3185  3588  4095
  3144  4095  3001
  3144  4095  3001
  3144  4095  3001
  3144  4095  3003
  3143  4095  3011
  3142  4095  3041
  3141  4095  3159
  3158  4095  3583
  3241  4095  4095
  3073  2182  1905
  3073  2182  1908
  3073  2182  1918
  3073  2182  1956
  3072  2185  2105
  3072  2228  2560
  3073  2379  3072
  3076  2816  3583
  3267  3313  4095
  3073  2183  1905
  3073  2183  1908
  3073  2183  1918
  3073  2183  1956
  3072  2186  2105
  3072  2229  2560
  3073  2380  3072
  3076  2816  3583
  3267  3313  4095
  3073  2188  1905
  3073  2188  1908
  3073  2188  1918
  3073  2188  1956
  3072  2190  2105
  3072  2233  2560
  3073  2381  3072
  3076  2817  3583
  3267  3313  4095
  3073  2205  1905
  3073  2205  1908
  3073  2205  1918
  3073  2204  1956
  3072  2207  2105
  3072  2246  2560
  3073  2388  3072
  3076  2819  3583
  3267  3314  4095
  3073  2272  1905
  3073  2272  1907
  3073  2272  1917
  3073  2271  1956
  3072  2272  2105
  3072  2300  2560
  3072  2416  3071
  3076  2828  3583
  3267  3316  4095
  3072  2566  1906
  3072  2566  1909
  3072  2566  1919
  3072  2565  1957
  3071  2561  2104
  3071  2559  2559
  3071  2570  3071
  3075  2867  3583
  3266  3326  4095
  3072  3073  1940
  3072  3073  1942
  3072  3073  1951
  3072  3073  1984
  3072  3072  2117
  3071  3071  2559
  3071  3071  3071
  3071  3072  3583
  3265  3368  4095
  3076  3585  2481
  3076  3585  2482
  3076  3585  2484
  3076  3585  2492
  3075  3585  2522
  3073  3584  2644
  3071  3583  3071
  3071  3583  3583
  3267  3586  4095
  3246  4095  2999
  3246  4095  3000
  3246  4095  3000
  3246  4095  3002
  3246  4095  3010
  3245  4095  3040
  3242  4095  3158
  3253  4095  3583
  3308  4095  4095
  3585  2692  2413
  3585  2692  2414
  3585  2692  2417
  3585  2692  2427
  3585  2692  2466
  3584  2695  2616
  3584  2739  3072
  3585  2890  3583
  3588  3327  4095
  3585  2692  2413
  3585  2692  2414
  3585  2692  2417
  3585  2692  2427
  3585  2692  2466
  3584  2695  2616
  3584  2739  3072
  3585  2890  3583
  3588  3327  4095
  3585  2694  2413
  3585  2694  2414
  3585  2694  2417
  3585  2694  2427
  3585  2694  2466
  3584  2697  2616
  3584  2740  3072
  3585  2891  3583
  3588  3328  4095
  3585  2698  2413
  3585  2698  2414
  3585  2698  2417
  3585  2698  2427
  3585  2698  2466
  3584  2701  2616
  3584  2743  3072
  3585  2892  3583
  3588  3328  4095
  3585  2715  2413
  3585  2715  2414
  3585  2715  2416
  3585  2715  2427
  3585  2715  2466
  3584  2717  2616
  3584  2757  3072
  3585  2899  3583
  3588  3331  4095
  3585  2783  2413
  3585  2783  2413
  3585  2783  2416
  3585  2783  2426
  3584  2782  2465
  3584  2783  2615
  3584  2811  3072
  3584  2927  3583
  3588  3340  4095
  3584  3078  2414
  3584  3078  2415
  3584  3078  2417
  3584  3078  2428
  3584  3077  2466
  3583  3073  2615
  3583  3071  3071
  3583  3081  3583
  3586  3378  4095
  3584  3585  2448
  3584  3585  2449
  3584  3585  2451
  3584  3585  2460
  3584  3585  2494
  3583  3584  2628
  3583  3583  3071
  3583  3583  3583
  3583  3584  4095
  3588  4095  2992
  3588  4095  2993
  3588  4095  2993
  3588  4095  2995
  3588  4095  3003
  3587  4095  3034
  3585  4095  3155
  3583  4095  3583
  3583  4095  4095
  4095  3204  2924
  4095  3204  2924
  4095  3204  2925
  4095  3204  2928
  4095  3203  2938
  4095  3204  2977
  4095  3207  3128
  4095  3250  3584
  4095  3402  4095
  4095  3204  2924
  4095  3204  2924
  4095  3204  2925
  4095  3204  2928
  4095  3204  2938
  4095  3204  2977
  4095  3207  3128
  4095  3250  3584
  4095  3402  4095
  4095  3204  2924
  4095  3204  2924
  4095  3204  2925
  4095  3204  2928
  4095  3204  2938
  4095  3204  2977
  4095  3207  3128
  4095  3250  3584
  4095  3402  4095
  4095  3205  2924
  4095  3205  2924
  4095  3205  2925
  4095  3205  2928
  4095  3205  2938
  4095  3205  2977
  4095  3208  3128
  4095  3251  3584
  4095  3402  4095
  4095  3210  2924
  4095  3210  2924
  4095  3210  2925
  4095  3210  2928
  4095  3209  2938
  4095  3210  2977
  4095  3212  3128
  4095  3255  3584
  4095  3404  4095
  4095  3227  2924
  4095  3227  2924
  4095  3227  2925
  4095  3227  2927
  4095  3227  2938
  4095  3227  2977
  4095  3229  3128
  4095  3268  3584
  4095  3411  4095
  4095  3294  2923
  4095  3294  2924
  4095  3294  2924
  4095  3294  2927
  4095  3294  2937
  4095  3294  2976
  4095  3294  3127
  4095  3323  3584
  4095  3438  4095
  4095  3590  2925
  4095  3590  2925
  4095  3590  2926
  4095  3590  2928
  4095  3590  2939
  4095  3588  2977
  4095  3585  3127
  4095  3583  3583
  4095  3593  4095
  4095  4095  2959
  4095  4095  2959
  4095  4095  2960
  4095  4095  2962
  4095  4095  2971
  4095  4095  3005
  4095  4095  3140
  4095  4095  3583
  4095  4095  4095
