src/ACES/PixelManager-v.2.0-RC6/luts/aces1.3_ref_gamut_compression.3dl
0 256 512 768 1023
     0     0     0
   447   519  1024
  1142  1289  2048
  2130  2289  3071
  3151  3311  4095
   425  1032   423
   473  1027  1023
  1141  1336  2047
  2130  2292  3071
  3151  3311  4095
  1099  2051  1012
  1096  2050  1135
  1202  2049  2047
  2129  2344  3071
  3151  3314  4095
  2084  3075  1981
  2084  3075  1991
  2082  3073  2137
  2196  3073  3071
  3151  3367  4095
  3105  4095  3001
  3105  4095  3002
  3105  4095  3011
  3103  4095  3159
  3218  4095  4095
  1028   473   403
  1026   563  1024
  1237  1291  2048
  2138  2289  3071
  3152  3311  4095
  1027  1029   412
  1024  1024  1024
  1236  1337  2048
  2138  2292  3071
  3152  3311  4095
  1216  2051  1011
  1213  2049  1134
  1278  2049  2047
  2137  2344  3071
  3152  3314  4095
  2094  3075  1981
  2093  3075  1991
  2091  3073  2137
  2202  3073  3071
  3151  3367  4095
  3106  4095  3001
  3106  4095  3002
  3105  4095  3011
  3103  4095  3159
  3218  4095  4095
  2050  1190   946
  2049  1192  1102
  2049  1375  2048
  2244  2291  3071
  3159  3311  4095
  2049  1266   946
  2048  1265  1101
  2049  1406  2048
  2244  2294  3071
  3159  3311  4095
  2049  2050   976
  2048  2048  1115
  2048  2048  2048
  2243  2345  3071
  3159  3314  4095
  2223  3074  1980
  2223  3074  1989
  2220  3073  2136
  2285  3072  3071
  3159  3367  4095
  3115  4095  3001
  3115  4095  3002
  3115  4095  3011
  3113  4095  3159
  3224  4095  4095
  3073  2182  1905
  3073  2182  1918
  3072  2185  2105
  3073  2379  3072
  3267  3313  4095
  3073  2188  1905
  3073  2188  1918
  3072  2190  2105
  3073  2381  3072
  3267  3313  4095
  3073  2272  1905
  3073  2272  1917
  3072  2272  2105
  3072  2416  3071
  3267  3316  4095
  3072  3073  1940
  3072  3073  1951
  3072  3072  2117
  3071  3071  3071
  3265  3368  4095
  3246  4095  2999
  3246  4095  3000
  3246  4095  3010
  3242  4095  3158
  3308  4095  4095
  4095  3204  2924
  4095  3204  2925
  4095  3203  2938
  4095  3207  3128
  4095  3402  4095
  4095  3204  2924
  4095  3204  2925
  4095  3204  2938
  4095  3207  3128
  4095  3402  4095
  4095  3210  2924
  4095  3210  2925
  4095  3209  2938
  4095  3212  3128
  4095  3404  4095
  4095  3294  2923
  4095  3294  2924
  4095  3294  2937
  4095  3294  3127
  4095  3438  4095
  4095  4095  2959
  4095  4095  2960
  4095  4095  2971
  4095  4095  3140
  4095  4095  4095
