src/ACES/PixelManager-v.2.0-RC6/luts/aces1.3_ref_gamut_compression.3dl
    0   16   32   48   64   80   96  112  128  144  160  176  192  208  224  240  256  272  288  304  320  336  352  368  384  400  416  432  448  464  480  496  512  528  544  560  576  592  608  624  640  656  672  688  704  720  736  752  768  784  800  816  832  848  864  880  896  912  928  944  960  976  992 1008 1023
     0     0     0
     0     0    64
     0     0   128
     0     0   192
    75    90   256
   244   251   320
   380   380   384
   376   382   448
   373   387   512
   372   393   576
   374   402   640
   379   414   704
   386   428   768
   397   446   832
   410   468   896
   427   492   960
   447   519  1024
   471   550  1088
   497   584  1152
   527   621  1216
   560   660  1280
   596   703  1344
   635   747  1408
   677   794  1472
   721   844  1536
   767   895  1600
   816   947  1664
   866  1001  1728
   919  1057  1792
   972  1114  1856
  1028  1171  1920
  1084  1230  1984
  1142  1289  2048
  1200  1349  2112
  1259  1410  2176
  1319  1471  2240
  1379  1533  2304
  1440  1595  2368
  1502  1657  2432
  1564  1719  2495
  1626  1782  2559
  1688  1845  2623
  1751  1908  2687
  1814  1971  2751
  1877  2034  2815
  1940  2098  2879
  2003  2161  2943
  2067  2225  3007
  2130  2289  3071
  2194  2352  3135
  2257  2416  3199
  2321  2480  3263
  2385  2544  3327
  2449  2608  3391
  2512  2671  3455
  2576  2735  3519
  2640  2799  3583
  2704  2863  3647
  2768  2927  3711
  2832  2991  3775
  2896  3055  3839
  2960  3119  3903
  3024  3183  3967
  3088  3247  4031
  3151  3311  4095
     0    64     0
     0    64    64
     0    64   128
     0    64   192
    75    98   256
   243   251   320
   380   380   384
   376   383   448
   373   387   512
   372   394   576
   374   403   640
   379   415   704
   386   430   768
   397   449   832
   410   470   896
   427   495   960
   447   522  1024
   471   553  1088
   497   587  1152
   527   623  1216
   560   663  1280
   596   705  1344
   635   750  1408
   677   796  1472
   721   845  1536
   767   896  1600
   816   949  1664
   866  1003  1728
   919  1058  1792
   972  1114  1856
  1028  1172  1920
  1084  1231  1984
  1141  1290  2048
  1200  1350  2112
  1259  1410  2176
  1319  1471  2240
  1379  1533  2304
  1440  1595  2368
  1502  1657  2432
  1564  1719  2495
  1626  1782  2559
  1688  1845  2623
  1751  1908  2687
  1814  1971  2751
  1877  2035  2815
  1940  2098  2879
  2003  2161  2943
  2067  2225  3007
  2130  2289  3071
  2194  2352  3135
  2257  2416  3199
  2321  2480  3263
  2385  2544  3327
  2449  2608  3391
  2512  2671  3455
  2576  2735  3519
  2640  2799  3583
  2704  2863  3647
  2768  2927  3711
  2832  2991  3775
  2896  3055  3839
  2960  3119  3903
  3024  3183  3967
  3088  3247  4031
  3151  3311  4095
     0   128     0
     0   128    64
     0   128   128
     0   128   192
    75   131   256
   243   251   320
   380   380   384
   376   383   448
   373   387   512
   372   394   576
   374   404   640
   379   417   704
   386   433   768
   396   451   832
   410   473   896
   427   498   960
   447   526  1024
   470   556  1088
   497   590  1152
   527   627  1216
   560   666  1280
   596   708  1344
   635   752  1408
   677   799  1472
   721   847  1536
   767   898  1600
   816   950  1664
   866  1004  1728
   919  1059  1792
   972  1116  1856
  1028  1173  1920
  1084  1231  1984
  1141  1291  2048
  1200  1350  2112
  1259  1411  2176
  1319  1472  2240
  1379  1533  2304
  1440  1595  2368
  1502  1657  2432
  1564  1720  2495
  1626  1782  2559
  1688  1845  2623
  1751  1908  2687
  1814  1971  2751
  1877  2035  2815
  1940  2098  2879
  2003  2162  2943
  2067  2225  3007
  2130  2289  3071
  2194  2352  3135
  2257  2416  3199
  2321  2480  3263
  2385  2544  3327
  2449  2608  3391
  2512  2671  3455
  2576  2735  3519
  2640  2799  3583
  2704  2863  3647
  2768  2927  3711
  2832  2991  3775
  2896  3055  3839
  2960  3119  3903
  3024  3183  3967
  3088  3247  4031
  3151  3311  4095
     0   192     0
     0   192    64
     0   192   128
     0   192   192
    76   194   256
   242   252   319
   380   380   383
   376   383   447
   373   388   512
   372   396   576
   374   407   640
   379   420   704
   386   436   768
   396   455   832
   410   477   896
   427   502   960
   447   530  1024
   470   560  1088
   497   594  1152
   527   630  1216
   560   669  1280
   596   711  1344
   635   755  1408
   677   801  1472
   721   850  1536
   767   900  1600
   816   952  1664
   866  1006  1728
   919  1061  1792
   972  1117  1856
  1028  1174  1920
  1084  1232  1984
  1141  1291  2048
  1200  1351  2112
  1259  1411  2176
  1319  1472  2240
  1379  1534  2304
  1440  1595  2368
  1502  1658  2432
  1564  1720  2495
  1626  1783  2559
  1688  1845  2623
  1751  1908  2687
  1814  1972  2751
  1877  2035  2815
  1940  2098  2879
  2003  2162  2943
  2067  2225  3007
  2130  2289  3071
  2194  2352  3135
  2257  2416  3199
  2321  2480  3263
  2385  2544  3327
  2449  2608  3391
  2512  2671  3455
  2576  2735  3519
  2640  2799  3583
  2704  2863  3647
  2768  2927  3711
  2832  2991  3775
  2896  3055  3839
  2960  3119  3903
  3024  3183  3967
  3088  3247  4031
  3151  3311  4095
   154   271   162
   144   266   152
   131   261   145
   119   259   191
   106   259   256
   242   264   319
   380   380   383
   376   383   447
   373   389   511
   372   398   575
   374   410   640
   379   424   704
   386   441   768
   396   460   832
   410   483   896
   427   507   960
   447   535  1024
   470   566  1088
   497   599  1152
   527   635  1216
   560   674  1280
   596   715  1344
   635   759  1408
   676   805  1472
   721   853  1536
   767   903  1600
   816   954  1664
   866  1008  1728
   919  1062  1792
   972  1118  1856
  1028  1175  1920
  1084  1233  1984
  1141  1292  2048
  1200  1352  2112
  1259  1412  2176
  1319  1473  2240
  1379  1534  2304
  1440  1596  2368
  1502  1658  2432
  1564  1720  2495
  1626  1783  2559
  1688  1846  2623
  1751  1909  2687
  1814  1972  2751
  1877  2035  2815
  1940  2098  2879
  2003  2162  2943
  2067  2225  3007
  2130  2289  3071
  2194  2353  3135
  2257  2416  3199
  2321  2480  3263
  2385  2544  3327
  2449  2608  3391
  2512  2671  3455
  2576  2735  3519
  2640  2799  3583
  2704  2863  3647
  2768  2927  3711
  2832  2991  3775
  2896  3055  3839
  2960  3119  3903
  3024  3183  3967
  3088  3247  4031
  3151  3311  4095
   327   352   329
   320   348   322
   311   344   314
   300   338   304
   287   332   291
   274   328   319
   380   380   383
   376   384   447
   373   392   511
   373   403   575
   374   416   639
   379   431   704
   386   448   768
   396   468   832
   410   490   896
   427   515   960
   447   542  1024
   470   572  1088
   497   605  1152
   527   641  1216
   560   679  1280
   596   720  1344
   635   763  1408
   676   809  1472
   721   856  1536
   767   906  1600
   816   957  1664
   866  1010  1728
   918  1064  1792
   972  1120  1856
  1028  1177  1920
  1084  1235  1984
  1141  1293  2048
  1200  1353  2112
  1259  1413  2176
  1319  1474  2240
  1379  1535  2304
  1440  1596  2368
  1502  1658  2432
  1564  1721  2495
  1626  1783  2559
  1688  1846  2623
  1751  1909  2687
  1814  1972  2751
  1877  2035  2815
  1940  2098  2879
  2003  2162  2943
  2067  2225  3007
  2130  2289  3071
  2194  2353  3135
  2257  2416  3199
  2321  2480  3263
  2385  2544  3327
  2449  2608  3391
  2512  2672  3455
  2576  2735  3519
  2640  2799  3583
  2704  2863  3647
  2768  2927  3711
  2832  2991  3775
  2896  3055  3839
  2960  3119  3903
  3024  3183  3967
  3088  3247  4031
  3151  3311  4095
   376   417   379
   376   415   379
   376   412   380
   377   409   380
   377   405   380
   378   400   380
   379   395   383
   376   395   447
   373   403   511
   373   414   575
   375   427   639
   379   442   703
   386   459   767
   397   479   832
   410   500   896
   427   525   960
   447   552  1024
   470   581  1088
   497   613  1152
   527   648  1216
   560   686  1280
   596   726  1344
   635   768  1408
   676   813  1472
   721   860  1536
   767   909  1600
   816   960  1664
   866  1013  1728
   918  1067  1792
   972  1122  1856
  1027  1179  1920
  1084  1236  1984
  1141  1295  2048
  1200  1354  2112
  1259  1414  2176
  1319  1475  2240
  1379  1536  2304
  1440  1597  2368
  1502  1659  2431
  1564  1721  2495
  1626  1784  2559
  1688  1846  2623
  1751  1909  2687
  1814  1972  2751
  1877  2035  2815
  1940  2099  2879
  2003  2162  2943
  2067  2226  3007
  2130  2289  3071
  2194  2353  3135
  2257  2416  3199
  2321  2480  3263
  2385  2544  3327
  2449  2608  3391
  2512  2672  3455
  2576  2735  3519
  2640  2799  3583
  2704  2863  3647
  2768  2927  3711
  2832  2991  3775
  2896  3055  3839
  2960  3119  3903
  3024  3183  3967
  3088  3247  4031
  3151  3311  4095
   369   476   378
   369   474   378
   370   472   378
   370   469   379
   370   466   379
   371   462   380
   371   457   386
   376   457   447
   375   457   511
   374   457   575
   375   458   639
   380   466   703
   387   479   767
   397   496   831
   410   516   896
   427   539   960
   447   564  1024
   470   593  1088
   497   624  1152
   527   658  1216
   560   694  1280
   596   733  1344
   635   775  1408
   676   819  1472
   720   866  1536
   767   914  1600
   816   964  1664
   866  1016  1728
   918  1070  1792
   972  1125  1856
  1027  1181  1920
  1084  1238  1984
  1141  1296  2048
  1200  1356  2112
  1259  1415  2176
  1319  1476  2240
  1379  1536  2304
  1440  1598  2368
  1502  1660  2431
  1564  1722  2495
  1626  1784  2559
  1688  1847  2623
  1751  1909  2687
  1814  1972  2751
  1877  2036  2815
  1940  2099  2879
  2003  2162  2943
  2067  2226  3007
  2130  2289  3071
  2194  2353  3135
  2257  2416  3199
  2321  2480  3263
  2385  2544  3327
  2449  2608  3391
  2512  2672  3455
  2576  2735  3519
  2640  2799  3583
  2704  2863  3647
  2768  2927  3711
  2832  2991  3775
  2896  3055  3839
  2960  3119  3903
  3024  3183  3967
  3088  3247  4031
  3151  3311  4095
   364   536   377
   365   534   378
   365   532   378
   365   530   379
   365   527   380
   365   523   382
   366   520   391
   370   520   447
   375   520   511
   376   520   575
   377   520   639
   381   520   703
   388   520   767
   398   527   831
   411   541   895
   427   560   959
   447   582  1024
   470   608  1088
   497   637  1152
   527   670  1216
   560   705  1280
   596   743  1344
   635   783  1408
   676   826  1472
   720   872  1536
   767   919  1600
   815   969  1664
   866  1020  1728
   918  1073  1792
   972  1128  1856
  1027  1184  1920
  1084  1241  1984
  1141  1298  2048
  1200  1357  2112
  1259  1417  2176
  1319  1477  2240
  1379  1538  2304
  1440  1599  2368
  1502  1660  2431
  1564  1722  2495
  1626  1785  2559
  1688  1847  2623
  1751  1910  2687
  1814  1973  2751
  1877  2036  2815
  1940  2099  2879
  2003  2162  2943
  2067  2226  3007
  2130  2289  3071
  2194  2353  3135
  2257  2417  3199
  2321  2480  3263
  2385  2544  3327
  2449  2608  3391
  2512  2672  3455
  2576  2735  3519
  2640  2799  3583
  2704  2863  3647
  2768  2927  3711
  2832  2991  3775
  2896  3055  3839
  2960  3119  3903
  3024  3183  3967
  3088  3247  4031
  3151  3311  4095
   362   596   378
   362   595   378
   362   593   379
   362   591   380
   362   589   382
   362   586   385
   363   583   396
   366   582   447
   371   582   511
   377   583   575
   380   583   639
   384   583   703
   390   583   767
   400   583   831
   412   584   895
   428   593   959
   448   609  1023
   471   630  1088
   497   656  1152
   527   685  1216
   560   718  1280
   596   755  1344
   635   794  1408
   676   835  1472
   720   880  1536
   767   926  1600
   815   975  1664
   866  1025  1728
   918  1078  1792
   972  1132  1856
  1027  1187  1920
  1084  1243  1984
  1141  1301  2048
  1200  1359  2112
  1259  1418  2176
  1319  1478  2240
  1379  1539  2304
  1440  1600  2368
  1502  1661  2431
  1564  1723  2495
  1626  1785  2559
  1688  1848  2623
  1751  1910  2687
  1814  1973  2751
  1877  2036  2815
  1940  2099  2879
  2003  2163  2943
  2067  2226  3007
  2130  2290  3071
  2194  2353  3135
  2257  2417  3199
  2321  2480  3263
  2385  2544  3327
  2449  2608  3391
  2512  2672  3455
  2576  2736  3519
  2640  2799  3583
  2704  2863  3647
  2768  2927  3711
  2832  2991  3775
  2896  3055  3839
  2960  3119  3903
  3024  3183  3967
  3088  3247  4031
  3151  3311  4095
   362   657   379
   362   656   379
   362   654   381
   362   653   382
   362   651   385
   362   649   390
   362   646   403
   365   645   447
   369   645   511
   375   645   575
   382   646   639
   386   646   703
   393   646   767
   402   646   831
   414   646   895
   430   647   959
   449   650  1023
   472   662  1087
   498   682  1151
   527   707  1216
   560   736  1280
   596   770  1344
   635   807  1408
   676   846  1472
   720   889  1536
   767   934  1600
   815   982  1664
   866  1031  1728
   918  1083  1792
   972  1136  1856
  1027  1191  1920
  1084  1246  1984
  1141  1303  2048
  1200  1361  2112
  1259  1420  2176
  1319  1480  2240
  1379  1540  2304
  1440  1601  2368
  1502  1662  2431
  1564  1724  2495
  1626  1786  2559
  1688  1848  2623
  1751  1911  2687
  1814  1974  2751
  1877  2037  2815
  1940  2100  2879
  2003  2163  2943
  2067  2226  3007
  2130  2290  3071
  2194  2353  3135
  2257  2417  3199
  2321  2481  3263
  2385  2544  3327
  2449  2608  3391
  2512  2672  3455
  2576  2736  3519
  2640  2799  3583
  2704  2863  3647
  2768  2927  3711
  2832  2991  3775
  2896  3055  3839
  2960  3119  3903
  3024  3183  3967
  3088  3247  4031
  3151  3311  4095
   365   719   381
   365   718   382
   364   716   384
   364   715   386
   364   713   390
   364   712   397
   364   710   410
   366   708   447
   371   709   511
   376   709   575
   382   709   639
   389   709   703
   396   709   767
   405   709   831
   417   710   895
   432   710   959
   451   710  1023
   473   711  1087
   499   719  1151
   528   737  1215
   560   760  1280
   596   790  1344
   635   823  1408
   676   860  1472
   720   901  1536
   767   944  1600
   815   990  1664
   866  1039  1728
   918  1089  1792
   972  1141  1856
  1027  1195  1920
  1084  1250  1984
  1141  1307  2048
  1200  1364  2112
  1259  1423  2176
  1319  1482  2240
  1379  1542  2304
  1440  1602  2367
  1502  1663  2431
  1564  1725  2495
  1626  1787  2559
  1688  1849  2623
  1751  1911  2687
  1814  1974  2751
  1877  2037  2815
  1940  2100  2879
  2003  2163  2943
  2067  2227  3007
  2130  2290  3071
  2194  2353  3135
  2257  2417  3199
  2321  2481  3263
  2385  2544  3327
  2449  2608  3391
  2512  2672  3455
  2576  2736  3519
  2640  2800  3583
  2704  2863  3647
  2768  2927  3711
  2832  2991  3775
  2896  3055  3839
  2960  3119  3903
  3024  3183  3967
  3088  3247  4031
  3151  3311  4095
   371   781   385
   370   780   387
   370   779   389
   370   778   392
   369   776   397
   369   775   405
   369   773   419
   371   772   450
   375   772   511
   379   772   575
   385   772   639
   391   772   703
   399   772   767
   408   772   831
   420   773   895
   435   773   959
   454   773  1023
   476   774  1087
   501   774  1151
   529   779  1215
   561   794  1279
   596   816  1343
   635   845  1408
   676   878  1472
   720   916  1536
   767   957  1600
   815  1001  1664
   866  1048  1728
   918  1097  1792
   972  1148  1856
  1027  1201  1920
  1084  1255  1984
  1141  1311  2048
  1200  1368  2112
  1259  1426  2176
  1319  1484  2240
  1379  1544  2304
  1440  1604  2367
  1502  1665  2431
  1564  1726  2495
  1626  1788  2559
  1688  1850  2623
  1751  1912  2687
  1814  1975  2751
  1877  2038  2815
  1940  2100  2879
  2003  2164  2943
  2067  2227  3007
  2130  2290  3071
  2194  2354  3135
  2257  2417  3199
  2321  2481  3263
  2385  2544  3327
  2449  2608  3391
  2512  2672  3455
  2576  2736  3519
  2640  2800  3583
  2704  2863  3647
  2768  2927  3711
  2832  2991  3775
  2896  3055  3839
  2960  3119  3903
  3024  3183  3967
  3088  3247  4031
  3151  3311  4095
   379   843   391
   379   842   393
   379   841   396
   378   840   400
   378   839   405
   378   838   414
   378   837   428
   379   836   456
   382   835   511
   386   835   575
   391   835   639
   397   836   703
   404   836   767
   413   836   831
   424   836   895
   439   836   959
   457   837  1023
   479   837  1087
   503   837  1151
   531   838  1215
   563   840  1279
   597   852  1343
   635   874  1407
   677   902  1471
   720   935  1536
   767   973  1600
   815  1014  1664
   866  1059  1728
   918  1106  1792
   972  1156  1856
  1027  1207  1920
  1084  1261  1984
  1141  1315  2048
  1199  1372  2112
  1259  1429  2176
  1319  1487  2240
  1379  1546  2304
  1440  1606  2367
  1502  1667  2431
  1564  1728  2495
  1626  1789  2559
  1688  1851  2623
  1751  1913  2687
  1814  1976  2751
  1877  2038  2815
  1940  2101  2879
  2003  2164  2943
  2067  2227  3007
  2130  2291  3071
  2194  2354  3135
  2257  2417  3199
  2321  2481  3263
  2385  2545  3327
  2449  2608  3391
  2512  2672  3455
