src/ACES/PixelManager-v.2.0-RC6/luts/UE_Default_ACEScct-to-AP1.cube
TITLE "Generated by Resolve"
LUT_3D_SIZE 9
0 0 0
0.000518807 1.5259e-05 1.5259e-05
0.00915541 0.000183108 0.000183108
0.0718242 0.00143435 0.00143435
0.442298 0.00898756 0.00898756
0.866926 0.0245823 0.0245823
0.990906 0.125628 0.125628
1 0.574548 0.574548
1 0.902464 0.902464
1.5259e-05 0.000335698 1.5259e-05
0.000442512 0.000350958 3.0518e-05
0.00793469 0.000549325 0.000183108
0.0726787 0.00204471 0.00148013
0.443732 0.0104524 0.00910964
0.867185 0.0246128 0.0246128
0.990906 0.125597 0.125597
1 0.574533 0.574533
1 0.902464 0.902464
0.000320439 0.00698863 0.000320439
0.000839246 0.00703441 0.000335698
0.0077821 0.00727855 0.00047303
0.0766613 0.00903334 0.00187686
0.447211 0.0185855 0.00959792
0.867628 0.0246586 0.0246586
0.99089 0.125521 0.125521
1 0.574502 0.574502
1 0.902464 0.902464
0.00386053 0.0852216 0.00386053
0.00450141 0.0851606 0.00387579
0.0116884 0.0852827 0.00404364
0.0891432 0.0862287 0.00563058
0.471656 0.096376 0.0138094
0.869383 0.0248569 0.0248569
0.990814 0.125231 0.125231
1 0.574365 0.574365
1 0.902449 0.902449
0.0256962 0.538994 0.0256962
0.0256962 0.538918 0.0256962
0.0256962 0.538796 0.0256962
0.0746471 0.539498 0.0268559
0.534463 0.543938 0.0371557
0.89427 0.467491 0.0500954
0.990539 0.124056 0.124056
1 0.57377 0.57377
1 0.902403 0.902403
0.0749218 0.956252 0.0749218
0.0748913 0.956191 0.0748913
0.0748455 0.956085 0.0748455
0.0746624 0.955642 0.0746624
0.0738079 0.953506 0.0738079
0.910033 0.958968 0.109926
1 0.908217 0.208713
1 0.57142 0.57142
1 0.902174 0.902174
0.345174 1 0.345174
0.345144 1 0.345144
0.345098 1 0.345083
0.344869 1 0.344869
0.343877 1 0.343877
0.339254 1 0.339254
1 1 0.45539
1 1 0.672328
1 0.901259 0.901259
0.79263 1 0.79263
0.79263 1 0.79263
0.792615 1 0.792615
0.792599 1 0.792584
0.792462 1 0.792462
0.791836 1 0.791836
0.788952 1 0.788937
1 1 0.848997
1 1 0.937072
0.975891 1 0.975875
0.975891 1 0.975875
0.975875 1 0.975875
0.975875 1 0.975875
0.975875 1 0.975875
0.97583 1 0.97583
0.975647 1 0.975647
0.974792 1 0.974777
1 1 0.992004
0 0 0.000457771
0.000488289 0 0.000488289
0.00822461 0.000106813 0.000686656
0.0713359 0.00134279 0.00201419
0.441779 0.00889601 0.00970474
0.86688 0.024567 0.024567
0.990906 0.125612 0.125612
1 0.574548 0.574548
1 0.902464 0.902464
1.5259e-05 0.000518807 0.000518807
0.000503548 0.000503548 0.000503548
0.00851453 0.000717174 0.000747692
0.0718395 0.00222782 0.00209049
0.442954 0.0107576 0.00981155
0.86714 0.0245975 0.0245975
0.99089 0.125566 0.125566
1 0.574533 0.574533
1 0.902464 0.902464
0.000320439 0.00761425 0.000915541
0.0009308 0.00764477 0.000946059
0.0080415 0.00790417 0.00111391
0.0749828 0.00962844 0.00256352
0.445975 0.0192721 0.0102998
0.867567 0.0246586 0.0246586
0.990875 0.125505 0.125505
1 0.574502 0.574502
1 0.902464 0.902464
0.00390631 0.0865492 0.00471504
0.00463874 0.0865339 0.0047303
0.0119631 0.086717 0.00491341
0.0897231 0.0877241 0.00654612
0.46949 0.098024 0.0142214
0.869291 0.0248569 0.0248569
0.990814 0.1252 0.1252
1 0.574365 0.574365
1 0.902449 0.902449
0.0257572 0.540017 0.0257572
0.0257572 0.53994 0.0257572
0.025742 0.539803 0.025742
0.0749371 0.540505 0.0269169
0.5346 0.544961 0.0372168
0.894133 0.469017 0.0501564
0.990539 0.124025 0.124025
1 0.57377 0.57377
1 0.902403 0.902403
0.0749523 0.956344 0.0749523
0.0749218 0.956283 0.0749218
0.0748913 0.956176 0.0748913
0.0747082 0.955718 0.0746929
0.0738384 0.953597 0.0738384
0.910018 0.95906 0.109972
1 0.908385 0.208713
1 0.571405 0.571405
1 0.902174 0.902174
0.345205 1 0.345205
0.345174 1 0.345174
0.345129 1 0.345129
0.344915 1 0.344915
0.343923 1 0.343908
0.3393 1 0.3393
1 1 0.455421
1 1 0.672328
1 0.901259 0.901259
0.792645 1 0.79263
0.79263 1 0.79263
0.79263 1 0.79263
0.792599 1 0.792599
0.792462 1 0.792462
0.791852 1 0.791836
0.788952 1 0.788952
1 1 0.849012
1 1 0.937072
0.975891 1 0.975875
0.975891 1 0.975875
0.975891 1 0.975875
0.975875 1 0.975875
0.975875 1 0.975875
0.97583 1 0.97583
0.975647 1 0.975647
0.974792 1 0.974777
1 1 0.992004
0 0 0.00724804
0.000396735 0 0.00729381
0.00753796 0 0.00753796
0.0742504 0.000595102 0.0089723
0.444617 0.00808728 0.0172122
0.866819 0.024567 0.024567
0.990906 0.125582 0.125582
1 0.574533 0.574533
1 0.902464 0.902464
0 0.000183108 0.00740063
0.00047303 0.000213626 0.00740063
0.00762951 0.000381476 0.00762951
0.07364 0.00196841 0.00910964
0.445594 0.0106203 0.0174105
0.867079 0.0245975 0.0245975
0.99089 0.125536 0.125536
1 0.574517 0.574517
1 0.902464 0.902464
0.000137331 0.00798047 0.00798047
0.000900282 0.00788891 0.00788891
0.00762951 0.00762951 0.00762951
0.0748608 0.0099794 0.00968948
0.44773 0.0196689 0.0179904
0.867475 0.0246433 0.0246433
0.990875 0.125475 0.125475
1 0.574487 0.574487
1 0.902464 0.902464
0.00375372 0.0880446 0.0121614
0.00466926 0.0880903 0.0122072
0.0122225 0.0883345 0.0124361
0.0905013 0.0895399 0.0142367
0.468376 0.0998703 0.0221866
0.869123 0.0248264 0.0248417
0.990799 0.12517 0.12517
1 0.57435 0.57435
1 0.902449 0.902449
0.0256962 0.541176 0.0304112
0.0256962 0.541131 0.0302739
0.0256962 0.541009 0.0300603
0.0753338 0.541787 0.030396
0.534798 0.54667 0.0373236
0.893904 0.471534 0.050248
0.990524 0.12398 0.12398
1 0.573754 0.573754
1 0.902403 0.902403
0.0750134 0.956481 0.0750134
0.0749828 0.95642 0.0749828
0.0749523 0.956313 0.0749371
0.0747539 0.955871 0.0747539
0.0738994 0.953735 0.0738994
0.910002 0.959228 0.110033
1 0.908675 0.208728
1 0.571389 0.571389
1 0.902174 0.902174
0.345281 1 0.345281
0.345251 1 0.345251
0.345205 1 0.345205
0.344976 1 0.344976
0.343984 1 0.343984
0.339361 1 0.339361
1 1 0.455467
1 1 0.672328
1 0.901259 0.901259
0.792645 1 0.792645
0.792645 1 0.792645
0.79263 1 0.79263
0.792615 1 0.792599
0.792477 1 0.792477
0.791852 1 0.791852
0.788968 1 0.788952
1 1 0.849012
1 1 0.937072
0.975891 1 0.975875
0.975891 1 0.975875
0.975891 1 0.975875
0.975875 1 0.975875
0.975875 1 0.975875
0.97583 1 0.97583
0.975647 1 0.975647
0.974792 1 0.974777
1 1 0.992004
0 0 0.0820935
0 0 0.0822156
0.00636301 0 0.082536
0.0845045 0 0.0844587
0.455253 0.00105287 0.09514
0.86479 0.0163424 0.0958114
0.990875 0.12546 0.12546
1 0.574472 0.574472
1 0.902464 0.902464
0 0 0.0825513
0 0 0.0826886
0.00665293 0 0.0830396
0.0850843 0 0.085008
0.455482 0.00555428 0.0956588
0.865171 0.0165255 0.0946517
0.99086 0.125429 0.125429
1 0.574456 0.574456
1 0.902464 0.902464
0 0.0043946 0.0834974
0 0.00447089 0.08365
0.00732433 0.00474556 0.0839399
0.0861372 0.00671397 0.0860456
0.456458 0.0168002 0.0966506
0.865782 0.0168154 0.0926986
0.990845 0.125353 0.125353
1 0.574426 0.574426
1 0.902464 0.902464
0.00155642 0.0889448 0.0889906
0.00331121 0.0890974 0.0891432
0.0117342 0.0894179 0.0894942
0.0912032 0.0912032 0.0912032
0.468452 0.102708 0.102312
0.867674 0.0229496 0.0838331
0.990768 0.125032 0.125032
1 0.574289 0.574289
1 0.902449 0.902449
0.0233921 0.539345 0.110384
0.0233921 0.5393 0.11017
0.0233921 0.539178 0.109789
0.0755474 0.539864 0.110109
0.533043 0.544976 0.116747
0.892332 0.480064 0.0708782
0.990478 0.123766 0.123766
1 0.573678 0.573678
1 0.902388 0.902403
0.0752728 0.957107 0.0752728
0.0752422 0.957046 0.0752422
0.0752117 0.956954 0.0752117
0.0750134 0.956497 0.0750134
0.0741436 0.95436 0.0741436
0.909895 0.95993 0.110292
1 0.909926 0.208743
1 0.571283 0.571283
1 0.902159 0.902159
0.345586 1 0.345586
0.345556 1 0.345556
0.34551 1 0.34551
0.345296 1 0.345281
0.344289 1 0.344289
0.339651 1 0.339651
1 1 0.455695
1 1 0.672328
1 0.901244 0.901244
0.792691 1 0.792691
0.792691 1 0.792676
0.792676 1 0.792676
0.792645 1 0.792645
0.792508 1 0.792508
0.791897 1 0.791897
0.788998 1 0.788998
1 1 0.849027
1 1 0.937072
0.975891 1 0.975891
0.975891 1 0.975891
0.975891 1 0.975891
0.975891 1 0.975875
0.975875 1 0.975875
0.97583 1 0.97583
0.975647 1 0.975647
0.974792 1 0.974792
1 1 0.992004
0 0 0.482643
0 0 0.482856
0.0037995 0 0.483268
0.0908522 0 0.485924
0.502983 0 0.50013
0.854963 0 0.530587
0.978805 0.0857099 0.468711
1 0.574243 0.574243
1 0.902434 0.902449
0 0 0.483314
0 0 0.483528
0.0043946 0 0.48397
0.0916152 0 0.486686
0.504051 0 0.50106
0.8551 0 0.530358
0.978821 0.085771 0.467857
1 0.574212 0.574212
1 0.902434 0.902434
0 0 0.484581
0 0 0.48481
0.00544747 0 0.485283
0.092958 0 0.48809
0.505943 0.00759899 0.502739
0.855314 0 0.529946
0.978866 0.085893 0.466438
1 0.574182 0.574182
1 0.902434 0.902434
0 0.0995804 0.491768
0 0.0998398 0.492058
0.0102998 0.100328 0.492592
0.0985885 0.103029 0.49575
0.514626 0.110735 0.511086
0.857847 0.00648508 0.530022
0.979049 0.0864576 0.460075
1 0.574044 0.574044
1 0.902419 0.902434
0.0110475 0.523018 0.524681
0.0110475 0.522881 0.524681
0.0110323 0.522637 0.524666
0.0749371 0.522805 0.525673
0.527764 0.527764 0.527764
0.879515 0.466865 0.537835
0.979843 0.0887617 0.428428
1 0.573404 0.573404
1 0.902373 0.902373
0.0629892 0.912108 0.48304
0.0629587 0.912062 0.482841
0.0629282 0.912001 0.48249
0.0627756 0.911681 0.481041
0.0619516 0.909957 0.475822
0.896071 0.918013 0.494896
1 0.901503 0.327581
1 0.570871 0.570871
1 0.902144 0.902144
0.346975 1 0.346975
0.346944 1 0.346944
0.346899 1 0.346899
0.346685 1 0.346685
0.345678 1 0.345678
0.341009 1 0.340993
1 1 0.456687
1 1 0.672297
1 0.901213 0.901213
0.792874 1 0.792874
0.792874 1 0.792874
0.792874 1 0.792859
0.792844 1 0.792828
0.792706 1 0.792706
0.792081 1 0.792081
0.789197 1 0.789181
1 1 0.849134
1 1 0.937072
0.975906 1 0.975891
0.975906 1 0.975891
0.975906 1 0.975891
0.975891 1 0.975891
0.975891 1 0.975891
0.975845 1 0.975845
0.975662 1 0.975662
0.974807 1 0.974792
1 1 0.99202
0.0400397 0.182452 0.835782
0.0522469 0.182879 0.836103
0.07393 0.183627 0.836637
0.181415 0.186969 0.839277
0.545769 0.195056 0.849332
0.872557 0.0601968 0.862882
0.966598 0.051667 0.862303
1 0.542794 0.852064
1 0.902342 0.902342
0.0401465 0.197681 0.836591
0.0523079 0.198108 0.836896
0.0739605 0.19884 0.837446
0.18143 0.202152 0.840101
0.546517 0.21004 0.850217
0.873274 0.0750439 0.863615
0.966583 0.051606 0.862242
1 0.542794 0.851987
1 0.902342 0.902342
0.040116 0.222232 0.837903
0.0522011 0.22266 0.838209
0.0737774 0.223362 0.838758
0.181186 0.226596 0.841443
0.547631 0.23415 0.851667
0.874479 0.100175 0.864851
0.966567 0.0514992 0.862135
1 0.542794 0.85185
1 0.902342 0.902342
0.0366979 0.324193 0.84358
0.0483101 0.324575 0.843885
0.0692454 0.325216 0.84445
0.176181 0.328176 0.847227
0.551019 0.334508 0.857847
0.879667 0.213169 0.870298
0.966461 0.0510109 0.861708
1 0.542779 0.85124
1 0.902327 0.902327
0.00865187 0.596872 0.862654
0.00863661 0.596811 0.862745
0.00863661 0.596704 0.862882
0.0658122 0.597498 0.864637
0.525521 0.60296 0.876097
0.892943 0.558801 0.885878
0.9691 0.119829 0.862852
1 0.542748 0.848432
1 0.902281 0.902281
0.0595407 0.878004 0.879957
0.0594949 0.877943 0.879911
0.0594339 0.877836 0.879866
0.0591592 0.877348 0.879576
0.0577096 0.874769 0.877714
0.88484 0.88484 0.88484
1 0.855604 0.888136
1 0.541619 0.834012
1 0.902022 0.902037
0.340093 1 0.857618
0.340063 1 0.857603
0.340002 1 0.857572
0.339773 1 0.85742
0.338674 1 0.856779
0.333501 1 0.854414
1 1 0.868772
1 1 0.780362
1 0.901045 0.901045
0.793729 1 0.793729
0.793729 1 0.793729
0.793729 1 0.793713
0.793698 1 0.793698
0.793561 1 0.793561
0.792935 1 0.792935
0.790036 1 0.790036
1 1 0.849607
1 1 0.937057
0.975952 1 0.975952
0.975952 1 0.975952
0.975952 1 0.975952
0.975952 1 0.975952
0.975952 1 0.975937
0.975906 1 0.975906
0.975723 1 0.975723
0.974853 1 0.974853
1 1 0.99205
0.0799573 0.718624 0.975479
0.0934005 0.718898 0.975769
0.116899 0.719371 0.976257
0.22977 0.721584 0.978607
0.590372 0.727382 0.986191
0.899443 0.711666 0.992386
0.9879 0.502617 0.984985
1 0.550118 0.985992
1 0.892241 0.99237
0.0713359 0.721019 0.975479
0.0844434 0.721279 0.975753
0.107591 0.721752 0.976242
0.220554 0.723934 0.978592
0.587854 0.729824 0.986297
0.899443 0.714412 0.992508
0.98822 0.510109 0.985306
1 0.550103 0.985992
1 0.892241 0.99237
0.0576333 0.724926 0.975479
0.0700847 0.72517 0.975753
0.0924392 0.725612 0.976226
0.205127 0.727764 0.978561
0.583612 0.733791 0.98645
0.899428 0.718883 0.992706
0.988724 0.522148 0.985824
1 0.550042 0.985977
1 0.892241 0.99237
0.0374914 0.741848 0.976211
0.0374914 0.741817 0.976242
0.0375067 0.741756 0.976272
0.136675 0.743542 0.978317
0.563668 0.750195 0.98703
0.89929 0.737423 0.9935
0.990723 0.569665 0.987869
1 0.549844 0.985946
1 0.892241 0.992325
0.0515602 0.800473 0.980056
0.051545 0.800397 0.980056
0.0515297 0.80029 0.980072
0.0514229 0.799771 0.980087
0.454887 0.80528 0.987961
0.897276 0.800473 0.996109
0.996475 0.708186 0.993774
1 0.548898 0.985794
1 0.892226 0.992157
0.111604 0.906828 0.985855
0.111574 0.906798 0.985855
0.111513 0.906752 0.985855
0.111269 0.906538 0.98584
0.110155 0.905547 0.985748
0.874754 0.916503 1
1 0.89839 1
1 0.645487 0.989502
1 0.89218 0.991394
0.38819 0.992554 0.993072
0.388144 0.992554 0.993072
0.388083 0.992538 0.993057
0.387823 0.992508 0.993042
0.386542 0.992355 0.99295
0.379644 0.991547 0.992325
1 1 1
1 0.99411 1
1 0.891554 0.987411
0.793332 1 0.993408
0.793332 1 0.993393
0.793332 1 0.993393
0.793301 1 0.993393
0.793149 1 0.993347
0.792508 1 0.993164
0.789395 1 0.992493
1 1 0.997559
1 1 0.972137
0.976211 1 0.976211
0.976211 1 0.976211
0.976211 1 0.976211
0.976211 1 0.976211
0.976196 1 0.976196
0.976165 1 0.97615
0.975982 1 0.975967
0.975113 1 0.975113
1 1 0.992172
0.311284 0.949523 1
0.311254 0.949508 1
0.311208 0.949493 1
0.310979 0.949401 1
0.309911 0.948974 1
0.890623 0.958633 1
1 0.952987 1
1 0.880171 1
1 0.897047 1
0.311666 0.949676 1
0.311635 0.94966 1
0.311589 0.949645 1
0.311345 0.949554 1
0.310292 0.949126 1
0.890455 0.958785 1
1 0.953185 1
1 0.880812 1
1 0.897047 1
0.312291 0.949935 1
0.312261 0.94992 1
0.312215 0.949905 1
0.311986 0.949813 1
0.310933 0.949386 1
0.890166 0.959045 1
1 0.95349 1
1 0.88188 1
1 0.897032 1
0.315114 0.951064 1
0.315084 0.951049 1
0.315022 0.951034 1
0.314794 0.950942 1
0.313741 0.95053 1
0.888869 0.960159 1
1 0.954864 1
1 0.886473 1
1 0.897017 1
0.32784 0.955871 1
0.32781 0.955856 1
0.327764 0.95584 1
0.327535 0.955764 1
0.326482 0.955398 1
0.882643 0.964813 1
1 0.960586 1
1 0.904402 1
1 0.896941 1
0.3832 0.972213 1
0.383169 0.972213 1
0.383124 0.972198 1
0.382925 0.972152 1
0.381979 0.971923 1
0.844923 0.980011 1
1 0.979171 1
1 0.951446 1
1 0.89659 1
0.558572 1 1
0.558556 1 1
0.558526 1 1
0.558419 1 1
0.557916 1 1
0.555581 1 1
0.99939 1 1
1 1 1
1 0.930999 1
0.820706 1 1
0.820706 1 1
0.820706 1 1
0.820676 1 1
0.820539 1 1
0.819883 1 1
0.816358 1 1
1 1 1
1 1 1
0.976303 1 1
0.976303 1 1
0.976303 1 1
0.976303 1 1
0.976303 1 1
0.976257 1 1
0.976059 1 1
0.975143 1 1
1 1 1
0.778378 1 1
0.778363 1 1
0.778363 1 1
0.778332 1 1
0.77818 1 1
0.777508 1 1
1 1 1
1 1 1
1 1 1
0.778424 1 1
0.778424 1 1
0.778408 1 1
0.778378 1 1
0.778241 1 1
0.777554 1 1
1 1 1
1 1 1
1 1 1
0.778515 1 1
0.778515 1 1
0.7785 1 1
0.77847 1 1
0.778317 1 1
0.777646 1 1
1 1 1
1 1 1
1 1 1
0.778912 1 1
0.778897 1 1
0.778897 1 1
0.778866 1 1
0.778714 1 1
0.778042 1 1
1 1 1
1 1 1
1 1 1
0.780667 1 1
0.780667 1 1
0.780667 1 1
0.780636 1 1
0.780484 1 1
0.779828 1 1
1 1 1
1 1 1
1 1 1
0.788449 1 1
0.788434 1 1
0.788434 1 1
0.788403 1 1
0.788266 1 1
0.78764 1 1
1 1 1
1 1 1
1 1 1
0.818631 1 1
0.818631 1 1
0.818631 1 1
0.818601 1 1
0.818509 1 1
0.818021 1 1
0.991226 1 1
1 1 1
1 1 1
0.89659 1 1
0.89659 1 1
0.89659 1 1
0.89659 1 1
0.896544 1 1
0.896345 1 1
0.89543 1 1
1 1 1
1 1 1
0.984314 1 1
0.984314 1 1
0.984314 1 1
0.984314 1 1
0.984314 1 1
0.984268 1 1
0.984085 1 1
0.983078 1 1
1 1 1
