src/ACES/PixelManager-v.2.0-RC6/luts/UE_Default_ACEScct-to-AP1.cube
TITLE "Generated by Resolve"
LUT_3D_SIZE 65
0 0 0
0 0 0
0 0 0
0 0 0
0 0 0
0 0 0
7.62951e-05 0 0
0.000213626 0 0
0.000518807 1.5259e-05 1.5259e-05
0.0009308 1.5259e-05 1.5259e-05
0.00143435 3.0518e-05 3.0518e-05
0.00209049 4.57771e-05 4.57771e-05
0.00299077 6.10361e-05 6.10361e-05
0.00418097 7.62951e-05 7.62951e-05
0.00570687 0.000106813 0.000106813
0.00732433 0.00015259 0.00015259
0.00915541 0.000183108 0.000183108
0.0115663 0.000228885 0.000228885
0.014786 0.000289921 0.000289921
0.0190585 0.000381476 0.000381476
0.0247654 0.000488289 0.000488289
0.0323491 0.000640879 0.000640879
0.0424506 0.000839246 0.000839246
0.0556497 0.00109865 0.00109865
0.0718242 0.00143435 0.00143435
0.0928359 0.00184634 0.00184634
0.119799 0.00238041 0.00238041
0.153811 0.00306706 0.00306706
0.195865 0.00390631 0.00390631
0.247135 0.00494392 0.00494392
0.306661 0.00616464 0.00616464
0.37351 0.00753796 0.00753796
0.442298 0.00898756 0.00898756
0.509529 0.0104524 0.0104524
0.573938 0.0119478 0.0119478
0.634791 0.0134737 0.0134737
0.691508 0.0150759 0.0150759
0.743572 0.016846 0.016846
0.790494 0.0188754 0.0188754
0.831739 0.0213779 0.0213779
0.866926 0.0245823 0.0245823
0.895949 0.0287785 0.0287785
0.919203 0.034287 0.034287
0.937591 0.0413825 0.0413825
0.952316 0.0505226 0.0505226
0.964477 0.0624399 0.0624399
0.974716 0.078172 0.078172
0.983444 0.0988327 0.0988327
0.990906 0.125628 0.125628
0.99733 0.159777 0.159777
1 0.202213 0.202213
1 0.253376 0.253376
1 0.312337 0.312337
1 0.378058 0.378058
1 0.44625 0.44625
1 0.51223 0.51223
1 0.574548 0.574548
1 0.632502 0.632502
1 0.685634 0.685634
1 0.73373 0.73373
1 0.776761 0.776761
1 0.814862 0.814862
1 0.84828 0.84828
1 0.877348 0.877348
1 0.902464 0.902464
0 0 0
0 0 0
0 0 0
0 0 0
0 0 0
0 0 0
7.62951e-05 0 0
0.000228885 0 0
0.000534066 1.5259e-05 1.5259e-05
0.0009308 1.5259e-05 1.5259e-05
0.00141909 3.0518e-05 3.0518e-05
0.00205997 4.57771e-05 4.57771e-05
0.00294499 6.10361e-05 6.10361e-05
0.00410468 7.62951e-05 7.62951e-05
0.00561532 0.000106813 0.000106813
0.00720226 0.000137331 0.000137331
0.0090486 0.000183108 0.000183108
0.01149 0.000228885 0.000228885
0.014725 0.000289921 0.000289921
0.019028 0.000381476 0.000381476
0.0247349 0.000488289 0.000488289
0.0323491 0.000640879 0.000640879
0.0424506 0.000839246 0.000839246
0.0556497 0.00109865 0.00109865
0.0718547 0.00143435 0.00143435
0.0928817 0.00184634 0.00184634
0.11986 0.00238041 0.00238041
0.153903 0.00306706 0.00306706
0.195956 0.00390631 0.00390631
0.247257 0.00494392 0.00494392
0.306798 0.00616464 0.00616464
0.373648 0.00753796 0.00753796
0.442435 0.00898756 0.00898756
0.509667 0.0104524 0.0104524
0.57406 0.0119478 0.0119478
0.634897 0.0134737 0.0134737
0.691615 0.0150759 0.0150759
0.743679 0.016846 0.016846
0.79057 0.0188754 0.0188754
0.831785 0.0213779 0.0213779
0.866957 0.0245823 0.0245823
0.895964 0.0287938 0.0287938
0.919203 0.034287 0.034287
0.937591 0.0413825 0.0413825
0.952316 0.0505226 0.0505226
0.964462 0.0624399 0.0624399
0.974716 0.0781567 0.0781567
0.983444 0.0988174 0.0988174
0.990906 0.125628 0.125628
0.99733 0.159762 0.159762
1 0.202197 0.202197
1 0.253361 0.253361
1 0.312337 0.312337
1 0.378058 0.378058
1 0.44625 0.44625
1 0.51223 0.51223
1 0.574548 0.574548
1 0.632502 0.632502
1 0.685634 0.685634
1 0.73373 0.73373
1 0.776761 0.776761
1 0.814862 0.814862
1 0.84828 0.84828
1 0.877348 0.877348
1 0.902464 0.902464
0 0 0
0 0 0
0 0 0
0 0 0
0 0 0
0 0 0
7.62951e-05 0 0
0.000228885 0 0
0.000503548 1.5259e-05 1.5259e-05
0.000885023 1.5259e-05 1.5259e-05
0.00134279 3.0518e-05 3.0518e-05
0.00196841 4.57771e-05 4.57771e-05
0.00282292 6.10361e-05 6.10361e-05
0.0039826 7.62951e-05 7.62951e-05
0.00546273 0.000106813 0.000106813
0.00703441 0.000137331 0.000137331
0.00892653 0.000183108 0.000183108
0.0113985 0.000228885 0.000228885
0.0146639 0.000289921 0.000289921
0.0189822 0.000381476 0.000381476
0.0247196 0.000488289 0.000488289
0.0323644 0.000640879 0.000640879
0.0424811 0.000839246 0.000839246
0.0556649 0.00109865 0.00109865
0.0719005 0.00143435 0.00143435
0.0929427 0.00184634 0.00184634
0.119936 0.00238041 0.00238041
0.153994 0.00306706 0.00306706
0.196078 0.00390631 0.00390631
0.247395 0.00494392 0.00494392
0.306935 0.00616464 0.00616464
0.3738 0.00753796 0.00753796
0.442573 0.00898756 0.00898756
0.509804 0.0104677 0.0104677
0.574182 0.0119478 0.0119478
0.635019 0.0134737 0.0134737
0.691722 0.0150912 0.0150912
0.74377 0.016846 0.016846
0.790646 0.0188907 0.0188907
0.831846 0.0213779 0.0213779
0.866987 0.0245823 0.0245823
0.895979 0.0287938 0.0287938
0.919219 0.034287 0.034287
0.937591 0.0413825 0.0413825
0.952316 0.0505226 0.0505226
0.964462 0.0624399 0.0624399
0.974716 0.0781567 0.0781567
0.983444 0.0988174 0.0988174
0.990906 0.125628 0.125628
0.99733 0.159762 0.159762
1 0.202197 0.202197
1 0.253361 0.253361
1 0.312337 0.312337
1 0.378042 0.378042
1 0.446235 0.44625
1 0.51223 0.51223
1 0.574548 0.574548
1 0.632502 0.632502
1 0.685634 0.685634
1 0.73373 0.73373
1 0.776761 0.776761
1 0.814862 0.814862
1 0.84828 0.84828
1 0.877348 0.877348
1 0.902464 0.902464
0 0 0
0 0 0
0 0 0
0 0 0
0 0 0
0 0 0
7.62951e-05 0 0
0.000228885 0 0
0.00047303 1.5259e-05 1.5259e-05
0.000823987 1.5259e-05 1.5259e-05
0.00125124 3.0518e-05 3.0518e-05
0.00184634 3.0518e-05 3.0518e-05
0.00267033 4.57771e-05 4.57771e-05
0.0037995 7.62951e-05 7.62951e-05
0.00526436 0.000106813 0.000106813
0.00682078 0.000137331 0.000137331
0.00875868 0.000167849 0.000167849
0.0112764 0.000228885 0.000228885
0.0145876 0.000289921 0.000289921
0.0189364 0.000381476 0.000381476
0.0247196 0.000488289 0.000488289
0.0323796 0.000640879 0.000640879
0.0425269 0.000839246 0.000839246
0.0557107 0.00109865 0.00109865
0.0719615 0.00143435 0.00143435
0.0930343 0.00184634 0.00184634
0.120043 0.00239567 0.00239567
0.154116 0.00306706 0.00306706
0.196201 0.00392157 0.00392157
0.247547 0.00495918 0.00495918
0.307088 0.00616464 0.00616464
0.373953 0.00753796 0.00753796
0.442725 0.00900282 0.00900282
0.509941 0.0104677 0.0104677
0.574319 0.0119478 0.0119478
0.635142 0.0134737 0.0134737
0.691829 0.0150912 0.0150912
0.743862 0.016846 0.016846
0.790722 0.0188907 0.0188907
0.831907 0.0213931 0.0213931
0.867018 0.0245975 0.0245975
0.895994 0.0287938 0.0287938
0.919219 0.034287 0.034287
0.937591 0.0413825 0.0413825
0.952316 0.0505074 0.0505074
0.964462 0.0624247 0.0624247
0.974716 0.0781567 0.0781567
0.983444 0.0988174 0.0988174
0.990906 0.125612 0.125612
0.99733 0.159762 0.159762
1 0.202197 0.202197
1 0.253361 0.253361
1 0.312322 0.312322
1 0.378042 0.378042
1 0.446235 0.446235
1 0.512215 0.51223
1 0.574548 0.574548
1 0.632502 0.632502
1 0.685634 0.685634
1 0.73373 0.73373
1 0.776761 0.776761
1 0.814862 0.814862
1 0.84828 0.84828
1 0.877348 0.877348
1 0.902464 0.902464
0 0 0
0 0 0
0 0 0
0 0 0
0 0 0
0 0 0
7.62951e-05 0 0
0.000213626 0 0
0.000442512 1.5259e-05 1.5259e-05
0.000762951 1.5259e-05 1.5259e-05
0.00115969 3.0518e-05 3.0518e-05
0.00172427 3.0518e-05 3.0518e-05
0.00250248 4.57771e-05 4.57771e-05
0.00358587 7.62951e-05 7.62951e-05
0.00503548 0.000106813 0.000106813
0.00660716 0.000137331 0.000137331
0.00859083 0.000167849 0.000167849
0.0111543 0.000213626 0.000213626
0.0144961 0.000289921 0.000289921
0.0189059 0.000381476 0.000381476
0.0247196 0.000488289 0.000488289
0.0324102 0.000640879 0.000640879
0.0425879 0.000839246 0.000839246
0.0557565 0.00111391 0.00111391
0.0720378 0.00143435 0.00143435
0.0931258 0.00184634 0.00184634
0.12015 0.00239567 0.00239567
0.154238 0.00306706 0.00306706
0.196338 0.00392157 0.00392157
0.247715 0.0049897 0.00495918
0.307271 0.00624094 0.0061799
0.374151 0.00766003 0.00755322
0.442893 0.00910964 0.00900282
0.510094 0.0104982 0.0104677
0.574456 0.0119631 0.0119631
0.635264 0.013489 0.013489
0.691936 0.0150912 0.0150912
0.743954 0.0168612 0.0168612
0.790799 0.0188907 0.0188907
0.831952 0.0213931 0.0213931
0.867063 0.0245975 0.0245975
0.89601 0.0287938 0.0287938
0.919219 0.034287 0.034287
0.937591 0.0413825 0.0413825
0.9523 0.0505074 0.0505074
0.964462 0.0624247 0.0624247
0.974716 0.0781415 0.0781415
0.983444 0.0988022 0.0988022
0.990906 0.125612 0.125612
0.99733 0.159747 0.159747
1 0.202182 0.202182
1 0.253346 0.253346
1 0.312322 0.312322
1 0.378042 0.378042
1 0.446235 0.446235
1 0.512215 0.512215
1 0.574548 0.574548
1 0.632502 0.632502
1 0.685634 0.685634
1 0.73373 0.73373
1 0.776761 0.776761
1 0.814862 0.814862
1 0.84828 0.84828
1 0.877348 0.877348
1 0.902464 0.902464
0 0 0
0 0 0
0 0 0
0 0 0
0 0 0
0 0 0
7.62951e-05 0 0
0.000213626 0 0
0.000427253 1.5259e-05 1.5259e-05
0.000717174 1.5259e-05 1.5259e-05
0.00108339 1.5259e-05 1.5259e-05
0.0016022 3.0518e-05 3.0518e-05
0.00234989 4.57771e-05 4.57771e-05
0.00337224 6.10361e-05 6.10361e-05
0.00479133 9.15541e-05 9.15541e-05
0.00636301 0.000122072 0.000122072
0.00839246 0.000167849 0.000167849
0.011017 0.000213626 0.000213626
0.0144198 0.000289921 0.000289921
0.0188602 0.000381476 0.000381476
0.0247196 0.000488289 0.000488289
0.0324559 0.000640879 0.000640879
0.0426642 0.000854505 0.000839246
0.0558328 0.00111391 0.00111391
0.0721447 0.00144961 0.00143435
0.0932631 0.00189212 0.0018616
0.120317 0.0024567 0.00239567
0.154421 0.00318914 0.00308232
0.196551 0.00407416 0.00393683
0.247944 0.00517281 0.00497444
0.3075 0.00646983 0.00619516
0.374365 0.00791943 0.00758373
0.443091 0.0093843 0.00903334
0.510277 0.0107729 0.0104982
0.574578 0.0119631 0.0119631
0.635386 0.013489 0.013489
0.692058 0.0150912 0.0150912
0.744045 0.0168612 0.0168612
0.79086 0.0188907 0.0188907
0.832013 0.0213931 0.0213931
0.867094 0.0245975 0.0245975
0.896025 0.0287938 0.0287938
0.919219 0.034287 0.034287
0.937575 0.0413825 0.0413825
0.9523 0.0505074 0.0505074
0.964446 0.0624247 0.0624247
0.974716 0.0781415 0.0781415
0.983444 0.0988022 0.0988022
0.990906 0.125612 0.125612
0.99733 0.159747 0.159747
1 0.202182 0.202182
1 0.253346 0.253346
1 0.312322 0.312322
1 0.378027 0.378042
1 0.446235 0.446235
1 0.512215 0.512215
1 0.574533 0.574548
1 0.632486 0.632502
1 0.685634 0.685634
1 0.73373 0.73373
1 0.776761 0.776761
1 0.814862 0.814862
1 0.84828 0.84828
1 0.877348 0.877348
1 0.902464 0.902464
0 4.57771e-05 0
0 4.57771e-05 0
0 4.57771e-05 0
0 4.57771e-05 0
0 4.57771e-05 0
0 4.57771e-05 0
7.62951e-05 4.57771e-05 0
0.000213626 4.57771e-05 0
0.000411994 4.57771e-05 1.5259e-05
0.000686656 6.10361e-05 1.5259e-05
0.00103761 6.10361e-05 1.5259e-05
0.0015259 7.62951e-05 3.0518e-05
0.00221256 9.15541e-05 4.57771e-05
0.00320439 0.000106813 6.10361e-05
0.00454719 0.000137331 9.15541e-05
0.00614939 0.000167849 0.000122072
0.00822461 0.000213626 0.000167849
0.0108949 0.000274662 0.000213626
0.0143587 0.000350958 0.000289921
0.0188602 0.000442512 0.000381476
0.0247654 0.000564584 0.000488289
0.0325475 0.000732433 0.000656138
0.0428016 0.000961318 0.000854505
0.0559701 0.00125124 0.00111391
0.0722972 0.0016022 0.00144961
0.0934462 0.00204471 0.0018616
0.120516 0.00263981 0.00241093
0.154635 0.00337224 0.00309758
0.196765 0.00430304 0.00395209
0.248188 0.00541695 0.0049897
0.307729 0.00672923 0.00621042
0.374594 0.00820935 0.00759899
0.443305 0.00970474 0.0090486
0.51046 0.0111086 0.0105135
0.574746 0.0122835 0.0119783
0.635508 0.013489 0.013489
0.692164 0.0150912 0.0150912
0.744137 0.0168612 0.0168612
0.790936 0.0189059 0.0189059
0.832059 0.0213931 0.0213931
0.867124 0.0245975 0.0245975
0.89604 0.0287938 0.028809
0.919234 0.034287 0.034287
0.937575 0.0413825 0.0413825
0.9523 0.0505074 0.0505074
0.964446 0.0624247 0.0624247
0.974701 0.0781415 0.0781415
0.983429 0.0988022 0.0988022
0.990906 0.125597 0.125597
0.99733 0.159731 0.159731
1 0.202167 0.202182
1 0.253346 0.253346
1 0.312306 0.312306
1 0.378027 0.378027
1 0.44622 0.446235
1 0.512215 0.512215
1 0.574533 0.574533
1 0.632486 0.632486
1 0.685634 0.685634
1 0.73373 0.73373
1 0.776761 0.776761
1 0.814862 0.814862
1 0.84828 0.84828
1 0.877348 0.877348
1 0.902464 0.902464
0 0.00015259 0
0 0.00015259 0
0 0.00015259 0
0 0.00015259 0
0 0.00015259 0
1.5259e-05 0.00015259 0
9.15541e-05 0.000167849 1.5259e-05
0.000228885 0.000167849 1.5259e-05
0.000427253 0.000167849 1.5259e-05
0.000686656 0.000183108 1.5259e-05
0.00102235 0.000198367 3.0518e-05
0.00148013 0.000213626 3.0518e-05
0.00213626 0.000228885 4.57771e-05
0.00306706 0.000244144 7.62951e-05
0.00434882 0.000274662 9.15541e-05
0.00596628 0.00030518 0.000122072
0.00807202 0.000350958 0.000167849
0.0107881 0.000411994 0.000228885
0.0142977 0.000488289 0.000289921
0.0188602 0.000595102 0.000381476
0.0248264 0.000732433 0.000503548
0.032639 0.000900282 0.000656138
0.0429541 0.00114443 0.000869764
0.0561227 0.00143435 0.00112917
0.0724804 0.00180056 0.00146487
0.0936446 0.00225834 0.00187686
0.120729 0.0028687 0.00242618
0.154879 0.00361639 0.00311284
0.197009 0.00456245 0.00396735
0.248447 0.00570687 0.00502022
0.307988 0.00704967 0.00624094
0.374838 0.00854505 0.00761425
0.443519 0.0100557 0.00907912
0.510643 0.0114748 0.010544
0.574929 0.0126345 0.0120089
0.63563 0.013489 0.013489
0.692271 0.0151064 0.0151064
0.744244 0.0168612 0.0168612
0.791012 0.0189059 0.0189059
0.83212 0.0214084 0.0214084
0.867155 0.0246128 0.0246128
0.896056 0.028809 0.028809
0.919234 0.034287 0.034287
0.937575 0.0413825 0.0413825
0.952285 0.0505074 0.0505074
0.964446 0.0624094 0.0624094
0.974701 0.0781415 0.0781415
0.983429 0.0987869 0.0987869
0.990906 0.125597 0.125597
0.99733 0.159731 0.159731
1 0.202167 0.202167
1 0.25333 0.25333
1 0.312306 0.312306
1 0.378027 0.378027
1 0.44622 0.44622
1 0.512215 0.512215
1 0.574533 0.574533
1 0.632486 0.632486
1 0.685634 0.685634
1 0.73373 0.73373
1 0.776761 0.776761
1 0.814862 0.814862
1 0.84828 0.84828
1 0.877348 0.877348
1 0.902464 0.902464
1.5259e-05 0.000335698 1.5259e-05
1.5259e-05 0.000335698 1.5259e-05
1.5259e-05 0.000335698 1.5259e-05
1.5259e-05 0.000335698 1.5259e-05
1.5259e-05 0.000335698 1.5259e-05
1.5259e-05 0.000335698 1.5259e-05
9.15541e-05 0.000335698 1.5259e-05
0.000244144 0.000350958 1.5259e-05
0.000442512 0.000350958 3.0518e-05
0.000701915 0.000366217 3.0518e-05
0.00102235 0.000381476 3.0518e-05
0.00144961 0.000396735 4.57771e-05
0.00207523 0.000411994 6.10361e-05
0.00296025 0.000442512 7.62951e-05
0.00419623 0.000457771 0.000106813
0.00581369 0.000503548 0.000137331
0.00793469 0.000549325 0.000183108
0.0106813 0.000610361 0.000228885
0.0142519 0.000686656 0.00030518
0.0188754 0.000808728 0.000396735
0.0248875 0.000946059 0.000518807
0.0327611 0.00112917 0.000671397
0.0431067 0.00137331 0.000885023
0.0562905 0.00167849 0.00114443
0.0726787 0.00204471 0.00148013
0.0938735 0.00251774 0.00190738
0.120974 0.00314336 0.00244144
0.155123 0.00390631 0.00314336
0.197269 0.00486763 0.0039826
0.248707 0.00604257 0.00503548
0.308232 0.00740063 0.0062562
0.375082 0.00891127 0.00764477
0.443732 0.0104524 0.00910964
0.510842 0.0118715 0.0105745
0.575097 0.0130159 0.0120394
0.635782 0.0137179 0.0135042
0.692378 0.0151064 0.0151064
0.744335 0.0168612 0.0168612
0.791089 0.0189059 0.0189059
0.832166 0.0214084 0.0214084
0.867185 0.0246128 0.0246128
0.896086 0.028809 0.028809
0.919234 0.0343023 0.0343023
0.937575 0.0413825 0.0413825
0.952285 0.0504921 0.0504921
0.964446 0.0624094 0.0624094
0.974701 0.0781262 0.0781262
0.983429 0.0987869 0.0987869
0.990906 0.125597 0.125597
0.99733 0.159731 0.159731
1 0.202167 0.202167
1 0.25333 0.25333
1 0.312306 0.312306
1 0.378027 0.378027
1 0.44622 0.44622
1 0.5122 0.512215
1 0.574533 0.574533
1 0.632486 0.632486
1 0.685634 0.685634
1 0.73373 0.73373
1 0.776761 0.776761
1 0.814862 0.814862
1 0.84828 0.84828
1 0.877348 0.877348
1 0.902464 0.902464
3.0518e-05 0.000579843 3.0518e-05
3.0518e-05 0.000579843 3.0518e-05
3.0518e-05 0.000579843 3.0518e-05
3.0518e-05 0.000579843 3.0518e-05
3.0518e-05 0.000579843 3.0518e-05
3.0518e-05 0.000579843 3.0518e-05
0.000106813 0.000579843 3.0518e-05
0.000259403 0.000595102 3.0518e-05
0.00047303 0.000595102 3.0518e-05
0.000717174 0.000610361 4.57771e-05
0.00103761 0.00062562 4.57771e-05
0.00146487 0.000640879 6.10361e-05
0.00205997 0.000671397 7.62951e-05
0.00289921 0.000686656 9.15541e-05
0.00408942 0.000717174 0.000106813
0.00569162 0.000747692 0.000137331
0.00781262 0.000793469 0.000183108
0.010605 0.000869764 0.000244144
0.0142061 0.000946059 0.000320439
0.0188907 0.00106813 0.000411994
0.0249638 0.00120546 0.000534066
0.0328985 0.00140383 0.000686656
0.0432898 0.00166323 0.000900282
0.0564736 0.00196841 0.00115969
0.0728923 0.00234989 0.00149538
0.0941024 0.00283818 0.00192264
0.121233 0.00344854 0.00247196
0.155398 0.00424201 0.00315862
0.197543 0.00521859 0.00401312
0.248997 0.00640879 0.005066
0.308507 0.0077821 0.00628672
0.375341 0.00932326 0.00767529
0.443961 0.0108797 0.0091249
0.51104 0.0122988 0.010605
0.57528 0.0134432 0.0120699
0.635935 0.0140993 0.0135348
0.6925 0.0151064 0.0151064
0.744427 0.0168765 0.0168765
0.791165 0.0189059 0.0189059
0.832227 0.0214084 0.0214084
0.867231 0.0246128 0.0246128
0.896101 0.028809 0.028809
0.919234 0.0343023 0.0343023
0.937575 0.0413672 0.0413672
0.952285 0.0504921 0.0504921
0.964446 0.0624094 0.0624094
0.974701 0.0781262 0.0781262
0.983429 0.0987869 0.0987869
0.990906 0.125582 0.125582
0.99733 0.159716 0.159716
1 0.202152 0.202152
1 0.253315 0.25333
1 0.312291 0.312291
1 0.378012 0.378012
1 0.44622 0.44622
1 0.5122 0.5122
1 0.574533 0.574533
1 0.632486 0.632486
1 0.685634 0.685634
1 0.73373 0.73373
1 0.776761 0.776761
1 0.814862 0.814862
1 0.84828 0.84828
1 0.877348 0.877348
1 0.902464 0.902464
4.57771e-05 0.000869764 4.57771e-05
4.57771e-05 0.000869764 4.57771e-05
4.57771e-05 0.000869764 4.57771e-05
4.57771e-05 0.000869764 4.57771e-05
4.57771e-05 0.000869764 4.57771e-05
4.57771e-05 0.000885023 4.57771e-05
0.000137331 0.000885023 4.57771e-05
0.000289921 0.000885023 4.57771e-05
0.000488289 0.000900282 4.57771e-05
0.000747692 0.000915541 6.10361e-05
0.00106813 0.000915541 6.10361e-05
0.00148013 0.000946059 7.62951e-05
0.00205997 0.000961318 7.62951e-05
0.0028687 0.000991836 0.000106813
0.00401312 0.00102235 0.000122072
0.00560006 0.00105287 0.00015259
0.00772107 0.00109865 0.000198367
0.0105287 0.00117494 0.000259403
0.0141756 0.0012665 0.000335698
0.0189059 0.00137331 0.000427253
0.0250401 0.0015259 0.000549325
0.0330358 0.00172427 0.000701915
0.0434882 0.00198367 0.000915541
0.056672 0.00230411 0.0011902
0.0731212 0.00268559 0.00151064
0.0943618 0.00317388 0.0019379
0.121508 0.00381476 0.00248722
0.155673 0.00460822 0.00318914
0.197818 0.00560006 0.00404364
0.249287 0.00680552 0.00508125
0.308782 0.00820935 0.00631724
0.375601 0.00976577 0.00770581
0.44419 0.0113375 0.00915541
0.511254 0.0127718 0.0106355
0.575448 0.013901 0.0121004
0.636103 0.0145113 0.0135653
0.692607 0.0151064 0.0151064
0.744518 0.0168765 0.0168765
0.791241 0.0189212 0.0189212
0.832273 0.0214084 0.0214084
0.867262 0.0246128 0.0246128
0.896117 0.028809 0.028809
0.919249 0.0343023 0.0343023
0.937575 0.0413672 0.0413672
0.952285 0.0504921 0.0504921
0.964431 0.0624094 0.0624094
0.974701 0.0781262 0.0781262
0.983429 0.0987716 0.0987716
0.99089 0.125582 0.125582
0.99733 0.159716 0.159716
1 0.202152 0.202152
1 0.253315 0.253315
1 0.312291 0.312291
1 0.378012 0.378012
1 0.446204 0.44622
1 0.5122 0.5122
1 0.574533 0.574533
1 0.632486 0.632486
1 0.685618 0.685634
1 0.73373 0.73373
1 0.776761 0.776761
1 0.814847 0.814862
1 0.84828 0.84828
1 0.877348 0.877348
1 0.902464 0.902464
6.10361e-05 0.0012665 6.10361e-05
6.10361e-05 0.0012665 6.10361e-05
6.10361e-05 0.0012665 6.10361e-05
6.10361e-05 0.0012665 6.10361e-05
6.10361e-05 0.0012665 6.10361e-05
6.10361e-05 0.0012665 6.10361e-05
0.00015259 0.00128176 6.10361e-05
0.00030518 0.00128176 6.10361e-05
0.000518807 0.00129702 6.10361e-05
0.000793469 0.00131228 7.62951e-05
0.00109865 0.00131228 7.62951e-05
0.00151064 0.00132753 9.15541e-05
0.00207523 0.00135805 0.000106813
0.0028687 0.00137331 0.000122072
0.0039826 0.00140383 0.000137331
0.00552377 0.00144961 0.000167849
0.00764477 0.00149538 0.000213626
0.0104524 0.00155642 0.000274662
0.0141451 0.00164797 0.000350958
0.0189364 0.00177005 0.000442512
0.0251469 0.0019379 0.000564584
0.0332036 0.00213626 0.000732433
0.0437171 0.00241093 0.000946059
0.0569162 0.00273136 0.00120546
0.0734112 0.00311284 0.00154116
0.094667 0.00361639 0.00196841
0.121828 0.00425727 0.00251774
0.156008 0.005066 0.00321965
0.198154 0.00607309 0.00407416
0.249622 0.00729381 0.00512703
0.309102 0.00872816 0.00634775
0.375906 0.0102998 0.00773632
0.444465 0.0118868 0.00920119
0.511482 0.0133211 0.0106661
0.575662 0.0144503 0.0121309
0.636271 0.0150149 0.0135958
0.692729 0.0151217 0.0151217
0.744625 0.0168765 0.0168765
0.791333 0.0189212 0.0189212
0.832334 0.0214237 0.0214237
0.867292 0.0246281 0.0246281
0.896132 0.028809 0.028809
0.919249 0.0343023 0.0343023
0.93756 0.0413672 0.0413672
0.95227 0.0504921 0.0504921
0.964431 0.0623941 0.0623941
0.974701 0.0781109 0.0781109
0.983429 0.0987716 0.0987716
0.99089 0.125582 0.125582
0.99733 0.159716 0.159716
1 0.202152 0.202152
1 0.253315 0.253315
1 0.312291 0.312291
1 0.378012 0.378012
1 0.446204 0.446204
1 0.5122 0.5122
1 0.574533 0.574533
1 0.632486 0.632486
1 0.685618 0.685618
1 0.73373 0.73373
1 0.776761 0.776761
1 0.814847 0.814862
1 0.848264 0.84828
1 0.877348 0.877348
1 0.902464 0.902464
7.62951e-05 0.00181582 7.62951e-05
7.62951e-05 0.00181582 7.62951e-05
7.62951e-05 0.00181582 7.62951e-05
7.62951e-05 0.00181582 7.62951e-05
7.62951e-05 0.00181582 7.62951e-05
9.15541e-05 0.00181582 7.62951e-05
0.000183108 0.00183108 9.15541e-05
0.000335698 0.00183108 9.15541e-05
0.000564584 0.00184634 9.15541e-05
0.000823987 0.00184634 9.15541e-05
0.00114443 0.0018616 0.000106813
0.00155642 0.00187686 0.000106813
0.00210575 0.00189212 0.000122072
0.00288396 0.00192264 0.000137331
0.00396735 0.00195315 0.000167849
0.00549325 0.00198367 0.000198367
0.00758373 0.00204471 0.000244144
0.0104067 0.00210575 0.000289921
0.0141299 0.0021973 0.000366217
0.0189822 0.00233463 0.00047303
0.0252689 0.00248722 0.000595102
0.0334173 0.00270085 0.000762951
0.044007 0.00299077 0.000976577
0.0572213 0.00331121 0.00125124
0.0737621 0.00369268 0.00157168
0.0950637 0.00419623 0.00201419
0.12224 0.00485237 0.00256352
0.156435 0.00567636 0.00325017
0.198581 0.00669871 0.00410468
0.250065 0.00794995 0.00515755
0.309514 0.00939956 0.00639353
0.376272 0.0110018 0.0077821
0.444785 0.012604 0.00924697
0.511772 0.0140536 0.0107118
0.575906 0.0151522 0.0121767
0.6365 0.015671 0.0136416
0.692897 0.0153353 0.0151369
0.744762 0.0168917 0.0168917
0.791424 0.0189212 0.0189212
0.83241 0.0214237 0.0214237
0.867338 0.0246281 0.0246281
0.896147 0.0288243 0.0288243
0.919249 0.0343023 0.0343023
0.93756 0.0413672 0.0413672
0.95227 0.0504768 0.0504768
0.964431 0.0623941 0.0623941
0.974685 0.0781109 0.0781109
0.983429 0.0987716 0.0987716
0.99089 0.125566 0.125566
0.99733 0.159701 0.159701
1 0.202136 0.202136
1 0.2533 0.2533
1 0.312276 0.312276
1 0.377997 0.377997
1 0.446204 0.446204
1 0.5122 0.5122
1 0.574517 0.574517
1 0.632486 0.632486
1 0.685618 0.685618
1 0.73373 0.73373
1 0.776761 0.776761
1 0.814847 0.814862
1 0.848264 0.84828
1 0.877348 0.877348
1 0.902464 0.902464
0.000122072 0.00256352 0.000122072
0.000122072 0.00256352 0.000122072
0.000122072 0.00256352 0.000122072
0.000122072 0.00256352 0.000122072
0.000122072 0.00256352 0.000122072
0.000122072 0.00256352 0.000122072
0.000213626 0.00256352 0.000122072
0.000381476 0.00257877 0.000122072
0.000595102 0.00259403 0.000122072
0.000869764 0.00259403 0.000137331
0.0011902 0.00260929 0.000137331
0.0016022 0.00262455 0.00015259
0.00215152 0.00263981 0.000167849
0.00292973 0.00267033 0.000183108
0.00399786 0.00270085 0.000198367
0.00549325 0.00274662 0.000228885
0.00755322 0.0027924 0.000274662
0.0103761 0.0028687 0.000335698
0.0141299 0.00296025 0.000411994
0.0190585 0.00309758 0.000503548
0.0254368 0.00326543 0.000640879
0.0336919 0.00349432 0.000808728
0.0443885 0.00376898 0.00102235
0.0576333 0.00408942 0.00128176
0.0742351 0.00448615 0.00161746
0.0955825 0.00500496 0.00205997
0.122789 0.0056611 0.00260929
0.157 0.00650034 0.00329595
0.199145 0.00753796 0.00416571
0.250614 0.00881972 0.00521859
0.310033 0.0102846 0.00643931
0.376761 0.0119173 0.00784314
0.445197 0.0135348 0.00929274
