src/ACES/PixelManager-v.2.0-RC6/luts/UE_Default_ACEScct-to-AP1.cube
TITLE "Generated by Resolve"
LUT_3D_SIZE 5
0 0 0
0.00915541 0.000183108 0.000183108
0.442298 0.00898756 0.00898756
0.990906 0.125628 0.125628
1 0.902464 0.902464
0.000320439 0.00698863 0.000320439
0.0077821 0.00727855 0.00047303
0.447211 0.0185855 0.00959792
0.99089 0.125521 0.125521
1 0.902464 0.902464
0.0256962 0.538994 0.0256962
0.0256962 0.538796 0.0256962
0.534463 0.543938 0.0371557
0.990539 0.124056 0.124056
1 0.902403 0.902403
0.345174 1 0.345174
0.345098 1 0.345083
0.343877 1 0.343877
1 1 0.45539
1 0.901259 0.901259
0.975891 1 0.975875
0.975875 1 0.975875
0.975875 1 0.975875
0.975647 1 0.975647
1 1 0.992004
0 0 0.00724804
0.00753796 0 0.00753796
0.444617 0.00808728 0.0172122
0.990906 0.125582 0.125582
1 0.902464 0.902464
0.000137331 0.00798047 0.00798047
0.00762951 0.00762951 0.00762951
0.44773 0.0196689 0.0179904
0.990875 0.125475 0.125475
1 0.902464 0.902464
0.0256962 0.541176 0.0304112
0.0256962 0.541009 0.0300603
0.534798 0.54667 0.0373236
0.990524 0.12398 0.12398
1 0.902403 0.902403
0.345281 1 0.345281
0.345205 1 0.345205
0.343984 1 0.343984
1 1 0.455467
1 0.901259 0.901259
0.975891 1 0.975875
0.975891 1 0.975875
0.975875 1 0.975875
0.975647 1 0.975647
1 1 0.992004
0 0 0.482643
0.0037995 0 0.483268
0.502983 0 0.50013
0.978805 0.0857099 0.468711
1 0.902434 0.902449
0 0 0.484581
0.00544747 0 0.485283
0.505943 0.00759899 0.502739
0.978866 0.085893 0.466438
1 0.902434 0.902434
0.0110475 0.523018 0.524681
0.0110323 0.522637 0.524666
0.527764 0.527764 0.527764
0.979843 0.0887617 0.428428
1 0.902373 0.902373
0.346975 1 0.346975
0.346899 1 0.346899
0.345678 1 0.345678
1 1 0.456687
1 0.901213 0.901213
0.975906 1 0.975891
0.975906 1 0.975891
0.975891 1 0.975891
0.975662 1 0.975662
1 1 0.99202
0.0799573 0.718624 0.975479
0.116899 0.719371 0.976257
0.590372 0.727382 0.986191
0.9879 0.502617 0.984985
1 0.892241 0.99237
0.0576333 0.724926 0.975479
0.0924392 0.725612 0.976226
0.583612 0.733791 0.98645
0.988724 0.522148 0.985824
1 0.892241 0.99237
0.0515602 0.800473 0.980056
0.0515297 0.80029 0.980072
0.454887 0.80528 0.987961
0.996475 0.708186 0.993774
1 0.892226 0.992157
0.38819 0.992554 0.993072
0.388083 0.992538 0.993057
0.386542 0.992355 0.99295
1 1 1
1 0.891554 0.987411
0.976211 1 0.976211
0.976211 1 0.976211
0.976196 1 0.976196
0.975982 1 0.975967
1 1 0.992172
0.778378 1 1
0.778363 1 1
0.77818 1 1
1 1 1
1 1 1
0.778515 1 1
0.7785 1 1
0.778317 1 1
1 1 1
1 1 1
0.780667 1 1
0.780667 1 1
0.780484 1 1
1 1 1
1 1 1
0.818631 1 1
0.818631 1 1
0.818509 1 1
0.991226 1 1
1 1 1
0.984314 1 1
0.984314 1 1
0.984314 1 1
0.984085 1 1
1 1 1
