src/ACES/PixelManager-v.2.0-RC6/ACES/ACEScct-to-ACES2Bt1886.cube
TITLE "Generated by Resolve"
LUT_3D_SIZE 65
0 0 0
0 0 0
0 0 0
0 0 0
0 0 0
0.00169375 0 0.000183108
0.00639353 0 0.000717174
0.0109102 0 0.00122072
0.0153353 0 0.00172427
0.0196689 0 0.00221256
0.0239567 0 0.00270085
0.0286564 0 0.00325017
0.0342718 0 0.00389105
0.0409552 1.5259e-05 0.004654
0.0489052 3.0518e-05 0.00555428
0.0583352 0 0.00663767
0.0694743 0 0.00791943
0.0826276 3.0518e-05 0.00943008
0.0980697 0 0.0112154
0.116121 0 0.0133059
0.137102 7.62951e-05 0.0157626
0.161349 0 0.0186313
0.189151 0 0.021973
0.220722 0 0.025803
0.25626 0 0.0301823
0.295796 0.000198367 0.0351263
0.3393 0.000122072 0.0405737
0.386572 0.000183108 0.046479
0.437324 0.000106813 0.0527047
0.491188 0 0.0590829
0.547738 4.57771e-05 0.0654459
0.6065 0 0.0715801
0.667048 0 0.0773022
0.728893 0.000503548 0.0824292
0.791104 0.000198367 0.0865949
0.852293 0 0.0892653
0.914 0.000671397 0.0911116
0.975189 0.000518807 0.0935225
1 0.0977188 0.135561
1 0.221027 0.195529
1 0.287541 0.242344
1 0.336431 0.28127
1 0.376257 0.315343
1 0.410605 0.346166
1 0.441352 0.374792
1 0.469825 0.40209
1 0.497032 0.42884
1 0.523751 0.455695
1 0.550668 0.48333
1 0.578347 0.512322
1 0.607279 0.543206
1 0.637903 0.576501
1 0.670558 0.61265
1 0.705516 0.651972
1 0.742794 0.694606
1 0.782193 0.740291
1 0.822873 0.788083
1 0.863005 0.835721
1 0.899779 0.879744
1 0.930114 0.916213
1 0.952789 0.943511
1 0.968658 0.9626
1 0.979461 0.975555
1 0.98677 0.984314
1 0.99176 0.990265
0 0 0
0 0 0
0 0 0
0 0 0
0 0 0
0.00169375 0 0.000183108
0.00639353 0 0.000717174
0.0109102 0 0.00122072
0.0153353 0 0.00172427
0.0196689 0 0.00221256
0.0239567 0 0.00270085
0.0286564 1.5259e-05 0.00325017
0.0342718 0 0.00389105
0.0409552 1.5259e-05 0.004654
0.0489052 3.0518e-05 0.00555428
0.0583352 0 0.00663767
0.0694743 0 0.00791943
0.0826276 3.0518e-05 0.00943008
0.0980697 0 0.0112154
0.116121 0 0.0133059
0.137102 9.15541e-05 0.0157626
0.161349 0 0.0186313
0.189151 0 0.021973
0.220722 0 0.025803
0.25626 0.000137331 0.0301823
0.295796 0 0.0351263
0.3393 0.000122072 0.0405737
0.386572 0.000183108 0.046479
0.437324 0.000106813 0.0527047
0.491188 0 0.0590829
0.547738 0.000366217 0.0654459
0.6065 0 0.0715801
0.667048 0 0.0773022
0.728893 0.000503548 0.0824292
0.791104 0.000259403 0.0865949
0.852293 0 0.0892653
0.914 0.000671397 0.0911116
0.975189 0.000518807 0.0935225
1 0.0977188 0.135561
1 0.221027 0.195529
1 0.287541 0.242344
1 0.336431 0.28127
1 0.376257 0.315343
1 0.410605 0.346166
1 0.441352 0.374792
1 0.469825 0.40209
1 0.497032 0.42884
1 0.523751 0.455695
1 0.550668 0.48333
1 0.578347 0.512322
1 0.607279 0.543206
1 0.637903 0.576501
1 0.670558 0.61265
1 0.705516 0.651972
1 0.742794 0.694606
1 0.782193 0.740291
1 0.822873 0.788083
1 0.863005 0.835721
1 0.899779 0.879744
1 0.930114 0.916213
1 0.952789 0.943511
1 0.968658 0.9626
1 0.979461 0.975555
1 0.98677 0.984314
1 0.99176 0.990265
0 0 0
0 0 0
0 0 0
0 0 0
0 0 0
0.00169375 0 0.000183108
0.00639353 0 0.000717174
0.0109102 0 0.00122072
0.0153353 0 0.00172427
0.0196689 0 0.00221256
0.0239567 0 0.00270085
0.0286564 1.5259e-05 0.00325017
0.0342718 0 0.00389105
0.0409552 1.5259e-05 0.004654
0.0489052 3.0518e-05 0.00555428
0.0583352 0 0.00663767
0.0694743 0 0.00791943
0.0826276 3.0518e-05 0.00943008
0.0980697 0 0.0112154
0.116121 0 0.0133059
0.137102 9.15541e-05 0.0157626
0.161349 0 0.0186313
0.189151 0 0.021973
0.220722 0 0.025803
0.25626 0 0.0301823
0.295796 0 0.0351263
0.3393 0.000122072 0.0405737
0.386572 0.000198367 0.046479
0.437324 9.15541e-05 0.0527047
0.491188 0 0.0590829
0.547738 0.000366217 0.0654459
0.6065 0 0.0715801
0.667048 0 0.0773022
0.728893 0.000503548 0.0824292
0.791104 0.000259403 0.0865949
0.852293 0 0.0892653
0.914 0 0.0911116
0.975189 0.000518807 0.0935225
1 0.0977188 0.135561
1 0.221027 0.195529
1 0.287541 0.242344
1 0.336431 0.28127
1 0.376257 0.315343
1 0.410605 0.346166
1 0.441352 0.374792
1 0.469825 0.40209
1 0.497032 0.42884
1 0.523751 0.455695
1 0.550668 0.48333
1 0.578347 0.512322
1 0.607279 0.543206
1 0.637903 0.576501
1 0.670558 0.61265
1 0.705516 0.651972
1 0.742794 0.694606
1 0.782193 0.740291
1 0.822873 0.788083
1 0.863005 0.835721
1 0.899779 0.879744
1 0.930114 0.916213
1 0.952789 0.943511
1 0.968658 0.9626
1 0.979461 0.975555
1 0.98677 0.984314
1 0.99176 0.990265
0 0 0
0 0 0
0 0 0
0 0 0
0 0 0
0.00169375 0 0.000183108
0.00639353 0 0.000717174
0.0109102 0 0.00122072
0.0153353 0 0.00172427
0.0196689 0 0.00221256
0.0239567 0 0.00270085
0.0286564 0 0.00325017
0.0342718 0 0.00389105
0.0409552 1.5259e-05 0.004654
0.0489052 3.0518e-05 0.00555428
0.0583352 0 0.00663767
0.0694743 0 0.00791943
0.0826276 3.0518e-05 0.00943008
0.0980697 0 0.0112154
0.116121 0 0.0133059
0.137102 7.62951e-05 0.0157626
0.161349 0 0.0186313
0.189151 0 0.021973
0.220722 0 0.025803
0.25626 0 0.0301823
0.295796 0.000198367 0.0351263
0.3393 0.000122072 0.0405737
0.386572 0.000183108 0.046479
0.437324 0.000106813 0.0527047
0.491188 0 0.0590829
0.547738 0.000366217 0.0654459
0.6065 0 0.0715801
0.667048 0 0.0773022
0.728893 0.000503548 0.0824292
0.791104 0.000259403 0.0865949
0.852293 0 0.0892653
0.914 0 0.0911116
0.975189 0.000518807 0.0935225
1 0.0977188 0.135561
1 0.221027 0.195529
1 0.287541 0.242344
1 0.336431 0.28127
1 0.376257 0.315343
1 0.410605 0.346166
1 0.441352 0.374792
1 0.469825 0.40209
1 0.497032 0.42884
1 0.523751 0.455695
1 0.550668 0.48333
1 0.578347 0.512322
1 0.607279 0.543206
1 0.637903 0.576501
1 0.670558 0.61265
1 0.705516 0.651972
1 0.742794 0.694606
1 0.782193 0.740291
1 0.822873 0.788083
1 0.863005 0.835721
1 0.899779 0.879744
1 0.930114 0.916213
1 0.952789 0.943511
1 0.968658 0.9626
1 0.979461 0.975555
1 0.98677 0.984314
1 0.99176 0.990265
0 0 0
0 0 0
0 0 0
0 0 0
0 0 0
0.00169375 0 0.000183108
0.00639353 0 0.000717174
0.0109102 0 0.00122072
0.0153353 0 0.00172427
0.0196689 0 0.00221256
0.0239567 0 0.00270085
0.0286564 0 0.00325017
0.0342718 0 0.00389105
0.0409552 1.5259e-05 0.004654
0.0489052 3.0518e-05 0.00555428
0.0583352 0 0.00663767
0.0694743 0 0.00791943
0.0826276 3.0518e-05 0.00943008
0.0980697 0 0.0112154
0.116121 0 0.0133059
0.137102 9.15541e-05 0.0157626
0.161349 0 0.0186313
0.189151 0 0.021973
0.220722 0 0.025803
0.25626 0 0.0301823
0.295796 0.000198367 0.0351263
0.3393 0.000122072 0.0405737
0.386572 0 0.046479
0.437324 0.000106813 0.0527047
0.491188 0 0.0590829
0.547738 0.000366217 0.0654459
0.6065 0 0.0715801
0.667048 0 0.0773022
0.728893 0.000503548 0.0824292
0.791104 0.000259403 0.0865949
0.852293 0 0.0892653
0.914 0 0.0911116
0.975189 0.000518807 0.0935225
1 0.0977188 0.135561
1 0.221027 0.195529
1 0.287541 0.242344
1 0.336431 0.28127
1 0.376257 0.315343
1 0.410605 0.346166
1 0.441352 0.374792
1 0.469825 0.40209
1 0.497032 0.42884
1 0.523751 0.455695
1 0.550668 0.48333
1 0.578347 0.512322
1 0.607279 0.543206
1 0.637903 0.576501
1 0.670558 0.61265
1 0.705516 0.651972
1 0.742794 0.694606
1 0.782193 0.740291
1 0.822873 0.788083
1 0.863005 0.835721
1 0.899779 0.879744
1 0.930114 0.916213
1 0.952789 0.943511
1 0.968658 0.9626
1 0.979461 0.975555
1 0.98677 0.984314
1 0.99176 0.990265
0 0.00189212 0.000823987
0 0.00189212 0.000823987
0 0.00189212 0.000823987
0 0.00189212 0.000823987
0 0.00189212 0.000823987
0.00265507 0.00263981 0
0.00776684 0.00389105 0
0.0124361 0.00471504 0
0.016968 0.00531014 0
0.0214084 0.00572213 0
0.0257725 0.0059968 0
0.0305943 0.00613413 1.5259e-05
0.0363165 0.00611887 0
0.0431373 0.0056611 1.5259e-05
0.0512398 0.0043183 1.5259e-05
0.0608225 3.0518e-05 0
0.0720073 3.0518e-05 0
0.0850538 0 0
0.100404 3.0518e-05 0.00534066
0.118349 0 0.00831617
0.139239 0 0.0113069
0.163378 0 0.0145876
0.191058 0 0.018265
0.222507 0 0.0223697
0.257893 0 0.026978
0.297276 0 0.0321355
0.340627 0 0.0377966
0.387747 0.000335698 0.0439002
0.438361 0 0.050309
0.492088 0.000213626 0.0568704
0.548516 0.000228885 0.0634012
0.607187 0.00030518 0.069688
0.667628 0.000442512 0.0755474
0.729412 0 0.0807965
0.791547 0.000320439 0.0850538
0.852689 0 0.0878309
0.914382 0 0.0897536
0.975494 0 0.0923476
1 0.099382 0.135225
1 0.221592 0.195407
1 0.287892 0.242267
1 0.336675 0.281239
1 0.37644 0.315312
1 0.410758 0.346166
1 0.441474 0.374807
1 0.469932 0.402106
1 0.497124 0.428855
1 0.523827 0.455726
1 0.550729 0.48336
1 0.578393 0.512337
1 0.607324 0.543221
1 0.637934 0.576532
1 0.670604 0.612665
1 0.705531 0.651987
1 0.742824 0.694621
1 0.782208 0.740307
1 0.822889 0.788098
1 0.863005 0.835737
1 0.899794 0.879759
1 0.930114 0.916213
1 0.952804 0.943511
1 0.968658 0.9626
1 0.979461 0.975555
1 0.98677 0.984314
1 0.99176 0.990265
0 0.00709545 0.00309758
0 0.00709545 0.00309758
0 0.00709545 0.00309758
0 0.00709545 0.00309758
0 0.00709545 0.00309758
0.00236515 0.00822461 0
0.00999466 0.00991836 0
0.0151369 0.0113069 0
0.0198825 0.0125124 1.5259e-05
0.024445 0.0135653 1.5259e-05
0.0288853 0.0145113 1.5259e-05
0.0337224 0.0154574 1.5259e-05
0.0394751 0.0164645 0
0.0462806 0.0175326 1.5259e-05
0.0543526 0.0186313 0
0.0639048 0.0197147 0
0.0751659 0.0207523 1.5259e-05
0.0884413 0.0216068 0
0.104021 0.0221561 3.0518e-05
0.122194 0.0222324 3.0518e-05
0.143328 0.0213474 1.5259e-05
0.167727 0.0186313 4.57771e-05
0.195651 0.0110475 4.57771e-05
0.227283 0.000137331 0
0.262242 0 6.10361e-05
0.301213 0.000167849 0.0170901
0.344182 0 0.0257572
0.390951 0.000137331 0.0336919
0.44123 0.000335698 0.0414282
0.494667 0.000122072 0.0490272
0.550805 0 0.0564126
0.609186 0 0.063447
0.669383 0 0.0698711
0.730953 0 0.0755779
0.792859 0.000381476 0.0802167
0.853895 0.000122072 0.0833143
0.91548 0 0.0855116
0.976425 0 0.088716
1 0.104204 0.134249
1 0.223239 0.195026
1 0.28893 0.242054
1 0.337423 0.281132
1 0.377035 0.315282
1 0.411215 0.346166
1 0.441855 0.374838
1 0.470253 0.402152
1 0.497383 0.428916
1 0.524041 0.455787
1 0.550912 0.483421
1 0.578546 0.512413
1 0.607446 0.543297
1 0.638056 0.576593
1 0.670695 0.612726
1 0.705623 0.652049
1 0.742885 0.694682
1 0.782269 0.740353
1 0.822934 0.788144
1 0.86305 0.835767
1 0.899809 0.879789
1 0.930144 0.916243
1 0.952804 0.943526
1 0.968658 0.9626
1 0.979461 0.97557
1 0.98677 0.984314
1 0.99176 0.990265
0 0.0121004 0.00529488
0 0.0121004 0.00529488
0 0.0121004 0.00529488
0 0.0121004 0.00529488
0 0.0121004 0.00529488
0 0.0132753 0.00335698
0.0110781 0.0152895 1.5259e-05
0.0169528 0.0168307 0
0.0220493 0.018204 1.5259e-05
0.0268101 0.0194553 0
0.0313726 0.0206149 1.5259e-05
0.0363165 0.0217899 1.5259e-05
0.0421302 0.0230869 1.5259e-05
0.0489967 0.024506 1.5259e-05
0.057084 0.0260471 1.5259e-05
0.0666361 0.0276951 3.0518e-05
0.0778668 0.0294041 1.5259e-05
0.0910811 0.0311131 1.5259e-05
0.106569 0.0327916 0
0.12462 0.0343328 3.0518e-05
0.145602 0.0355688 0
0.169818 0.0362707 1.5259e-05
0.197543 0.0362707 0
0.229053 0.0348974 0
0.264546 0.0311284 4.57771e-05
0.304051 0.022446 3.0518e-05
0.347539 0 6.10361e-05
0.393927 0 0.0112306
0.443885 0 0.0274357
0.497047 0 0.037995
0.552956 0.000244144 0.0471199
0.611154 0 0.0553445
0.671183 0 0.0627451
0.732586 0 0.0692912
0.794278 0 0.0745708
0.855192 0 0.0782177
0.91664 0 0.0808728
0.97734 0 0.0848554
1 0.108766 0.133272
1 0.224887 0.194644
1 0.289952 0.24184
1 0.33817 0.28101
1 0.377615 0.315236
1 0.411688 0.346166
1 0.442237 0.374853
1 0.470558 0.402197
1 0.497627 0.428962
1 0.524254 0.455848
1 0.551095 0.483482
1 0.578698 0.512474
1 0.607584 0.543359
1 0.638163 0.576654
1 0.670787 0.612802
1 0.705699 0.65211
1 0.742962 0.694728
1 0.782315 0.740414
1 0.82298 0.788174
1 0.863096 0.835813
1 0.89984 0.87982
1 0.930144 0.916259
1 0.952819 0.943542
1 0.968658 0.9626
1 0.979461 0.97557
1 0.98677 0.984314
1 0.99176 0.990265
0 0.0169833 0.00743114
0 0.0169833 0.00743114
0 0.0169833 0.00743114
0 0.0169833 0.00743114
0 0.0169833 0.00743114
0 0.0181277 0.0059205
0.0113375 0.0204623 0
0.0181735 0.0220645 1.5259e-05
0.0236973 0.0235294 1.5259e-05
0.0287022 0.0248722 1.5259e-05
0.0334478 0.0261234 0
0.0385138 0.0274205 1.5259e-05
0.0444343 0.0288701 1.5259e-05
0.0513619 0.0304875 1.5259e-05
0.0595102 0.0322728 1.5259e-05
0.0690776 0.0342107 1.5259e-05
0.0803082 0.036286 0
0.093492 0.0384527 0
0.108919 0.0406806 3.0518e-05
0.126894 0.0428931 1.5259e-05
0.147738 0.0449836 0
0.171786 0.0468452 4.57771e-05
0.199329 0.0482795 1.5259e-05
0.230655 0.0489357 4.57771e-05
0.265888 0.0486763 0
0.305211 0.0466011 4.57771e-05
0.348547 0.0416114 0
0.395758 0.0308232 0.000106813
0.446525 0 0.000106813
0.499397 0.000381476 0.0175479
0.555093 0.000381476 0.0340887
0.613123 0 0.0451057
0.672999 0 0.0541543
0.734279 0 0.061799
0.795819 0.000289921 0.0678569
0.856687 0.000701915 0.0720836
0.918059 0.000244144 0.0752117
0.978561 0 0.0801862
1 0.112657 0.132128
1 0.226444 0.194217
1 0.290959 0.241611
1 0.338903 0.280903
1 0.378195 0.31519
1 0.412146 0.346166
1 0.442603 0.374884
1 0.470863 0.402243
1 0.497887 0.429023
1 0.524468 0.455909
1 0.551263 0.483558
1 0.578851 0.512535
1 0.607706 0.543435
1 0.63827 0.576715
1 0.670878 0.612863
1 0.705776 0.652171
1 0.743023 0.694789
1 0.782376 0.740459
1 0.823026 0.78822
1 0.863127 0.835859
1 0.89987 0.879835
1 0.930159 0.916274
1 0.952819 0.943542
1 0.968673 0.962615
1 0.979461 0.97557
1 0.98677 0.984314
1 0.99176 0.990265
0 0.0217746 0.00952163
0 0.0217746 0.00952163
0 0.0217746 0.00952163
0 0.0217746 0.00952163
1.5259e-05 0.0217746 0.00952163
0 0.0228885 0.00817884
0.0107271 0.0255131 1.5259e-05
0.0188907 0.0271305 1.5259e-05
0.0249332 0.0286259 1.5259e-05
0.0302434 0.0300298 1.5259e-05
0.035172 0.0313268 3.0518e-05
0.0403906 0.0327001 1.5259e-05
0.0464332 0.0342412 3.0518e-05
0.0534829 0.0359808 1.5259e-05
0.0616922 0.0379187 3.0518e-05
0.0713054 0.0400397 1.5259e-05
0.0825666 0.0423438 3.0518e-05
0.0957351 0.0448157 3.0518e-05
0.111101 0.0474098 3.0518e-05
0.129 0.0500496 3.0518e-05
0.149737 0.0527047 4.57771e-05
0.173648 0.0552377 1.5259e-05
0.201038 0.0574655 6.10361e-05
0.232181 0.0591745 3.0518e-05
0.267231 0.0602274 6.10361e-05
0.30631 0.0601358 6.10361e-05
0.349401 0.0585184 0
0.396445 0.0539101 0.000137331
0.447135 0.0446021 0.000122072
0.501167 0.0182345 9.15541e-05
0.557229 0 0.000167849
0.615076 0.000442512 0.0297093
0.674815 0 0.0430152
0.735958 0.000274662 0.0527504
0.797375 0 0.0600443
0.858183 0.000320439 0.0651102
0.919493 0 0.068864
0.979782 0.000122072 0.0751049
1 0.116396 0.130999
1 0.228 0.19379
1 0.291966 0.241398
1 0.339651 0.280781
1 0.378775 0.31516
1 0.412604 0.346166
1 0.442985 0.374914
1 0.471168 0.402289
1 0.498146 0.429068
1 0.524681 0.45597
1 0.551446 0.483619
1 0.579004 0.512612
1 0.607843 0.543496
1 0.638376 0.576791
1 0.67097 0.612924
1 0.705852 0.652232
1 0.743084 0.69485
1 0.782437 0.74052
1 0.823072 0.788266
1 0.863172 0.835889
1 0.899901 0.879866
1 0.93019 0.916289
1 0.952834 0.943557
1 0.968673 0.962615
1 0.979461 0.97557
1 0.98677 0.984314
1 0.99176 0.990265
0 0.0264897 0.0115816
0 0.0264897 0.0115816
0 0.0264897 0.0115816
0 0.0264897 0.0115816
0 0.0264897 0.0115816
0 0.0275731 0.0103304
0.00886549 0.030457 1.5259e-05
0.0191653 0.0320745 1.5259e-05
0.025803 0.0336004 1.5259e-05
0.0314641 0.0350195 1.5259e-05
0.0366217 0.0363622 1.5259e-05
0.0420081 0.0377661 1.5259e-05
0.0482032 0.0393683 1.5259e-05
0.0553597 0.0411841 1.5259e-05
0.0636606 0.0432288 0
0.0733501 0.0454719 1.5259e-05
0.0846418 0.0479438 4.57771e-05
0.0978103 0.0506142 1.5259e-05
0.113146 0.0534676 3.0518e-05
0.130983 0.0564279 3.0518e-05
0.151644 0.0594339 4.57771e-05
0.175433 0.0624094 6.10361e-05
0.20267 0.0652171 3.0518e-05
0.233631 0.0676432 7.62951e-05
0.268513 0.0694896 7.62951e-05
0.307362 0.070573 7.62951e-05
0.350286 0.0702831 0
0.397055 0.0683909 0
0.447623 0.0630808 0
0.501503 0.0526894 9.15541e-05
0.558373 0.0263066 4.57771e-05
0.617029 0 0.000137331
0.676631 0 0.0246738
0.737652 0 0.0407416
0.798932 0.000289921 0.0504768
0.859678 0.000381476 0.0568856
0.920928 0.000534066 0.0615702
0.980972 0.000549325 0.0695506
1 0.120027 0.129854
1 0.229541 0.193362
1 0.292973 0.241169
1 0.340383 0.280659
1 0.379355 0.315114
1 0.413077 0.346166
1 0.443366 0.374929
1 0.471489 0.402335
1 0.498405 0.429129
1 0.524895 0.456031
1 0.551629 0.48368
1 0.579156 0.512673
1 0.607965 0.543557
1 0.638483 0.576852
1 0.671061 0.612985
1 0.705928 0.652293
1 0.74316 0.694896
1 0.782498 0.740566
1 0.823117 0.788312
1 0.863203 0.835935
1 0.899916 0.879896
1 0.93019 0.916304
1 0.952834 0.943557
1 0.968673 0.962615
1 0.979461 0.97557
1 0.98677 0.984314
1 0.99176 0.99028
0 0.0316472 0.0138399
0 0.0316472 0.0138399
0 0.0316472 0.0138399
0 0.0316472 0.0138399
0 0.0316472 0.0138399
0 0.0327001 0.0126497
0 0.0358587 1.5259e-05
0.0189364 0.0374762 1.5259e-05
0.0264134 0.0390021 3.0518e-05
0.0324865 0.0404364 1.5259e-05
0.0379339 0.0417945 1.5259e-05
0.0435492 0.0432288 1.5259e-05
0.0499123 0.0448768 3.0518e-05
0.0572213 0.0467384 3.0518e-05
0.0656443 0.0488441 3.0518e-05
0.0754101 0.0512093 3.0518e-05
0.0867628 0.0538033 3.0518e-05
0.0999466 0.0566415 3.0518e-05
0.115282 0.059678 4.57771e-05
0.133074 0.0628977 6.10361e-05
0.153643 0.0662242 4.57771e-05
0.177325 0.0695659 0
0.20441 0.0728161 4.57771e-05
0.235172 0.0758221 3.0518e-05
0.269841 0.0783551 0
0.308522 0.0801709 6.10361e-05
0.351186 0.0810712 9.15541e-05
0.397818 0.0803235 4.57771e-05
0.448066 0.0777295 0.000137331
0.501839 0.0711528 0.000122072
0.558572 0.0585946 0.000106813
0.617899 0.0255436 0
0.678645 0 0.000137331
0.739544 0 0.0110933
0.800671 0.000335698 0.0352941
0.861372 0.000274662 0.0451209
0.92253 0 0.0516518
0.9823 0 0.062562
1 0.123964 0.128588
1 0.231235 0.192889
1 0.294087 0.240925
1 0.341207 0.280537
1 0.379995 0.315068
1 0.413581 0.346166
1 0.443778 0.37496
1 0.471824 0.40238
1 0.49868 0.429191
1 0.525139 0.456107
1 0.551827 0.483757
1 0.579324 0.512749
1 0.608103 0.543633
1 0.638605 0.576928
1 0.671168 0.613046
1 0.70602 0.652354
1 0.743221 0.694957
1 0.782559 0.740627
1 0.823163 0.788357
1 0.863249 0.835981
1 0.899947 0.879927
1 0.93022 0.91632
1 0.95285 0.943572
1 0.968688 0.962631
1 0.979461 0.97557
1 0.98677 0.984314
1 0.99176 0.99028
0 0.0377813 0.0165255
0 0.0377813 0.0165255
0 0.0377813 0.0165255
0 0.0377813 0.0165255
0 0.0377813 0.0165255
0 0.0388037 0.0153964
0 0.0419013 0.00743114
0.017792 0.0438544 1.5259e-05
0.026627 0.0453803 3.0518e-05
0.0333257 0.0468147 1.5259e-05
0.0391546 0.048188 1.5259e-05
0.0450599 0.0496376 3.0518e-05
0.0516823 0.0513161 3.0518e-05
0.0591897 0.0532235 1.5259e-05
0.0677806 0.055375 3.0518e-05
0.0776684 0.0578012 3.0518e-05
0.0890974 0.060502 3.0518e-05
0.102342 0.0634775 4.57771e-05
0.117678 0.0666972 4.57771e-05
0.135424 0.0701305 6.10361e-05
0.155901 0.0737316 3.0518e-05
0.179461 0.0774243 7.62951e-05
0.206394 0.0810559 7.62951e-05
0.236973 0.0845502 0
0.271397 0.0876936 4.57771e-05
0.309834 0.0902419 7.62951e-05
0.352285 0.0918898 6.10361e-05
0.398611 0.0924392 0.000137331
0.448707 0.0910201 0.000122072
0.502129 0.0874342 0
0.558755 0.0791638 0
0.617975 0.0637522 0
0.679362 0.0172732 0.000213626
0.741817 0 4.57771e-05
0.802792 0.000122072 0.000198367
0.863401 0.000656138 0.0172732
0.924468 0.000213626 0.0339666
0.983886 0 0.0523995
1 0.128542 0.127062
1 0.233265 0.192309
1 0.29543 0.24062
1 0.342199 0.280385
1 0.380774 0.315007
1 0.414206 0.346166
1 0.444282 0.375006
1 0.472236 0.402441
1 0.499031 0.429267
1 0.525414 0.456184
1 0.552071 0.483848
1 0.579522 0.51284
1 0.608286 0.543725
1 0.638758 0.57702
1 0.67129 0.613138
1 0.706127 0.65243
1 0.743313 0.695033
1 0.782635 0.740703
1 0.823224 0.788418
1 0.863294 0.836027
1 0.899977 0.879957
1 0.930236 0.916335
1 0.952865 0.943587
1 0.968688 0.962631
1 0.979477 0.97557
1 0.98677 0.984329
1 0.99176 0.99028
3.0518e-05 0.0450446 0.0196994
3.0518e-05 0.0450446 0.0196994
3.0518e-05 0.0450446 0.0196994
3.0518e-05 0.0450446 0.0196994
3.0518e-05 0.0450446 0.0196994
0 0.0460517 0.018616
0 0.0490272 0.0124971
0.0146334 0.0514076 1.5259e-05
0.0261387 0.052903 0
0.0337682 0.0543374 3.0518e-05
0.0401312 0.0556954 3.0518e-05
0.0464485 0.0571603 3.0518e-05
0.0534066 0.0588388 3.0518e-05
0.0612039 0.0607614 4.57771e-05
0.0700236 0.0629587 0
0.0800793 0.0654307 0
0.0916457 0.0682078 3.0518e-05
0.104952 0.0712749 4.57771e-05
0.120317 0.0746319 3.0518e-05
0.138033 0.0782635 4.57771e-05
0.15845 0.0820935 6.10361e-05
0.181872 0.0860761 7.62951e-05
0.208637 0.090074 4.57771e-05
0.239002 0.0939803 4.57771e-05
0.273182 0.0976425 7.62951e-05
0.31133 0.100832 4.57771e-05
0.353491 0.103258 7.62951e-05
0.399573 0.10457 0.000106813
0.449348 0.104555 0
0.502617 0.10219 6.10361e-05
0.558877 0.0972763 0.000122072
0.617975 0.0868849 0
0.679271 0.0678111 0.000122072
0.742306 0.000457771 0
0.805325 0 0.000228885
0.865888 0 0.000228885
0.926833 0.000610361 0
0.985779 0 0.0344549
1 0.133883 0.1252
1 0.235691 0.191608
1 0.297032 0.240253
1 0.343404 0.280201
1 0.381704 0.314931
1 0.414954 0.346151
1 0.444892 0.375036
1 0.47274 0.402502
1 0.499443 0.429358
1 0.525765 0.456291
1 0.552361 0.483955
1 0.579767 0.512947
1 0.608484 0.543832
1 0.638926 0.577111
1 0.671443 0.613245
1 0.706249 0.652537
1 0.74342 0.695125
