src/ACES/PixelManager-v.2.0-RC6/ACES/ACEScct_ACES2-Comp.cube
TITLE "Generated by Resolve"
LUT_3D_SIZE 65
0 0 0
0.01561 0 0
0.0312352 0 0
0.0468605 0.0196536 0.0204318
0.0624857 0.0512093 0.0518044
0.0781109 0.0724498 0.0727703
0.0937362 0.0712749 0.0724041
0.109361 0.0703593 0.0720989
0.124987 0.069688 0.07187
0.140612 0.0692149 0.0717174
0.156237 0.068925 0.0716106
0.171862 0.0687724 0.0715648
0.187488 0.0687877 0.0715953
0.203113 0.0690471 0.0717327
0.218738 0.0696422 0.0720378
0.234363 0.0706798 0.0725719
0.249989 0.0722667 0.0734264
0.265614 0.0745403 0.0746929
0.281239 0.0776684 0.0764935
0.296864 0.0817884 0.0789349
0.31249 0.0871138 0.0822003
0.328115 0.0938888 0.0864424
0.34374 0.102388 0.0918746
0.359365 0.112947 0.0987564
0.37499 0.125948 0.107362
0.390616 0.141894 0.118013
0.406241 0.161166 0.131151
0.421866 0.180713 0.14725
0.437491 0.199542 0.166155
0.453117 0.217777 0.184833
0.468742 0.235554 0.202976
0.484367 0.252934 0.220706
0.499992 0.270008 0.238056
0.515618 0.286824 0.255116
0.531243 0.303426 0.271931
0.546868 0.31986 0.288533
0.562493 0.336156 0.304967
0.578119 0.352331 0.321263
0.593744 0.368399 0.337453
0.609369 0.384405 0.353536
0.624994 0.400336 0.369543
0.64062 0.41622 0.385489
0.656245 0.432059 0.401373
0.67187 0.447852 0.417212
0.687495 0.46363 0.433005
0.70312 0.479377 0.448783
0.718746 0.495094 0.46453
0.734371 0.510796 0.480262
0.749996 0.526497 0.495964
0.765621 0.542184 0.511666
0.781247 0.557855 0.527352
0.796872 0.57351 0.543023
0.812497 0.589166 0.558679
0.828122 0.604822 0.574334
0.843748 0.620462 0.58999
0.859373 0.636103 0.605646
0.874998 0.651743 0.621286
0.890623 0.667384 0.636927
0.906249 0.683024 0.652567
0.921874 0.69865 0.668193
0.937499 0.71429 0.683833
0.953124 0.729915 0.699458
0.96875 0.745556 0.715099
0.984375 0.761181 0.730724
1 0.776806 0.746349
0 0.01561 0
0.01561 0.01561 0
0.0312352 0.01561 0
0.0468605 0.0211032 0.0204318
0.0624857 0.0512551 0.0518044
0.0781109 0.0724651 0.0727703
0.0937362 0.0713359 0.0724041
0.109361 0.0705425 0.0720989
0.124987 0.0700389 0.07187
0.140612 0.069749 0.0717174
0.156237 0.0696422 0.0716106
0.171862 0.0697032 0.0715648
0.187488 0.0699779 0.0715953
0.203113 0.0705272 0.0717327
0.218738 0.0714427 0.0720378
0.234363 0.0728313 0.0725719
0.249989 0.0747845 0.0734264
0.265614 0.0774395 0.0746929
0.281239 0.0809186 0.0764935
0.296864 0.0853895 0.0789349
0.31249 0.0910506 0.0822003
0.328115 0.098146 0.0864424
0.34374 0.10692 0.0918746
0.359365 0.117723 0.0987564
0.37499 0.130968 0.107362
0.390616 0.147112 0.118013
0.406241 0.166018 0.131151
0.421866 0.18468 0.14725
0.437491 0.202777 0.166155
0.453117 0.220432 0.184833
0.468742 0.23772 0.202976
0.484367 0.254719 0.220706
0.499992 0.271473 0.238056
0.515618 0.288029 0.255116
0.531243 0.304417 0.271931
0.546868 0.320684 0.288533
0.562493 0.336828 0.304967
0.578119 0.35288 0.321263
0.593744 0.368872 0.337453
0.609369 0.384787 0.353536
0.624994 0.400656 0.369543
0.64062 0.41648 0.385489
0.656245 0.432273 0.401373
0.67187 0.448035 0.417212
0.687495 0.463783 0.433005
0.70312 0.4795 0.448783
0.718746 0.495201 0.46453
0.734371 0.510887 0.480262
0.749996 0.526558 0.495964
0.765621 0.542229 0.511666
0.781247 0.5579 0.527352
0.796872 0.573556 0.543023
0.812497 0.589197 0.558679
0.828122 0.604852 0.574334
0.843748 0.620493 0.58999
0.859373 0.636133 0.605646
0.874998 0.651759 0.621286
0.890623 0.667399 0.636927
0.906249 0.68304 0.652567
0.921874 0.698665 0.668193
0.937499 0.71429 0.683833
0.953124 0.729931 0.699458
0.96875 0.745556 0.715099
0.984375 0.761181 0.730724
1 0.776806 0.746349
0 0.0312352 0
0.01561 0.0312352 0
0.0312352 0.0312352 0
0.0468605 0.0312352 0.0204318
0.0624857 0.0513313 0.0518044
0.0781109 0.0724651 0.0727703
0.0937362 0.071458 0.0724041
0.109361 0.0708476 0.0720989
0.124987 0.070573 0.07187
0.140612 0.0705425 0.0717174
0.156237 0.0706951 0.0716106
0.171862 0.0710155 0.0715648
0.187488 0.0715953 0.0715953
0.203113 0.0724804 0.0717327
0.218738 0.0737621 0.0720378
0.234363 0.0755169 0.0725719
0.249989 0.0778363 0.0734264
0.265614 0.0808576 0.0746929
0.281239 0.0846723 0.0764935
0.296864 0.0894789 0.0789349
0.31249 0.0954452 0.0822003
0.328115 0.1028 0.0864424
0.34374 0.111818 0.0918746
0.359365 0.122835 0.0987564
0.37499 0.136263 0.107362
0.390616 0.15256 0.118013
0.406241 0.170779 0.131151
0.421866 0.188571 0.14725
0.437491 0.205982 0.166155
0.453117 0.223056 0.184833
0.468742 0.239887 0.202976
0.484367 0.256504 0.220706
0.499992 0.272938 0.238056
0.515618 0.289235 0.255116
0.531243 0.305425 0.271931
0.546868 0.321508 0.288533
0.562493 0.337514 0.304967
0.578119 0.353445 0.321263
0.593744 0.369329 0.337453
0.609369 0.385168 0.353536
0.624994 0.400977 0.369543
0.64062 0.416739 0.385489
0.656245 0.432486 0.401373
0.67187 0.448218 0.417212
0.687495 0.46392 0.433005
0.70312 0.479622 0.448783
0.718746 0.495293 0.46453
0.734371 0.510964 0.480262
0.749996 0.526635 0.495964
0.765621 0.54229 0.511666
0.781247 0.557946 0.527352
0.796872 0.573587 0.543023
0.812497 0.589227 0.558679
0.828122 0.604868 0.574334
0.843748 0.620508 0.58999
0.859373 0.636149 0.605646
0.874998 0.651774 0.621286
0.890623 0.667414 0.636927
0.906249 0.68304 0.652567
0.921874 0.69868 0.668193
0.937499 0.714305 0.683833
0.953124 0.729931 0.699458
0.96875 0.745556 0.715099
0.984375 0.761181 0.730724
1 0.776822 0.746349
0.0186313 0.0468605 0.0204318
0.0204623 0.0468605 0.0204318
0.0312352 0.0468605 0.0204318
0.0468605 0.0468605 0.0204318
0.0624857 0.0517891 0.0518044
0.0781109 0.0724804 0.0727703
0.0937362 0.0716869 0.0724041
0.109361 0.0714275 0.0720989
0.124987 0.071519 0.07187
0.140612 0.0718395 0.0717174
0.156237 0.0723278 0.0716106
0.171862 0.0729839 0.0715648
0.187488 0.07393 0.0715953
0.203113 0.0751812 0.0717327
0.218738 0.0768292 0.0720378
0.234363 0.0789349 0.0725719
0.249989 0.0816052 0.0734264
0.265614 0.084947 0.0746929
0.281239 0.0890669 0.0764935
0.296864 0.0941329 0.0789349
0.31249 0.100343 0.0822003
0.328115 0.107912 0.0864424
0.34374 0.117113 0.0918746
0.359365 0.128298 0.0987564
0.37499 0.141848 0.107362
0.390616 0.158206 0.118013
0.406241 0.175448 0.131151
0.421866 0.192416 0.14725
0.437491 0.209125 0.166155
0.453117 0.225666 0.184833
0.468742 0.242023 0.202976
0.484367 0.258274 0.220706
0.499992 0.274403 0.238056
0.515618 0.29044 0.255116
0.531243 0.306416 0.271931
0.546868 0.322332 0.288533
0.562493 0.338186 0.304967
0.578119 0.354009 0.321263
0.593744 0.369802 0.337453
0.609369 0.38555 0.353536
0.624994 0.401297 0.369543
0.64062 0.417014 0.385489
0.656245 0.4327 0.401373
0.67187 0.448402 0.417212
0.687495 0.464073 0.433005
0.70312 0.479744 0.448783
0.718746 0.495399 0.46453
0.734371 0.511055 0.480262
0.749996 0.526711 0.495964
0.765621 0.542351 0.511666
0.781247 0.557992 0.527352
0.796872 0.573632 0.543023
0.812497 0.589273 0.558679
0.828122 0.604898 0.574334
0.843748 0.620539 0.58999
0.859373 0.636164 0.605646
0.874998 0.651789 0.621286
0.890623 0.66743 0.636927
0.906249 0.683055 0.652567
0.921874 0.69868 0.668193
0.937499 0.714305 0.683833
0.953124 0.729931 0.699458
0.96875 0.745571 0.715099
0.984375 0.761196 0.730724
1 0.776822 0.746349
0.0506905 0.0624857 0.0518044
0.0507362 0.0624857 0.0518044
0.0508431 0.0624857 0.0518044
0.0514382 0.0624857 0.0518044
0.0624857 0.0624857 0.0518044
0.0781109 0.0725414 0.0727703
0.0937362 0.0723583 0.0724041
0.109361 0.0727855 0.0720989
0.124987 0.0734722 0.07187
0.140612 0.0742809 0.0717174
0.156237 0.0751659 0.0716106
0.171862 0.0761883 0.0715648
0.187488 0.0774701 0.0715953
0.203113 0.079057 0.0717327
0.218738 0.0810254 0.0720378
0.234363 0.0834211 0.0725719
0.249989 0.0863508 0.0734264
0.265614 0.0899062 0.0746929
0.281239 0.0942245 0.0764935
0.296864 0.0994736 0.0789349
0.31249 0.105837 0.0822003
0.328115 0.113527 0.0864424
0.34374 0.12285 0.0918746
0.359365 0.134127 0.0987564
0.37499 0.147753 0.107362
0.390616 0.16379 0.118013
0.406241 0.180041 0.131151
0.421866 0.196201 0.14725
0.437491 0.212253 0.166155
0.453117 0.228229 0.184833
0.468742 0.24416 0.202976
0.484367 0.260029 0.220706
0.499992 0.275853 0.238056
0.515618 0.291646 0.255116
0.531243 0.307408 0.271931
0.546868 0.32314 0.288533
0.562493 0.338872 0.304967
0.578119 0.354574 0.321263
0.593744 0.37026 0.337453
0.609369 0.385931 0.353536
0.624994 0.401602 0.369543
0.64062 0.417273 0.385489
0.656245 0.432929 0.401373
0.67187 0.448569 0.417212
0.687495 0.464225 0.433005
0.70312 0.479866 0.448783
0.718746 0.495506 0.46453
0.734371 0.511131 0.480262
0.749996 0.526772 0.495964
0.765621 0.542412 0.511666
0.781247 0.558038 0.527352
0.796872 0.573663 0.543023
0.812497 0.589303 0.558679
0.828122 0.604929 0.574334
0.843748 0.620554 0.58999
0.859373 0.636179 0.605646
0.874998 0.651804 0.621286
0.890623 0.667445 0.636927
0.906249 0.68307 0.652567
0.921874 0.698695 0.668193
0.937499 0.714321 0.683833
0.953124 0.729946 0.699458
0.96875 0.745571 0.715099
0.984375 0.761196 0.730724
1 0.776822 0.746349
0.0721752 0.0781109 0.0727703
0.0721904 0.0781109 0.0727703
0.0721904 0.0781109 0.0727703
0.072221 0.0781109 0.0727703
0.0722972 0.0781109 0.0727703
0.0781109 0.0781109 0.0727703
0.0937362 0.0781109 0.0724041
0.109361 0.0783093 0.0720989
0.124987 0.0790265 0.07187
0.140612 0.0799268 0.0717174
0.156237 0.0808728 0.0716106
0.171862 0.0819715 0.0715648
0.187488 0.0833295 0.0715953
0.203113 0.0849775 0.0717327
0.218738 0.0869917 0.0720378
0.234363 0.0894484 0.0725719
0.249989 0.0924086 0.0734264
0.265614 0.0960098 0.0746929
0.281239 0.100374 0.0764935
0.296864 0.105638 0.0789349
0.31249 0.112032 0.0822003
0.328115 0.119738 0.0864424
0.34374 0.129076 0.0918746
0.359365 0.140368 0.0987564
0.37499 0.154009 0.107362
0.390616 0.169253 0.118013
0.406241 0.184558 0.131151
0.421866 0.199924 0.14725
0.437491 0.215335 0.166155
0.453117 0.230793 0.184833
0.468742 0.246265 0.202976
0.484367 0.261769 0.220706
0.499992 0.277302 0.238056
0.515618 0.292836 0.255116
0.531243 0.3084 0.271931
0.546868 0.323964 0.288533
0.562493 0.339544 0.304967
0.578119 0.355123 0.321263
0.593744 0.370718 0.337453
0.609369 0.386313 0.353536
0.624994 0.401923 0.369543
0.64062 0.417533 0.385489
0.656245 0.433143 0.401373
0.67187 0.448753 0.417212
0.687495 0.464363 0.433005
0.70312 0.479988 0.448783
0.718746 0.495598 0.46453
0.734371 0.511223 0.480262
0.749996 0.526848 0.495964
0.765621 0.542458 0.511666
0.781247 0.558083 0.527352
0.796872 0.573709 0.543023
0.812497 0.589334 0.558679
0.828122 0.604959 0.574334
0.843748 0.620584 0.58999
0.859373 0.63621 0.605646
0.874998 0.65182 0.621286
0.890623 0.667445 0.636927
0.906249 0.68307 0.652567
0.921874 0.698695 0.668193
0.937499 0.714321 0.683833
0.953124 0.729946 0.699458
0.96875 0.745571 0.715099
0.984375 0.761196 0.730724
1 0.776822 0.746349
0.0702373 0.0937362 0.0724041
0.0703288 0.0937362 0.0724041
0.0704662 0.0937362 0.0724041
0.0707713 0.0937362 0.0724041
0.0716411 0.0937362 0.0724041
0.0781109 0.0937362 0.0724041
0.0937362 0.0937362 0.0724041
0.109361 0.0937362 0.0720989
0.124987 0.0937362 0.07187
0.140612 0.0937362 0.0717174
0.156237 0.0937362 0.0716106
0.171862 0.0937362 0.0715648
0.187488 0.0938735 0.0715953
0.203113 0.0945754 0.0717327
0.218738 0.0958877 0.0720378
0.234363 0.0977951 0.0725719
0.249989 0.100359 0.0734264
0.265614 0.103624 0.0746929
0.281239 0.107729 0.0764935
0.296864 0.11281 0.0789349
0.31249 0.119036 0.0822003
0.328115 0.126619 0.0864424
0.34374 0.135851 0.0918746
0.359365 0.147051 0.0987564
0.37499 0.160464 0.107362
0.390616 0.174609 0.118013
0.406241 0.189014 0.131151
0.421866 0.203616 0.14725
0.437491 0.218387 0.166155
0.453117 0.23331 0.184833
0.468742 0.248356 0.202976
0.484367 0.263508 0.220706
0.499992 0.278737 0.238056
0.515618 0.294026 0.255116
0.531243 0.309377 0.271931
0.546868 0.324773 0.288533
0.562493 0.340215 0.304967
0.578119 0.355688 0.321263
0.593744 0.371176 0.337453
0.609369 0.386694 0.353536
0.624994 0.402243 0.369543
0.64062 0.417792 0.385489
0.656245 0.433356 0.401373
0.67187 0.448936 0.417212
0.687495 0.464515 0.433005
0.70312 0.48011 0.448783
0.718746 0.495705 0.46453
0.734371 0.511299 0.480262
0.749996 0.526909 0.495964
0.765621 0.542519 0.511666
0.781247 0.558129 0.527352
0.796872 0.573754 0.543023
0.812497 0.589364 0.558679
0.828122 0.604974 0.574334
0.843748 0.6206 0.58999
0.859373 0.636225 0.605646
0.874998 0.651835 0.621286
0.890623 0.66746 0.636927
0.906249 0.683085 0.652567
0.921874 0.698711 0.668193
0.937499 0.714336 0.683833
0.953124 0.729961 0.699458
0.96875 0.745586 0.715099
0.984375 0.761196 0.730724
1 0.776822 0.746349
0.0686503 0.109361 0.0720989
0.0688945 0.109361 0.0720989
0.0693065 0.109361 0.0720989
0.0700389 0.109361 0.0720989
0.0717784 0.109361 0.0720989
0.0782177 0.109361 0.0720989
0.0937362 0.109361 0.0720989
0.109361 0.109361 0.0720989
0.124987 0.109361 0.07187
0.140612 0.109361 0.0717174
0.156237 0.109361 0.0716106
0.171862 0.109361 0.0715648
0.187488 0.109361 0.0715953
0.203113 0.109361 0.0717327
0.218738 0.109361 0.0720378
0.234363 0.109651 0.0725719
0.249989 0.110933 0.0734264
0.265614 0.113268 0.0746929
0.281239 0.116655 0.0764935
0.296864 0.121202 0.0789349
0.31249 0.127001 0.0822003
0.328115 0.134264 0.0864424
0.34374 0.143236 0.0918746
0.359365 0.154238 0.0987564
0.37499 0.166812 0.107362
0.390616 0.179889 0.118013
0.406241 0.193393 0.131151
0.421866 0.207263 0.14725
0.437491 0.221424 0.166155
0.453117 0.235828 0.184833
0.468742 0.250446 0.202976
0.484367 0.265232 0.220706
0.499992 0.280156 0.238056
0.515618 0.295216 0.255116
0.531243 0.310353 0.271931
0.546868 0.325597 0.288533
0.562493 0.340887 0.304967
0.578119 0.356237 0.321263
0.593744 0.371649 0.337453
0.609369 0.387076 0.353536
0.624994 0.402548 0.369543
0.64062 0.418051 0.385489
0.656245 0.43357 0.401373
0.67187 0.449104 0.417212
0.687495 0.464668 0.433005
0.70312 0.480232 0.448783
0.718746 0.495811 0.46453
0.734371 0.511391 0.480262
0.749996 0.526986 0.495964
0.765621 0.54258 0.511666
0.781247 0.558175 0.527352
0.796872 0.573785 0.543023
0.812497 0.589395 0.558679
0.828122 0.605005 0.574334
0.843748 0.620615 0.58999
0.859373 0.63624 0.605646
0.874998 0.65185 0.621286
0.890623 0.667475 0.636927
0.906249 0.683101 0.652567
0.921874 0.698711 0.668193
0.937499 0.714336 0.683833
0.953124 0.729961 0.699458
0.96875 0.745586 0.715099
0.984375 0.761212 0.730724
1 0.776837 0.746349
0.0673686 0.124987 0.07187
0.0678264 0.124987 0.07187
0.0685435 0.124987 0.07187
0.069749 0.124987 0.07187
0.0722057 0.124987 0.07187
0.0787366 0.124987 0.07187
0.0937362 0.124987 0.07187
0.109361 0.124987 0.07187
0.124987 0.124987 0.07187
0.140612 0.124987 0.0717174
0.156237 0.124987 0.0716106
0.171862 0.124987 0.0715648
0.187488 0.124987 0.0715953
0.203113 0.124987 0.0717327
0.218738 0.124987 0.0720378
0.234363 0.124987 0.0725719
0.249989 0.124987 0.0734264
0.265614 0.125536 0.0746929
0.281239 0.12755 0.0764935
0.296864 0.13106 0.0789349
0.31249 0.13611 0.0822003
0.328115 0.142794 0.0864424
0.34374 0.151324 0.0918746
0.359365 0.161715 0.0987564
0.37499 0.173053 0.107362
0.390616 0.185092 0.118013
0.406241 0.197726 0.131151
0.421866 0.210864 0.14725
0.437491 0.224414 0.166155
0.453117 0.238315 0.184833
0.468742 0.252506 0.202976
0.484367 0.266941 0.220706
0.499992 0.28159 0.238056
0.515618 0.296391 0.255116
0.531243 0.31133 0.271931
0.546868 0.326406 0.288533
0.562493 0.341558 0.304967
0.578119 0.356802 0.321263
0.593744 0.372107 0.337453
0.609369 0.387457 0.353536
0.624994 0.402869 0.369543
0.64062 0.418311 0.385489
0.656245 0.433783 0.401373
0.67187 0.449287 0.417212
0.687495 0.464805 0.433005
0.70312 0.480354 0.448783
0.718746 0.495903 0.46453
0.734371 0.511467 0.480262
0.749996 0.527047 0.495964
0.765621 0.542641 0.511666
0.781247 0.558221 0.527352
0.796872 0.573831 0.543023
0.812497 0.589426 0.558679
0.828122 0.605035 0.574334
0.843748 0.620645 0.58999
0.859373 0.636255 0.605646
0.874998 0.651865 0.621286
0.890623 0.667491 0.636927
0.906249 0.683101 0.652567
0.921874 0.698726 0.668193
0.937499 0.714351 0.683833
0.953124 0.729961 0.699458
0.96875 0.745586 0.715099
0.984375 0.761212 0.730724
1 0.776837 0.746349
0.0663615 0.140612 0.0717174
0.0670634 0.140612 0.0717174
0.0680858 0.140612 0.0717174
0.069749 0.140612 0.0717174
0.0727855 0.140612 0.0717174
0.079408 0.140612 0.0717174
0.0937362 0.140612 0.0717174
0.109361 0.140612 0.0717174
0.124987 0.140612 0.0717174
0.140612 0.140612 0.0717174
0.156237 0.140612 0.0716106
0.171862 0.140612 0.0715648
0.187488 0.140612 0.0715953
0.203113 0.140612 0.0717327
0.218738 0.140612 0.0720378
0.234363 0.140612 0.0725719
0.249989 0.140612 0.0734264
0.265614 0.140612 0.0746929
0.281239 0.140841 0.0764935
0.296864 0.142718 0.0789349
0.31249 0.146532 0.0822003
0.328115 0.152316 0.0864424
0.34374 0.160021 0.0918746
0.359365 0.16907 0.0987564
0.37499 0.179202 0.107362
0.390616 0.190219 0.118013
0.406241 0.202014 0.131151
0.421866 0.214435 0.14725
0.437491 0.22739 0.166155
0.453117 0.240787 0.184833
0.468742 0.254566 0.202976
0.484367 0.26865 0.220706
0.499992 0.282994 0.238056
0.515618 0.297566 0.255116
0.531243 0.312306 0.271931
0.546868 0.327214 0.288533
0.562493 0.342229 0.304967
0.578119 0.357351 0.321263
0.593744 0.372564 0.337453
0.609369 0.387839 0.353536
0.624994 0.403189 0.369543
0.64062 0.41857 0.385489
0.656245 0.433997 0.401373
0.67187 0.44947 0.417212
0.687495 0.464958 0.433005
0.70312 0.480476 0.448783
0.718746 0.49601 0.46453
0.734371 0.511559 0.480262
0.749996 0.527123 0.495964
0.765621 0.542687 0.511666
0.781247 0.558282 0.527352
0.796872 0.573861 0.543023
0.812497 0.589456 0.558679
0.828122 0.605066 0.574334
0.843748 0.620661 0.58999
0.859373 0.636271 0.605646
0.874998 0.651881 0.621286
0.890623 0.667506 0.636927
0.906249 0.683116 0.652567
0.921874 0.698741 0.668193
0.937499 0.714351 0.683833
0.953124 0.729976 0.699458
0.96875 0.745586 0.715099
0.984375 0.761212 0.730724
1 0.776837 0.746349
0.0655833 0.156237 0.0716106
0.0665141 0.156237 0.0716106
0.0678569 0.156237 0.0716106
0.0699321 0.156237 0.0716106
0.0734264 0.156237 0.0716106
0.0801556 0.156237 0.0716106
0.0937362 0.156237 0.0716106
0.109361 0.156237 0.0716106
0.124987 0.156237 0.0716106
0.140612 0.156237 0.0716106
0.156237 0.156237 0.0716106
0.171862 0.156237 0.0715648
0.187488 0.156237 0.0715953
0.203113 0.156237 0.0717327
0.218738 0.156237 0.0720378
0.234363 0.156237 0.0725719
0.249989 0.156237 0.0734264
0.265614 0.156237 0.0746929
0.281239 0.156237 0.0764935
0.296864 0.15642 0.0789349
0.31249 0.15845 0.0822003
0.328115 0.162646 0.0864424
0.34374 0.168704 0.0918746
0.359365 0.176333 0.0987564
0.37499 0.185275 0.107362
0.390616 0.1953 0.118013
0.406241 0.206256 0.131151
0.421866 0.217975 0.14725
0.437491 0.230335 0.166155
0.453117 0.243244 0.184833
0.468742 0.256611 0.202976
0.484367 0.270344 0.220706
0.499992 0.284413 0.238056
0.515618 0.298741 0.255116
0.531243 0.313283 0.271931
0.546868 0.328008 0.288533
0.562493 0.342901 0.304967
0.578119 0.3579 0.321263
0.593744 0.373022 0.337453
0.609369 0.38822 0.353536
0.624994 0.403494 0.369543
0.64062 0.41883 0.385489
0.656245 0.434226 0.401373
0.67187 0.449653 0.417212
0.687495 0.46511 0.433005
0.70312 0.480598 0.448783
0.718746 0.496101 0.46453
0.734371 0.511635 0.480262
0.749996 0.527184 0.495964
0.765621 0.542748 0.511666
0.781247 0.558328 0.527352
0.796872 0.573907 0.543023
0.812497 0.589487 0.558679
0.828122 0.605081 0.574334
0.843748 0.620691 0.58999
0.859373 0.636301 0.605646
0.874998 0.651896 0.621286
0.890623 0.667506 0.636927
0.906249 0.683131 0.652567
0.921874 0.698741 0.668193
0.937499 0.714366 0.683833
0.953124 0.729976 0.699458
0.96875 0.745602 0.715099
0.984375 0.761227 0.730724
1 0.776837 0.746349
0.0649424 0.171862 0.0715648
0.0661326 0.171862 0.0715648
0.0678264 0.171862 0.0715648
0.0702983 0.171862 0.0715648
0.0742199 0.171862 0.0715648
0.0810254 0.171862 0.0715648
0.0937362 0.171862 0.0715648
0.109361 0.171862 0.0715648
0.124987 0.171862 0.0715648
0.140612 0.171862 0.0715648
0.156237 0.171862 0.0715648
0.171862 0.171862 0.0715648
0.187488 0.171862 0.0715953
0.203113 0.171862 0.0717327
0.218738 0.171862 0.0720378
0.234363 0.171862 0.0725719
0.249989 0.171862 0.0734264
0.265614 0.171862 0.0746929
0.281239 0.171862 0.0764935
0.296864 0.171862 0.0789349
0.31249 0.172045 0.0822003
0.328115 0.174075 0.0864424
0.34374 0.178271 0.0918746
0.359365 0.184329 0.0987564
0.37499 0.191959 0.107362
0.390616 0.2009 0.118013
0.406241 0.210925 0.131151
0.421866 0.221881 0.14725
0.437491 0.2336 0.166155
0.453117 0.24596 0.184833
0.468742 0.258869 0.202976
0.484367 0.272236 0.220706
0.499992 0.285969 0.238056
0.515618 0.300038 0.255116
0.531243 0.314366 0.271931
0.546868 0.328908 0.288533
0.562493 0.343633 0.304967
0.578119 0.358526 0.321263
0.593744 0.373526 0.337453
0.609369 0.388647 0.353536
0.624994 0.403845 0.369543
0.64062 0.41912 0.385489
0.656245 0.434455 0.401373
0.67187 0.449851 0.417212
0.687495 0.465278 0.433005
0.70312 0.480735 0.448783
0.718746 0.496223 0.46453
0.734371 0.511727 0.480262
0.749996 0.52726 0.495964
0.765621 0.542809 0.511666
0.781247 0.558373 0.527352
0.796872 0.573953 0.543023
0.812497 0.589532 0.558679
0.828122 0.605112 0.574334
0.843748 0.620706 0.58999
0.859373 0.636316 0.605646
0.874998 0.651926 0.621286
0.890623 0.667521 0.636927
0.906249 0.683131 0.652567
0.921874 0.698756 0.668193
0.937499 0.714366 0.683833
0.953124 0.729992 0.699458
0.96875 0.745602 0.715099
0.984375 0.761227 0.730724
1 0.776852 0.746349
0.0644083 0.187488 0.0715953
0.0659342 0.187488 0.0715953
0.0679789 0.187488 0.0715953
0.0708782 0.187488 0.0715953
0.0752117 0.187488 0.0715953
0.0820935 0.187488 0.0715953
0.0937667 0.187488 0.0715953
0.109361 0.187488 0.0715953
0.124987 0.187488 0.0715953
0.140612 0.187488 0.0715953
0.156237 0.187488 0.0715953
0.171862 0.187488 0.0715953
0.187488 0.187488 0.0715953
0.203113 0.187488 0.0717327
0.218738 0.187488 0.0720378
0.234363 0.187488 0.0725719
0.249989 0.187488 0.0734264
0.265614 0.187488 0.0746929
0.281239 0.187488 0.0764935
0.296864 0.187488 0.0789349
0.31249 0.187488 0.0822003
0.328115 0.187671 0.0864424
0.34374 0.1897 0.0918746
0.359365 0.193896 0.0987564
0.37499 0.199954 0.107362
0.390616 0.207584 0.118013
0.406241 0.216526 0.131151
0.421866 0.226551 0.14725
0.437491 0.237507 0.166155
0.453117 0.249226 0.184833
0.468742 0.261585 0.202976
0.484367 0.274495 0.220706
0.499992 0.287861 0.238056
0.515618 0.301595 0.255116
0.531243 0.315663 0.271931
0.546868 0.329992 0.288533
0.562493 0.344533 0.304967
0.578119 0.359258 0.321263
0.593744 0.374151 0.337453
0.609369 0.389151 0.353536
0.624994 0.404273 0.369543
0.64062 0.419471 0.385489
0.656245 0.434745 0.401373
0.67187 0.45008 0.417212
0.687495 0.465476 0.433005
0.70312 0.480903 0.448783
0.718746 0.496361 0.46453
0.734371 0.511849 0.480262
0.749996 0.527352 0.495964
0.765621 0.542885 0.511666
0.781247 0.558434 0.527352
0.796872 0.573999 0.543023
0.812497 0.589578 0.558679
0.828122 0.605158 0.574334
0.843748 0.620737 0.58999
0.859373 0.636332 0.605646
0.874998 0.651942 0.621286
0.890623 0.667552 0.636927
0.906249 0.683146 0.652567
0.921874 0.698756 0.668193
0.937499 0.714382 0.683833
0.953124 0.729992 0.699458
0.96875 0.745617 0.715099
0.984375 0.761227 0.730724
1 0.776852 0.746349
0.0640726 0.203113 0.0717327
0.0659495 0.203113 0.0717327
0.0684062 0.203113 0.0717327
0.0717479 0.203113 0.0717327
0.0764477 0.203113 0.0717327
0.0834058 0.203113 0.0717327
0.0941787 0.203113 0.0717327
0.109361 0.203113 0.0717327
0.124987 0.203113 0.0717327
0.140612 0.203113 0.0717327
0.156237 0.203113 0.0717327
0.171862 0.203113 0.0717327
0.187488 0.203113 0.0717327
0.203113 0.203113 0.0717327
0.218738 0.203113 0.0720378
0.234363 0.203113 0.0725719
0.249989 0.203113 0.0734264
0.265614 0.203113 0.0746929
0.281239 0.203113 0.0764935
0.296864 0.203113 0.0789349
0.31249 0.203113 0.0822003
0.328115 0.203113 0.0864424
0.34374 0.203296 0.0918746
0.359365 0.205325 0.0987564
0.37499 0.209522 0.107362
0.390616 0.215579 0.118013
0.406241 0.223209 0.131151
0.421866 0.232151 0.14725
0.437491 0.242176 0.166155
0.453117 0.253132 0.184833
0.468742 0.264851 0.202976
0.484367 0.277211 0.220706
0.499992 0.29012 0.238056
0.515618 0.303487 0.255116
0.531243 0.317235 0.271931
0.546868 0.331289 0.288533
0.562493 0.345617 0.304967
0.578119 0.360159 0.321263
0.593744 0.374884 0.337453
