src/ACES/PixelManager-v.2.0-RC6/ACES/ACEScct-to-ACES2Bt1886.cube
TITLE "Generated by Resolve"
LUT_3D_SIZE 9
0 0 0
0.0153353 0 0.00172427
0.0694743 0 0.00791943
0.25626 0 0.0301823
0.667048 0 0.0773022
1 0.287541 0.242344
1 0.550668 0.48333
1 0.822873 0.788083
1 0.99176 0.990265
0 0.0169833 0.00743114
0.0236973 0.0235294 1.5259e-05
0.0803082 0.036286 0
0.265888 0.0486763 0
0.672999 0 0.0541543
1 0.290959 0.241611
1 0.551263 0.483558
1 0.823026 0.78822
1 0.99176 0.990265
0 0.0756085 0.0330358
0 0.0842451 4.57771e-05
0.0998703 0.0991684 4.57771e-05
0.279942 0.132769 0
0.678538 0.136584 0
1 0.304067 0.238621
1 0.553643 0.484413
1 0.823636 0.788815
1 0.99176 0.99028
0 0.258793 0.112886
0 0.262974 0.103624
0.0496681 0.276295 0.000183108
0.300328 0.298283 0.000183108
0.670604 0.318578 0.000167849
1 0.368902 0.240574
1 0.563973 0.488182
1 0.826566 0.791714
1 0.991791 0.990311
0 0.586282 0.254078
0 0.587564 0.249714
0 0.592187 0.228717
0.115557 0.610819 0.000366217
0.616297 0.612253 0.000350958
1 0.555581 0.252338
1 0.617792 0.519341
1 0.839673 0.804974
1 0.991928 0.990448
0 0.893782 0.376776
0 0.894224 0.375311
0.000717174 0.896193 0.369039
0.000671397 0.905241 0.33666
0.172808 0.941802 0.000427253
0.89601 0.890654 0.000457771
1 0.7888 0.6486
1 0.88748 0.855314
1 0.992508 0.991043
0.623545 1 0.660456
0.623819 1 0.660456
0.624949 1 0.660471
0.629892 1 0.660471
0.651347 1 0.660166
0.738048 1 0.659144
1 1 0.559365
1 0.961715 0.93695
0.999924 0.994446 0.993042
0.941344 1 0.939315
0.94136 1 0.93933
0.94139 1 0.939345
0.941588 1 0.939406
0.942458 1 0.939681
0.946166 1 0.940826
0.960433 1 0.944976
0.999237 1 0.938674
0.999878 0.998108 0.99704
0.998871 0.999954 0.998764
0.998871 0.999954 0.998764
0.998871 0.999954 0.998764
0.998871 0.999954 0.998764
0.998886 0.999954 0.998779
0.998947 0.999954 0.99884
0.999222 0.999969 0.9991
1 1 1
1 1 1
0 0.00302129 0.00817884
0.0197604 1.5259e-05 0.016907
0.0734264 3.0518e-05 0.0361639
0.258076 0 0.0801556
0.666224 0.000228885 0.133608
1 0.286259 0.257389
1 0.552789 0.4878
1 0.823682 0.789242
1 0.99176 0.99028
1.5259e-05 0.0202182 0.0196689
0.0257267 0.0257267 0.0257267
0.0944839 0.0198215 0.0336767
0.273579 0.0180972 0.0709239
0.671992 0 0.124025
1 0.290074 0.256931
1 0.553384 0.488014
1 0.823835 0.789395
1 0.99176 0.99028
0 0.0776074 0.0517586
0.00846876 0.0861677 0.0484779
0.103578 0.100984 0.0245518
0.301259 0.109422 0.0296483
0.693324 0.057084 0.0665599
1 0.306767 0.256809
1 0.555779 0.488899
1 0.824445 0.789975
1 0.991775 0.99028
0 0.258366 0.133959
0 0.263355 0.128359
0.0218204 0.278676 0.080354
0.301396 0.297414 0.000122072
0.682307 0.30602 0.000259403
1 0.367559 0.254215
1 0.566064 0.492622
1 0.827268 0.792721
1 0.991806 0.990311
0.00047303 0.585824 0.267277
0 0.587121 0.26334
0 0.59176 0.245212
0 0.612345 0.000106813
0.61619 0.611185 0.000396735
1 0.555749 0.265263
1 0.619104 0.522683
1 0.840299 0.805905
1 0.991928 0.990448
0 0.893706 0.381796
0 0.894163 0.380346
0 0.896254 0.374853
0 0.905303 0.343496
0.154162 0.94313 0
0.896361 0.89073 0.000579843
1 0.789593 0.650919
1 0.887907 0.855985
1 0.992508 0.991043
0.624628 1 0.661891
0.624918 1 0.661891
0.626032 1 0.661906
0.630976 1 0.661906
0.652369 1 0.661646
0.738567 1 0.66041
1 1 0.56054
1 0.961761 0.937087
0.999924 0.994446 0.993057
0.941375 1 0.939391
0.94139 1 0.939391
0.941436 1 0.939406
0.941619 1 0.939467
0.942489 1 0.939742
0.946197 1 0.940887
0.960449 1 0.945022
0.999237 1 0.938674
0.999878 0.998108 0.99704
0.998871 0.999954 0.998764
0.998871 0.999954 0.998764
0.998871 0.999954 0.998764
0.998871 0.999954 0.998779
0.998886 0.999954 0.998779
0.998947 0.999954 0.99884
0.999222 0.999969 0.9991
1 1 1
1 1 1
0 0.0140078 0.0374914
0.0295262 0 0.0518502
0.0872969 6.10361e-05 0.0747234
0.266529 0.000137331 0.135393
0.665553 0 0.212055
1 0.282689 0.299123
1 0.554177 0.497185
1 0.826932 0.793881
1 0.991775 0.990311
0 0.0321965 0.0484016
0.0214237 0.0266575 0.0737316
0.101503 0.0212253 0.0887922
0.280415 0.0191348 0.135576
0.671214 0.000228885 0.20705
1 0.286625 0.298741
1 0.5552 0.497841
1 0.827085 0.794018
1 0.991791 0.990311
0 0.0873121 0.0849165
0.00773632 0.0937972 0.0914015
0.10518 0.10518 0.10518
0.325139 0.0727398 0.118532
0.692027 0.0628824 0.184283
1 0.303761 0.298665
1 0.559289 0.500496
1 0.827649 0.794553
1 0.991791 0.990311
0 0.260075 0.176654
0 0.2645 0.17499
0.035111 0.28098 0.159777
0.304204 0.296757 0.0878309
0.716289 0.265888 0.102815
1 0.367559 0.297902
1 0.574105 0.509087
1 0.830274 0.797086
1 0.991821 0.990341
0 0.584466 0.305348
0.00015259 0.585748 0.302312
0 0.590311 0.289097
0.0823224 0.609873 0.18793
0.615763 0.60798 0.0866712
1 0.556603 0.305776
1 0.624353 0.535454
1 0.842939 0.809766
1 0.991958 0.990478
0 0.893538 0.400137
0 0.894087 0.398947
0 0.896193 0.394003
0.000320439 0.905516 0.36788
0 0.948074 0.000411994
0.897551 0.890944 0.000442512
1 0.792706 0.659861
1 0.889555 0.858564
1 0.992523 0.991073
0.628885 1 0.66746
0.62916 1 0.66746
0.630274 1 0.667475
0.635157 1 0.667521
0.656321 1 0.667338
0.740673 1 0.665354
1 1 0.565087
1 0.961975 0.937606
0.999924 0.994461 0.993072
0.941527 1 0.93962
0.941543 1 0.939635
0.941573 1 0.939635
0.941772 1 0.939696
0.942626 1 0.939971
0.946334 1 0.941115
0.960525 1 0.94519
0.999252 1 0.93872
0.999878 0.998108 0.99704
0.998871 0.999954 0.998764
0.998871 0.999954 0.998764
0.998871 0.999954 0.998764
0.998871 0.999954 0.998764
0.998886 0.999954 0.998779
0.998947 0.999954 0.99884
0.999222 0.999969 0.9991
1 1 1
1 1 1
0 0.0557565 0.14786
0.0133364 4.57771e-05 0.178897
0.118151 9.15541e-05 0.197604
0.295979 0.000213626 0.253346
0.669902 0 0.340078
1 0.276188 0.391943
1 0.553704 0.522805
1 0.840101 0.812329
1 0.991867 0.990433
0 0.0736095 0.155367
0 0.0612192 0.181842
0.118425 0.0188907 0.217578
0.303944 0.0197757 0.261555
0.674754 0 0.339162
1 0.280293 0.391791
1 0.554757 0.523445
1 0.840253 0.812467
1 0.991867 0.990433
0 0.125414 0.183841
0 0.126497 0.198383
0.0785382 0.0960708 0.274708
0.328893 0.0759136 0.288258
0.692836 0.0641031 0.334173
1 0.298054 0.392218
1 0.558968 0.52604
1 0.840818 0.813001
1 0.991867 0.990448
0 0.277287 0.269657
0 0.280186 0.272602
0.0331121 0.29041 0.28307
0.298772 0.298772 0.298772
0.736141 0.234592 0.302266
1 0.366613 0.395911
1 0.577523 0.53782
1 0.84329 0.815351
1 0.991897 0.990478
0.00030518 0.58349 0.395712
0 0.584634 0.394339
0.000335698 0.588693 0.388144
0.115038 0.605478 0.348196
0.612268 0.601892 0.272999
1 0.562737 0.410925
1 0.646113 0.582559
1 0.853773 0.82536
1 0.992035 0.990616
0 0.893065 0.459541
0 0.893584 0.45864
0 0.895659 0.455009
0 0.904967 0.437766
0.184649 0.944793 0.30106
0.899977 0.890822 0.211337
1 0.805081 0.693553
1 0.896437 0.869139
1 0.992599 0.99118
0.635096 1 0.681819
0.635584 1 0.681987
0.637583 1 0.682658
0.646281 1 0.685634
0.671824 1 0.689784
0.749218 1 0.685313
1 1 0.583474
1 0.96286 0.939727
0.999924 0.994492 0.993133
0.942168 1 0.940658
0.942168 1 0.940658
0.942214 1 0.940673
0.942397 1 0.940734
0.943236 1 0.940993
0.946883 1 0.942092
0.9608 1 0.945937
0.999283 1 0.938994
0.999878 0.998123 0.997055
0.998871 0.999954 0.998779
0.998871 0.999954 0.998779
0.998871 0.999954 0.998779
0.998871 0.999954 0.998779
0.998886 0.999954 0.998795
0.998947 0.999954 0.99884
0.999222 0.999969 0.9991
1 1 1
1 1 1
0 0.17464 0.460044
0.000320439 0.161456 0.476692
0.0747082 0.000198367 0.542977
0.334417 0 0.559594
0.689906 0.00015259 0.590341
1 0.279637 0.563455
1 0.555764 0.587045
1 0.846555 0.828809
1 0.992203 0.990951
0.000137331 0.186847 0.461799
0.000183108 0.17644 0.47747
0.000411994 7.62951e-05 0.554437
0.33341 0 0.568734
0.692256 0.00062562 0.593072
1 0.283833 0.563653
1 0.556863 0.587655
1 0.846815 0.829084
1 0.992203 0.990951
0.000213626 0.226154 0.468711
0 0.221103 0.481498
0.0368048 0.182193 0.539773
0.325719 0.0649577 0.603052
0.700542 0.0602274 0.603067
1 0.301564 0.564996
1 0.561273 0.590097
1 0.847913 0.830182
1 0.992218 0.990967
0 0.340703 0.499138
0 0.340398 0.505379
0.000244144 0.33724 0.531685
0.248066 0.287022 0.646876
0.715908 0.233219 0.628763
1 0.36994 0.571954
1 0.580667 0.60119
1 0.852705 0.835035
1 0.992248 0.990997
0 0.595712 0.579248
0 0.596338 0.579919
0 0.598428 0.582223
0.113237 0.60621 0.591028
0.593805 0.593805 0.593805
1 0.580652 0.608377
1 0.664393 0.655512
1 0.872679 0.855436
1 0.99237 0.991119
0.000946059 0.892073 0.601709
0 0.892515 0.601343
0.000564584 0.894286 0.599863
0.000183108 0.902083 0.592798
0.295705 0.929793 0.557366
0.875029 0.870268 0.595834
1 0.841917 0.782788
1 0.91809 0.901442
1 0.992874 0.991623
0.64625 1 0.723507
0.646784 1 0.723674
0.64892 1 0.724392
0.658152 1 0.72755
0.696162 1 0.74107
0.781247 1 0.75317
0.999817 1 0.643229
1 0.96611 0.947402
0.999893 0.994644 0.993408
0.944503 1 0.94461
0.944518 1 0.944625
0.944579 1 0.944656
0.944869 1 0.944823
0.945663 1 0.945052
0.949065 1 0.945998
0.961959 1 0.948959
0.999298 1 0.940902
0.999878 0.998138 0.997116
0.998886 0.999954 0.998795
0.998886 0.999954 0.998795
0.998886 0.999954 0.998795
0.998886 0.999954 0.998795
0.998901 0.999954 0.99881
0.998962 0.999954 0.998856
0.999237 0.999969 0.999115
1 1 1
1 1 1
0 0.353429 0.94641
0 0.348089 0.954086
0 0.323339 0.986572
0.273625 0.28127 1
0.634043 0.246311 1
1 0.3402 0.880781
1 0.581643 0.714977
1 0.858167 0.861311
0.999969 0.99292 0.992142
0.00015259 0.358526 0.944808
0 0.35346 0.95227
0 0.329961 0.98407
0.271077 0.287572 1
0.632837 0.253773 1
1 0.343664 0.881056
1 0.582742 0.715465
1 0.858442 0.861555
0.999969 0.99292 0.992142
0.000320439 0.377234 0.939834
0.000244144 0.373129 0.946212
0.000381476 0.354101 0.97499
0.262425 0.312566 1
0.628305 0.283131 1
1 0.357092 0.882139
1 0.587137 0.717464
1 0.85951 0.862501
0.999969 0.992935 0.992142
0 0.443 0.925261
0 0.440726 0.930312
0 0.431357 0.95137
0.232517 0.402121 1
0.610651 0.378088 1
1 0.410559 0.886961
1 0.606577 0.726528
1 0.864149 0.866621
0.999969 0.992966 0.992187
0 0.613931 0.901213
0 0.613703 0.903441
0 0.613077 0.912734
0.00480659 0.609094 0.957794
0.556619 0.604501 0.966857
1 0.581949 0.902235
1 0.690364 0.76965
1 0.883253 0.883741
0.999954 0.993118 0.992325
0.000717174 0.889311 0.864469
0 0.889525 0.864698
0 0.890364 0.865614
0 0.893935 0.869551
0.292042 0.902815 0.881086
0.850431 0.850416 0.850416
1 0.87332 0.877455
1 0.934829 0.931197
0.999893 0.993713 0.992935
0.667369 1 0.819883
0.667811 1 0.819974
0.669596 1 0.820356
0.677394 1 0.822049
0.709651 1 0.829221
0.807919 1 0.849989
0.976822 0.976791 0.855406
1 0.973632 0.964309
0.999817 0.995178 0.994324
0.946303 1 0.951904
0.946319 1 0.951904
0.946395 1 0.951949
0.946685 1 0.952102
0.947997 1 0.952789
0.953368 1 0.955581
0.965667 1 0.958618
0.99939 1 0.947127
0.999863 0.998215 0.99736
0.998917 0.999969 0.998856
0.998917 0.999969 0.998871
0.998917 0.999969 0.998871
0.998932 0.999969 0.998871
0.998932 0.999969 0.998886
0.998993 0.999969 0.998932
0.999268 0.999969 0.999176
1 1 1
1 1 1
0.506691 0.630213 1
0.507652 0.630182 1
0.511467 0.630121 1
0.526711 0.628962 1
0.588403 0.624323 1
0.795041 0.643839 1
1 0.707759 0.932906
1 0.894133 0.921889
0.999924 0.993469 0.993484
0.507134 0.631006 1
0.508095 0.630991 1
0.511894 0.630915 1
0.527169 0.629831 1
0.588663 0.625116 1
0.795132 0.644678 1
1 0.708461 0.933043
1 0.894331 0.922026
0.999924 0.993469 0.993484
0.508217 0.633722 1
0.509438 0.633875 1
0.513619 0.634089 1
0.529076 0.633249 1
0.589715 0.62829 1
0.795499 0.648005 1
1 0.711254 0.933623
1 0.895064 0.922515
0.999924 0.993469 0.993484
0.51281 0.645289 1
0.514015 0.645457 1
0.518807 0.646128 1
0.537453 0.647898 1
0.59588 0.643275 1
0.797299 0.662562 1
1 0.723415 0.93611
1 0.898283 0.924666
0.999924 0.9935 0.993515
0.534615 0.692592 1
0.53576 0.69276 1
0.540291 0.693462 1
0.559838 0.696666 1
0.630396 0.707286 1
0.807568 0.722057 1
1 0.772686 0.946395
1 0.911284 0.93341
0.999908 0.993637 0.993637
0.619776 0.829526 1
0.620615 0.829633 1
0.623941 0.830091 1
0.638407 0.832135 1
0.696864 0.841642 1
0.846601 0.867918 1
1 0.882063 0.970489
1 0.94638 0.957504
0.999863 0.994186 0.994125
0.66566 1 0.984771
0.665934 1 0.984771
0.667018 1 0.984802
0.671794 1 0.984939
0.692088 1 0.985534
0.764797 0.999039 0.986007
0.963226 0.963226 0.963226
1 0.977447 0.977905
0.999756 0.995895 0.995682
0.948943 1 0.968185
0.948959 1 0.9682
0.949004 1 0.968215
0.949248 1 0.968292
0.950301 1 0.968627
0.954696 1 0.970031
0.968124 1 0.973358
0.996612 0.996887 0.973693
0.999817 0.998489 0.998047
0.999054 0.999969 0.9991
0.999054 0.999969 0.9991
0.999054 0.999969 0.9991
0.999054 0.999969 0.9991
0.999069 0.999969 0.999115
0.99913 0.999969 0.999161
0.99939 0.999969 0.99939
1 1 1
1 1 1
0.815747 0.863401 1
0.815946 0.863493 1
0.816754 0.863905 1
0.820294 0.86566 1
0.830839 0.86981 1
0.859953 0.877028 1
0.944198 0.907271 1
1 0.955337 0.986084
0.999847 0.995102 0.996078
0.815854 0.863508 1
0.816052 0.863615 1
0.816861 0.864012 1
0.820401 0.865766 1
0.831006 0.869963 1
0.860075 0.877165 1
0.944228 0.907362 1
1 0.955367 0.986084
0.999832 0.995102 0.996078
0.816266 0.863951 1
0.816464 0.864042 1
0.817273 0.864454 1
0.820813 0.866209 1
0.831647 0.870588 1
0.860548 0.877714 1
0.944366 0.907744 1
1 0.955489 0.98613
0.999847 0.995102 0.996078
0.818128 0.865888 1
0.818326 0.865995 1
0.819104 0.866377 1
0.822599 0.868116 1
0.834363 0.873228 1
0.86276 0.880247 1
0.944976 0.909407 1
1 0.956024 0.986282
0.999832 0.995117 0.996094
0.826246 0.874327 1
0.826429 0.874403 1
0.827161 0.874769 1
0.830442 0.876356 1
0.844495 0.883299 1
0.872343 0.891051 1
0.94754 0.916365 1
1 0.958343 0.986969
0.999832 0.995209 0.996155
0.856519 0.904555 1
0.856657 0.904616 1
0.857221 0.90486 1
0.859678 0.905943 1
0.870237 0.910643 1
0.904005 0.925399 1
0.9561 0.938918 1
1 0.966369 0.98938
0.999817 0.995575 0.996414
0.916152 0.960876 1
0.916213 0.960891 1
0.916411 0.960937 1
0.917296 0.961166 1
0.921172 0.962173 1
0.935973 0.966033 1
0.968063 0.972839 1
1 0.980545 0.99379
0.999771 0.99678 0.997299
0.950637 1 0.996979
0.950652 1 0.996979
0.950668 1 0.996979
0.950805 1 0.996979
0.951354 1 0.997024
0.953765 1 0.997177
0.962432 1 0.997559
0.994308 0.994293 0.994308
0.999786 0.998871 0.998886
0.999588 0.999985 0.999725
0.999573 0.999985 0.999725
0.999588 0.999985 0.999725
0.999588 0.999985 0.999725
0.999603 0.999985 0.999725
0.999649 0.999985 0.999771
0.999893 1 0.999924
1 1 1
1 1 1
0.978607 0.984405 1
0.978622 0.984421 1
0.978637 0.984421 1
0.978714 0.984466 1
0.97908 0.984634 1
0.980636 0.985351 1
0.984512 0.986648 1
0.994247 0.990631 1
0.999863 0.998596 0.999359
0.978607 0.984421 1
0.978622 0.984421 1
0.978637 0.984421 1
0.978714 0.984466 1
0.97908 0.984634 1
0.980636 0.985351 1
0.984512 0.986664 1
0.994247 0.990631 1
0.999863 0.998596 0.999359
0.978622 0.984421 1
0.978622 0.984421 1
0.978653 0.984436 1
0.978729 0.984466 1
0.979095 0.984634 1
0.980636 0.985367 1
0.984527 0.986664 1
0.994247 0.990631 1
0.999863 0.998596 0.999359
0.978668 0.984482 1
0.978683 0.984482 1
0.978698 0.984482 1
0.978775 0.984527 1
0.979141 0.984695 1
0.980682 0.985412 1
0.984573 0.986725 1
0.994263 0.990662 1
0.999863 0.998596 0.999359
0.978897 0.984695 1
0.978897 0.984695 1
0.978912 0.98471 1
0.978988 0.984741 1
0.979355 0.984909 1
0.980865 0.985611 1
0.984756 0.986938 1
0.994293 0.990784 1
0.999863 0.998611 0.999374
0.979843 0.985656 1
0.979843 0.985656 1
0.979858 0.985656 1
0.979934 0.985687 1
0.98027 0.98584 1
0.981674 0.986465 1
0.98555 0.987869 1
0.994461 0.991333 1
0.999878 0.998703 0.999405
0.983291 0.989029 1
0.983291 0.989029 1
0.983307 0.989029 1
0.983352 0.989044 1
0.983597 0.989136 1
0.984604 0.989532 1
0.988266 0.990997 1
0.995102 0.993301 0.999985
0.999893 0.999069 0.999557
0.990936 0.995804 1
0.990936 0.995804 1
0.990951 0.995804 1
0.990967 0.995804 1
0.991058 0.995819 1
0.991424 0.995911 1
0.99292 0.996262 1
0.996719 0.997208 0.999847
1 1 1
1 1 1
1 1 1
1 1 1
1 1 1
1 1 1
1 1 1
1 1 1
1 1 1
1 1 1
