src/ACES/PixelManager-v.2.0-RC6/ACES/ACEScct_ACES2-Comp.cube
TITLE "Generated by Resolve"
LUT_3D_SIZE 9
0 0 0
0.124987 0.069688 0.07187
0.249989 0.0722667 0.0734264
0.37499 0.125948 0.107362
0.499992 0.270008 0.238056
0.624994 0.400336 0.369543
0.749996 0.526497 0.495964
0.874998 0.651743 0.621286
1 0.776806 0.746349
0.0673686 0.124987 0.07187
0.124987 0.124987 0.07187
0.249989 0.124987 0.0734264
0.37499 0.173053 0.107362
0.499992 0.28159 0.238056
0.624994 0.402869 0.369543
0.749996 0.527047 0.495964
0.874998 0.651865 0.621286
1 0.776837 0.746349
0.065095 0.249989 0.0734264
0.124987 0.249989 0.0734264
0.249989 0.249989 0.0734264
0.37499 0.249989 0.107362
0.499992 0.300008 0.238056
0.624994 0.407034 0.369543
0.749996 0.527977 0.495964
0.874998 0.652079 0.621286
1 0.776883 0.746349
0.105577 0.37499 0.107362
0.16286 0.37499 0.107362
0.249989 0.37499 0.107362
0.37499 0.37499 0.107362
0.499992 0.37499 0.238056
0.624994 0.42501 0.369543
0.749996 0.532036 0.495964
0.874998 0.652979 0.621286
1 0.777081 0.746349
0.248493 0.499992 0.238056
0.265522 0.499992 0.238056
0.290379 0.499992 0.238056
0.37499 0.499992 0.238056
0.499992 0.499992 0.238056
0.624994 0.499992 0.369543
0.749996 0.550011 0.495964
0.874998 0.657038 0.621286
1 0.777981 0.746349
0.381491 0.624994 0.369543
0.385183 0.624994 0.369543
0.39115 0.624994 0.369543
0.415381 0.624994 0.369543
0.499992 0.624994 0.369543
0.624994 0.624994 0.369543
0.749996 0.624994 0.495964
0.874998 0.675013 0.621286
1 0.78204 0.746349
0.508186 0.749996 0.495964
0.508995 0.749996 0.495964
0.510338 0.749996 0.495964
0.516152 0.749996 0.495964
0.540383 0.749996 0.495964
0.624994 0.749996 0.495964
0.749996 0.749996 0.495964
0.874998 0.749996 0.621286
1 0.800015 0.746349
0.633555 0.874998 0.621286
0.633738 0.874998 0.621286
0.634028 0.874998 0.621286
0.63534 0.874998 0.621286
0.641154 0.874998 0.621286
0.665385 0.874998 0.621286
0.749996 0.874998 0.621286
0.874998 0.874998 0.621286
1 0.874998 0.746349
0.758648 1 0.746349
0.758679 1 0.746349
0.75874 1 0.746349
0.75903 1 0.746349
0.760342 1 0.746349
0.766155 1 0.746349
0.790387 1 0.746349
0.874998 1 0.746349
1 1 0.746349
0.0673686 0.069688 0.124987
0.124987 0.069688 0.124987
0.249989 0.0722667 0.124987
0.37499 0.125948 0.149233
0.499992 0.270008 0.252338
0.624994 0.400336 0.372671
0.749996 0.526497 0.496651
0.874998 0.651743 0.621439
1 0.776806 0.74638
0.0673686 0.124987 0.124987
0.124987 0.124987 0.124987
0.249989 0.124987 0.124987
0.37499 0.173053 0.149233
0.499992 0.28159 0.252338
0.624994 0.402869 0.372671
0.749996 0.527047 0.496651
0.874998 0.651865 0.621439
1 0.776837 0.74638
0.065095 0.249989 0.124987
0.124987 0.249989 0.124987
0.249989 0.249989 0.124987
0.37499 0.249989 0.149233
0.499992 0.300008 0.252338
0.624994 0.407034 0.372671
0.749996 0.527977 0.496651
0.874998 0.652079 0.621439
1 0.776883 0.74638
0.105577 0.37499 0.149233
0.16286 0.37499 0.149233
0.249989 0.37499 0.149233
0.37499 0.37499 0.149233
0.499992 0.37499 0.252338
0.624994 0.42501 0.372671
0.749996 0.532036 0.496651
0.874998 0.652979 0.621439
1 0.777081 0.74638
0.248493 0.499992 0.252338
0.265522 0.499992 0.252338
0.290379 0.499992 0.252338
0.37499 0.499992 0.252338
0.499992 0.499992 0.252338
0.624994 0.499992 0.372671
0.749996 0.550011 0.496651
0.874998 0.657038 0.621439
1 0.777981 0.74638
0.381491 0.624994 0.372671
0.385183 0.624994 0.372671
0.39115 0.624994 0.372671
0.415381 0.624994 0.372671
0.499992 0.624994 0.372671
0.624994 0.624994 0.372671
0.749996 0.624994 0.496651
0.874998 0.675013 0.621439
1 0.78204 0.74638
0.508186 0.749996 0.496651
0.508995 0.749996 0.496651
0.510338 0.749996 0.496651
0.516152 0.749996 0.496651
0.540383 0.749996 0.496651
0.624994 0.749996 0.496651
0.749996 0.749996 0.496651
0.874998 0.749996 0.621439
1 0.800015 0.74638
0.633555 0.874998 0.621439
0.633738 0.874998 0.621439
0.634028 0.874998 0.621439
0.63534 0.874998 0.621439
0.641154 0.874998 0.621439
0.665385 0.874998 0.621439
0.749996 0.874998 0.621439
0.874998 0.874998 0.621439
1 0.874998 0.74638
0.758648 1 0.74638
0.758679 1 0.74638
0.75874 1 0.74638
0.75903 1 0.74638
0.760342 1 0.74638
0.766155 1 0.74638
0.790387 1 0.74638
0.874998 1 0.74638
1 1 0.74638
0.065095 0.0722667 0.249989
0.124987 0.0722667 0.249989
0.249989 0.0722667 0.249989
0.37499 0.125948 0.249989
0.499992 0.270008 0.276692
0.624994 0.400336 0.377905
0.749996 0.526497 0.497795
0.874998 0.651743 0.621683
1 0.776806 0.746441
0.065095 0.124987 0.249989
0.124987 0.124987 0.249989
0.249989 0.124987 0.249989
0.37499 0.173053 0.249989
0.499992 0.28159 0.276692
0.624994 0.402869 0.377905
0.749996 0.527047 0.497795
0.874998 0.651865 0.621683
1 0.776837 0.746441
0.065095 0.249989 0.249989
0.124987 0.249989 0.249989
0.249989 0.249989 0.249989
0.37499 0.249989 0.249989
0.499992 0.300008 0.276692
0.624994 0.407034 0.377905
0.749996 0.527977 0.497795
0.874998 0.652079 0.621683
1 0.776883 0.746441
0.105577 0.37499 0.249989
0.16286 0.37499 0.249989
0.249989 0.37499 0.249989
0.37499 0.37499 0.249989
0.499992 0.37499 0.276692
0.624994 0.42501 0.377905
0.749996 0.532036 0.497795
0.874998 0.652979 0.621683
1 0.777081 0.746441
0.248493 0.499992 0.276692
0.265522 0.499992 0.276692
0.290379 0.499992 0.276692
0.37499 0.499992 0.276692
0.499992 0.499992 0.276692
0.624994 0.499992 0.377905
0.749996 0.550011 0.497795
0.874998 0.657038 0.621683
1 0.777981 0.746441
0.381491 0.624994 0.377905
0.385183 0.624994 0.377905
0.39115 0.624994 0.377905
0.415381 0.624994 0.377905
0.499992 0.624994 0.377905
0.624994 0.624994 0.377905
0.749996 0.624994 0.497795
0.874998 0.675013 0.621683
1 0.78204 0.746441
0.508186 0.749996 0.497795
0.508995 0.749996 0.497795
0.510338 0.749996 0.497795
0.516152 0.749996 0.497795
0.540383 0.749996 0.497795
0.624994 0.749996 0.497795
0.749996 0.749996 0.497795
0.874998 0.749996 0.621683
1 0.800015 0.746441
0.633555 0.874998 0.621683
0.633738 0.874998 0.621683
0.634028 0.874998 0.621683
0.63534 0.874998 0.621683
0.641154 0.874998 0.621683
0.665385 0.874998 0.621683
0.749996 0.874998 0.621683
0.874998 0.874998 0.621683
1 0.874998 0.746441
0.758648 1 0.746441
0.758679 1 0.746441
0.75874 1 0.746441
0.75903 1 0.746441
0.760342 1 0.746441
0.766155 1 0.746441
0.790387 1 0.746441
0.874998 1 0.746441
1 1 0.746441
0.105577 0.125948 0.37499
0.16286 0.125948 0.37499
0.249989 0.125948 0.37499
0.37499 0.125948 0.37499
0.499992 0.270008 0.37499
0.624994 0.400336 0.401694
0.749996 0.526497 0.502907
0.874998 0.651743 0.622797
1 0.776806 0.746685
0.105577 0.173053 0.37499
0.16286 0.173053 0.37499
0.249989 0.173053 0.37499
0.37499 0.173053 0.37499
0.499992 0.28159 0.37499
0.624994 0.402869 0.401694
0.749996 0.527047 0.502907
0.874998 0.651865 0.622797
1 0.776837 0.746685
0.105577 0.249989 0.37499
0.16286 0.249989 0.37499
0.249989 0.249989 0.37499
0.37499 0.249989 0.37499
0.499992 0.300008 0.37499
0.624994 0.407034 0.401694
0.749996 0.527977 0.502907
0.874998 0.652079 0.622797
1 0.776883 0.746685
0.105577 0.37499 0.37499
0.16286 0.37499 0.37499
0.249989 0.37499 0.37499
0.37499 0.37499 0.37499
0.499992 0.37499 0.37499
0.624994 0.42501 0.401694
0.749996 0.532036 0.502907
0.874998 0.652979 0.622797
1 0.777081 0.746685
0.248493 0.499992 0.37499
0.265522 0.499992 0.37499
0.290379 0.499992 0.37499
0.37499 0.499992 0.37499
0.499992 0.499992 0.37499
0.624994 0.499992 0.401694
0.749996 0.550011 0.502907
0.874998 0.657038 0.622797
1 0.777981 0.746685
0.381491 0.624994 0.401694
0.385183 0.624994 0.401694
0.39115 0.624994 0.401694
0.415381 0.624994 0.401694
0.499992 0.624994 0.401694
0.624994 0.624994 0.401694
0.749996 0.624994 0.502907
0.874998 0.675013 0.622797
1 0.78204 0.746685
0.508186 0.749996 0.502907
0.508995 0.749996 0.502907
0.510338 0.749996 0.502907
0.516152 0.749996 0.502907
0.540383 0.749996 0.502907
0.624994 0.749996 0.502907
0.749996 0.749996 0.502907
0.874998 0.749996 0.622797
1 0.800015 0.746685
0.633555 0.874998 0.622797
0.633738 0.874998 0.622797
0.634028 0.874998 0.622797
0.63534 0.874998 0.622797
0.641154 0.874998 0.622797
0.665385 0.874998 0.622797
0.749996 0.874998 0.622797
0.874998 0.874998 0.622797
1 0.874998 0.746685
0.758648 1 0.746685
0.758679 1 0.746685
0.75874 1 0.746685
0.75903 1 0.746685
0.760342 1 0.746685
0.766155 1 0.746685
0.790387 1 0.746685
0.874998 1 0.746685
1 1 0.746685
0.248493 0.270008 0.499992
0.265522 0.270008 0.499992
0.290379 0.270008 0.499992
0.37499 0.270008 0.499992
0.499992 0.270008 0.499992
0.624994 0.400336 0.499992
0.749996 0.526497 0.526696
0.874998 0.651743 0.627909
1 0.776806 0.747799
0.248493 0.28159 0.499992
0.265522 0.28159 0.499992
0.290379 0.28159 0.499992
0.37499 0.28159 0.499992
0.499992 0.28159 0.499992
0.624994 0.402869 0.499992
0.749996 0.527047 0.526696
0.874998 0.651865 0.627909
1 0.776837 0.747799
0.248493 0.300008 0.499992
0.265522 0.300008 0.499992
0.290379 0.300008 0.499992
0.37499 0.300008 0.499992
0.499992 0.300008 0.499992
0.624994 0.407034 0.499992
0.749996 0.527977 0.526696
0.874998 0.652079 0.627909
1 0.776883 0.747799
0.248493 0.37499 0.499992
0.265522 0.37499 0.499992
0.290379 0.37499 0.499992
0.37499 0.37499 0.499992
0.499992 0.37499 0.499992
0.624994 0.42501 0.499992
0.749996 0.532036 0.526696
0.874998 0.652979 0.627909
1 0.777081 0.747799
0.248493 0.499992 0.499992
0.265522 0.499992 0.499992
0.290379 0.499992 0.499992
0.37499 0.499992 0.499992
0.499992 0.499992 0.499992
0.624994 0.499992 0.499992
0.749996 0.550011 0.526696
0.874998 0.657038 0.627909
1 0.777981 0.747799
0.381491 0.624994 0.499992
0.385183 0.624994 0.499992
0.39115 0.624994 0.499992
0.415381 0.624994 0.499992
0.499992 0.624994 0.499992
0.624994 0.624994 0.499992
0.749996 0.624994 0.526696
0.874998 0.675013 0.627909
1 0.78204 0.747799
0.508186 0.749996 0.526696
0.508995 0.749996 0.526696
0.510338 0.749996 0.526696
0.516152 0.749996 0.526696
0.540383 0.749996 0.526696
0.624994 0.749996 0.526696
0.749996 0.749996 0.526696
0.874998 0.749996 0.627909
1 0.800015 0.747799
0.633555 0.874998 0.627909
0.633738 0.874998 0.627909
0.634028 0.874998 0.627909
0.63534 0.874998 0.627909
0.641154 0.874998 0.627909
0.665385 0.874998 0.627909
0.749996 0.874998 0.627909
0.874998 0.874998 0.627909
1 0.874998 0.747799
0.758648 1 0.747799
0.758679 1 0.747799
0.75874 1 0.747799
0.75903 1 0.747799
0.760342 1 0.747799
0.766155 1 0.747799
0.790387 1 0.747799
0.874998 1 0.747799
1 1 0.747799
0.381491 0.400336 0.624994
0.385183 0.400336 0.624994
0.39115 0.400336 0.624994
0.415381 0.400336 0.624994
0.499992 0.400336 0.624994
0.624994 0.400336 0.624994
0.749996 0.526497 0.624994
0.874998 0.651743 0.651698
1 0.776806 0.752911
0.381491 0.402869 0.624994
0.385183 0.402869 0.624994
0.39115 0.402869 0.624994
0.415381 0.402869 0.624994
0.499992 0.402869 0.624994
0.624994 0.402869 0.624994
0.749996 0.527047 0.624994
0.874998 0.651865 0.651698
1 0.776837 0.752911
0.381491 0.407034 0.624994
0.385183 0.407034 0.624994
0.39115 0.407034 0.624994
0.415381 0.407034 0.624994
0.499992 0.407034 0.624994
0.624994 0.407034 0.624994
0.749996 0.527977 0.624994
0.874998 0.652079 0.651698
1 0.776883 0.752911
0.381491 0.42501 0.624994
0.385183 0.42501 0.624994
0.39115 0.42501 0.624994
0.415381 0.42501 0.624994
0.499992 0.42501 0.624994
0.624994 0.42501 0.624994
0.749996 0.532036 0.624994
0.874998 0.652979 0.651698
1 0.777081 0.752911
0.381491 0.499992 0.624994
0.385183 0.499992 0.624994
0.39115 0.499992 0.624994
0.415381 0.499992 0.624994
0.499992 0.499992 0.624994
0.624994 0.499992 0.624994
0.749996 0.550011 0.624994
0.874998 0.657038 0.651698
1 0.777981 0.752911
0.381491 0.624994 0.624994
0.385183 0.624994 0.624994
0.39115 0.624994 0.624994
0.415381 0.624994 0.624994
0.499992 0.624994 0.624994
0.624994 0.624994 0.624994
0.749996 0.624994 0.624994
0.874998 0.675013 0.651698
1 0.78204 0.752911
0.508186 0.749996 0.624994
0.508995 0.749996 0.624994
0.510338 0.749996 0.624994
0.516152 0.749996 0.624994
0.540383 0.749996 0.624994
0.624994 0.749996 0.624994
0.749996 0.749996 0.624994
0.874998 0.749996 0.651698
1 0.800015 0.752911
0.633555 0.874998 0.651698
0.633738 0.874998 0.651698
0.634028 0.874998 0.651698
0.63534 0.874998 0.651698
0.641154 0.874998 0.651698
0.665385 0.874998 0.651698
0.749996 0.874998 0.651698
0.874998 0.874998 0.651698
1 0.874998 0.752911
0.758648 1 0.752911
0.758679 1 0.752911
0.75874 1 0.752911
0.75903 1 0.752911
0.760342 1 0.752911
0.766155 1 0.752911
0.790387 1 0.752911
0.874998 1 0.752911
1 1 0.752911
0.508186 0.526497 0.749996
0.508995 0.526497 0.749996
0.510338 0.526497 0.749996
0.516152 0.526497 0.749996
0.540383 0.526497 0.749996
0.624994 0.526497 0.749996
0.749996 0.526497 0.749996
0.874998 0.651743 0.749996
1 0.776806 0.776699
0.508186 0.527047 0.749996
0.508995 0.527047 0.749996
0.510338 0.527047 0.749996
0.516152 0.527047 0.749996
0.540383 0.527047 0.749996
0.624994 0.527047 0.749996
0.749996 0.527047 0.749996
0.874998 0.651865 0.749996
1 0.776837 0.776699
0.508186 0.527977 0.749996
0.508995 0.527977 0.749996
0.510338 0.527977 0.749996
0.516152 0.527977 0.749996
0.540383 0.527977 0.749996
0.624994 0.527977 0.749996
0.749996 0.527977 0.749996
0.874998 0.652079 0.749996
1 0.776883 0.776699
0.508186 0.532036 0.749996
0.508995 0.532036 0.749996
0.510338 0.532036 0.749996
0.516152 0.532036 0.749996
0.540383 0.532036 0.749996
0.624994 0.532036 0.749996
0.749996 0.532036 0.749996
0.874998 0.652979 0.749996
1 0.777081 0.776699
0.508186 0.550011 0.749996
0.508995 0.550011 0.749996
0.510338 0.550011 0.749996
0.516152 0.550011 0.749996
0.540383 0.550011 0.749996
0.624994 0.550011 0.749996
0.749996 0.550011 0.749996
0.874998 0.657038 0.749996
1 0.777981 0.776699
0.508186 0.624994 0.749996
0.508995 0.624994 0.749996
0.510338 0.624994 0.749996
0.516152 0.624994 0.749996
0.540383 0.624994 0.749996
0.624994 0.624994 0.749996
0.749996 0.624994 0.749996
0.874998 0.675013 0.749996
1 0.78204 0.776699
0.508186 0.749996 0.749996
0.508995 0.749996 0.749996
0.510338 0.749996 0.749996
0.516152 0.749996 0.749996
0.540383 0.749996 0.749996
0.624994 0.749996 0.749996
0.749996 0.749996 0.749996
0.874998 0.749996 0.749996
1 0.800015 0.776699
0.633555 0.874998 0.749996
0.633738 0.874998 0.749996
0.634028 0.874998 0.749996
0.63534 0.874998 0.749996
0.641154 0.874998 0.749996
0.665385 0.874998 0.749996
0.749996 0.874998 0.749996
0.874998 0.874998 0.749996
1 0.874998 0.776699
0.758648 1 0.776699
0.758679 1 0.776699
0.75874 1 0.776699
0.75903 1 0.776699
0.760342 1 0.776699
0.766155 1 0.776699
0.790387 1 0.776699
0.874998 1 0.776699
1 1 0.776699
0.633555 0.651743 0.874998
0.633738 0.651743 0.874998
0.634028 0.651743 0.874998
0.63534 0.651743 0.874998
0.641154 0.651743 0.874998
0.665385 0.651743 0.874998
0.749996 0.651743 0.874998
0.874998 0.651743 0.874998
1 0.776806 0.874998
0.633555 0.651865 0.874998
0.633738 0.651865 0.874998
0.634028 0.651865 0.874998
0.63534 0.651865 0.874998
0.641154 0.651865 0.874998
0.665385 0.651865 0.874998
0.749996 0.651865 0.874998
0.874998 0.651865 0.874998
1 0.776837 0.874998
0.633555 0.652079 0.874998
0.633738 0.652079 0.874998
0.634028 0.652079 0.874998
0.63534 0.652079 0.874998
0.641154 0.652079 0.874998
0.665385 0.652079 0.874998
0.749996 0.652079 0.874998
0.874998 0.652079 0.874998
1 0.776883 0.874998
0.633555 0.652979 0.874998
0.633738 0.652979 0.874998
0.634028 0.652979 0.874998
0.63534 0.652979 0.874998
0.641154 0.652979 0.874998
0.665385 0.652979 0.874998
0.749996 0.652979 0.874998
0.874998 0.652979 0.874998
1 0.777081 0.874998
0.633555 0.657038 0.874998
0.633738 0.657038 0.874998
0.634028 0.657038 0.874998
0.63534 0.657038 0.874998
0.641154 0.657038 0.874998
0.665385 0.657038 0.874998
0.749996 0.657038 0.874998
0.874998 0.657038 0.874998
1 0.777981 0.874998
0.633555 0.675013 0.874998
0.633738 0.675013 0.874998
0.634028 0.675013 0.874998
0.63534 0.675013 0.874998
0.641154 0.675013 0.874998
0.665385 0.675013 0.874998
0.749996 0.675013 0.874998
0.874998 0.675013 0.874998
1 0.78204 0.874998
0.633555 0.749996 0.874998
0.633738 0.749996 0.874998
0.634028 0.749996 0.874998
0.63534 0.749996 0.874998
0.641154 0.749996 0.874998
0.665385 0.749996 0.874998
0.749996 0.749996 0.874998
0.874998 0.749996 0.874998
1 0.800015 0.874998
0.633555 0.874998 0.874998
0.633738 0.874998 0.874998
0.634028 0.874998 0.874998
0.63534 0.874998 0.874998
0.641154 0.874998 0.874998
0.665385 0.874998 0.874998
0.749996 0.874998 0.874998
0.874998 0.874998 0.874998
1 0.874998 0.874998
0.758648 1 0.874998
0.758679 1 0.874998
0.75874 1 0.874998
0.75903 1 0.874998
0.760342 1 0.874998
0.766155 1 0.874998
0.790387 1 0.874998
0.874998 1 0.874998
1 1 0.874998
0.758648 0.776806 1
0.758679 0.776806 1
0.75874 0.776806 1
0.75903 0.776806 1
0.760342 0.776806 1
0.766155 0.776806 1
0.790387 0.776806 1
0.874998 0.776806 1
1 0.776806 1
0.758648 0.776837 1
0.758679 0.776837 1
0.75874 0.776837 1
0.75903 0.776837 1
0.760342 0.776837 1
0.766155 0.776837 1
0.790387 0.776837 1
0.874998 0.776837 1
1 0.776837 1
0.758648 0.776883 1
0.758679 0.776883 1
0.75874 0.776883 1
0.75903 0.776883 1
0.760342 0.776883 1
0.766155 0.776883 1
0.790387 0.776883 1
0.874998 0.776883 1
1 0.776883 1
0.758648 0.777081 1
0.758679 0.777081 1
0.75874 0.777081 1
0.75903 0.777081 1
0.760342 0.777081 1
0.766155 0.777081 1
0.790387 0.777081 1
0.874998 0.777081 1
1 0.777081 1
0.758648 0.777981 1
0.758679 0.777981 1
0.75874 0.777981 1
0.75903 0.777981 1
0.760342 0.777981 1
0.766155 0.777981 1
0.790387 0.777981 1
0.874998 0.777981 1
1 0.777981 1
0.758648 0.78204 1
0.758679 0.78204 1
0.75874 0.78204 1
0.75903 0.78204 1
0.760342 0.78204 1
0.766155 0.78204 1
0.790387 0.78204 1
0.874998 0.78204 1
1 0.78204 1
0.758648 0.800015 1
0.758679 0.800015 1
0.75874 0.800015 1
0.75903 0.800015 1
0.760342 0.800015 1
0.766155 0.800015 1
0.790387 0.800015 1
0.874998 0.800015 1
1 0.800015 1
0.758648 0.874998 1
0.758679 0.874998 1
0.75874 0.874998 1
0.75903 0.874998 1
0.760342 0.874998 1
0.766155 0.874998 1
0.790387 0.874998 1
0.874998 0.874998 1
1 0.874998 1
0.758648 1 1
0.758679 1 1
0.75874 1 1
0.75903 1 1
0.760342 1 1
0.766155 1 1
0.790387 1 1
0.874998 1 1
1 1 1
