src/ACES/PixelManager-v.2.0-RC6/ACES/ACEScct-to-ACES2Rec2100.cube
TITLE "Generated by Resolve"
LUT_3D_SIZE 5
0 0 0
0.0760662 0.0091249 0
0.418784 0.106218 3.0518e-05
0.751385 0.337774 0.000106813
0.751827 0.725383 0.712474
0.00579843 0.0970321 0
0.117754 0.117845 1.5259e-05
0.423224 0.190112 1.5259e-05
0.751141 0.350622 0
0.751827 0.725414 0.712505
6.10361e-05 0.433021 0
0.16611 0.434409 0
0.443153 0.443214 3.0518e-05
0.749187 0.462867 0.000122072
0.751827 0.725856 0.713008
0.286259 0.731777 0
0.303593 0.731701 6.10361e-05
0.439612 0.73048 0.000106813
0.71017 0.710903 0
0.751827 0.732998 0.72105
0.74078 0.751827 0.734203
0.740764 0.751827 0.734188
0.74081 0.751827 0.734218
0.741634 0.751827 0.734493
0.751415 0.751827 0.732586
0 0.0037995 0.0521553
0.0932631 0.00868238 0.0928206
0.420005 0.0999313 0.185412
0.751827 0.297139 0.000106813
0.751827 0.725643 0.712932
0 0.108019 0.108186
0.12491 0.12491 0.12491
0.426413 0.176562 0.174533
0.751827 0.315908 4.57771e-05
0.751827 0.725673 0.712963
0.000106813 0.433387 0.175998
0.151904 0.435187 0.163394
0.443366 0.443351 0.157702
0.74992 0.466728 0.168444
0.751827 0.726116 0.713466
0.222171 0.732387 0
0.255375 0.732311 9.15541e-05
0.43476 0.730922 0
0.710201 0.710903 0.000198367
0.751827 0.733104 0.721294
0.74078 0.751827 0.734218
0.74078 0.751827 0.734218
0.740826 0.751827 0.734234
0.74165 0.751827 0.734524
0.751415 0.751827 0.732601
0.0611276 0.0988327 0.37995
0.17055 0.0937819 0.386389
0.431434 6.10361e-05 0.430579
0.751827 0.125856 0.43006
0.751827 0.729641 0.719875
0 0.170809 0.392554
0.152773 0.15259 0.403433
0.434195 0.168002 0.433814
0.751827 0.257572 0.432135
0.751827 0.729671 0.71989
0 0.437675 0.438163
0.110552 0.438682 0.4392
0.444266 0.444266 0.444266
0.741772 0.500435 0.471626
0.751827 0.729976 0.720195
0.000366217 0.734432 0.37615
0.000396735 0.734371 0.376043
0.47837 0.727687 0.442649
0.705653 0.70779 0.511772
0.751827 0.734997 0.725109
0.740948 0.751827 0.734661
0.740963 0.751827 0.734661
0.740993 0.751827 0.734676
0.741787 0.751827 0.734951
0.751415 0.751827 0.732738
0 0.000335698 0.751827
0 0.000335698 0.751827
0.417716 0 0.751827
0.740795 0 0.740032
0.751827 0.73167 0.729503
0 0.000335698 0.751827
0 0.000335698 0.751827
0.417166 0.000167849 0.751827
0.740673 0.000808728 0.73991
0.751827 0.731716 0.729549
0 0.443229 0.751827
0 0.441154 0.751827
0.454704 0.467201 0.746883
0.73138 0.486763 0.728908
0.751827 0.732433 0.730251
0 0.719707 0.720195
0.000350958 0.719753 0.720256
0.471901 0.715236 0.715434
0.698131 0.698131 0.698116
0.751827 0.738811 0.735958
0.741497 0.751827 0.737926
0.741497 0.751827 0.737926
0.741558 0.751827 0.737957
0.742504 0.751827 0.738491
0.751049 0.751827 0.73727
0.711727 0.718425 0.751827
0.711818 0.718486 0.751827
0.713375 0.7196 0.751827
0.722622 0.724239 0.751827
0.751827 0.740261 0.750683
0.711757 0.718456 0.751827
0.711833 0.718517 0.751827
0.71342 0.719631 0.751827
0.722652 0.724285 0.751827
0.751827 0.740276 0.750683
0.712245 0.71899 0.751827
0.712337 0.719051 0.751827
0.713878 0.72015 0.751827
0.723323 0.725017 0.751827
0.751827 0.740353 0.750683
0.720195 0.727504 0.751827
0.720256 0.727535 0.751827
0.721202 0.72813 0.751827
0.730632 0.733455 0.751827
0.751827 0.74168 0.75079
0.740291 0.751827 0.751583
0.740291 0.751827 0.751583
0.740337 0.751827 0.751583
0.74136 0.751598 0.751369
0.749981 0.749981 0.749981
