src/ACES/PixelManager-v.2.0-RC6/ACES/ACEScct-to-ACES2Rec2100.cube
TITLE "Generated by Resolve"
LUT_3D_SIZE 9
0 0 0
0.0142061 0.000701915 0
0.0760662 0.0091249 0
0.224033 0.0456397 1.5259e-05
0.418784 0.106218 3.0518e-05
0.604166 0.143069 3.0518e-05
0.751385 0.337774 0.000106813
0.751827 0.620691 0.552819
0.751827 0.725383 0.712474
0 0.0202182 0
0.0273442 0.0273594 0
0.0889754 0.0453346 0
0.230182 0.0795148 0
0.420325 0.125231 3.0518e-05
0.601434 0.230274 6.10361e-05
0.751339 0.340459 7.62951e-05
0.751827 0.620768 0.552895
0.751827 0.725383 0.712474
0.00579843 0.0970321 0
0.0519417 0.102495 0
0.117754 0.117845 1.5259e-05
0.244022 0.151965 1.5259e-05
0.423224 0.190112 1.5259e-05
0.601724 0.258442 3.0518e-05
0.751141 0.350622 0
0.751827 0.621088 0.553155
0.751827 0.725414 0.712505
0.016968 0.251698 1.5259e-05
0.076112 0.25388 0
0.159625 0.258625 0
0.273106 0.273198 0
0.430503 0.298268 0
0.602396 0.332967 6.10361e-05
0.750317 0.385809 9.15541e-05
0.751827 0.622446 0.554299
0.751827 0.72549 0.712596
6.10361e-05 0.433021 0
0.000106813 0.433433 4.57771e-05
0.16611 0.434409 0
0.297917 0.436667 4.57771e-05
0.443153 0.443214 3.0518e-05
0.604227 0.454063 6.10361e-05
0.749187 0.462867 0.000122072
0.751827 0.628199 0.559075
0.751827 0.725856 0.713008
0.151965 0.601785 9.15541e-05
0.161624 0.601892 9.15541e-05
0.21416 0.601999 4.57771e-05
0.317845 0.602029 0
0.449302 0.602258 0
0.600473 0.600855 6.10361e-05
0.742153 0.586404 0
0.751827 0.650263 0.578897
0.751827 0.72752 0.7149
0.286259 0.731777 0
0.289982 0.731762 0
0.303593 0.731701 6.10361e-05
0.347707 0.731426 0
0.439612 0.73048 0.000106813
0.570001 0.726802 0.000137331
0.71017 0.710903 0
0.751827 0.699886 0.624842
0.751827 0.732998 0.72105
0.673777 0.751827 0.631525
0.673808 0.751827 0.63154
0.673915 0.751827 0.631632
0.674296 0.751827 0.63183
0.675532 0.751827 0.632105
0.680797 0.751827 0.632975
0.699565 0.751827 0.633585
0.75111 0.751827 0.542092
0.751827 0.74284 0.73106
0.74078 0.751827 0.734203
0.740764 0.751827 0.734188
0.740764 0.751827 0.734188
0.74078 0.751827 0.734203
0.74081 0.751827 0.734218
0.740963 0.751827 0.734264
0.741634 0.751827 0.734493
0.744152 0.751827 0.73521
0.751415 0.751827 0.732586
0 0 0.00881972
0.0190433 0 0.018967
0.0806439 0.00788891 0.040589
0.225895 0.0436713 0.0766766
0.419074 0.104677 0.0968185
0.604181 0.142245 4.57771e-05
0.751827 0.329488 6.10361e-05
0.751827 0.621225 0.553994
0.751827 0.725429 0.712566
0 0.0238804 0.0239414
0.0302892 0.0302892 0.0302892
0.0979171 0.0390021 0.0404212
0.234119 0.0684672 0.0687877
0.420661 0.123796 0.0886702
0.604318 0.162631 4.57771e-05
0.751827 0.332372 6.10361e-05
0.751827 0.621302 0.554055
0.751827 0.725444 0.712581
0 0.0997177 0.0514534
0.0425116 0.107225 0.0466621
0.120836 0.120317 0.0441138
0.251072 0.143511 0.0489357
0.425605 0.176944 0.0449989
0.604837 0.212787 3.0518e-05
0.751797 0.343313 6.10361e-05
0.751827 0.621607 0.55433
0.751827 0.72546 0.712596
4.57771e-05 0.25243 0.0817121
0.0662547 0.255024 0.070573
0.150072 0.261372 0.0349432
0.274052 0.273777 0.0348211
0.4318 0.296407 3.0518e-05
0.603876 0.325078 6.10361e-05
0.750713 0.384405 3.0518e-05
0.751827 0.62298 0.555474
0.751827 0.725551 0.712688
9.15541e-05 0.433097 0
0 0.433509 0
0.15555 0.434852 3.0518e-05
0.296269 0.437064 0
0.443244 0.443259 4.57771e-05
0.605066 0.452628 0
0.749569 0.462028 9.15541e-05
0.751827 0.628656 0.560143
0.751827 0.725917 0.7131
0.000259403 0.603922 7.62951e-05
0 0.603937 4.57771e-05
0.180606 0.602396 0.000106813
0.310338 0.602365 0
0.447868 0.602518 4.57771e-05
0.600534 0.600839 0
0.742412 0.586084 6.10361e-05
0.751827 0.650584 0.579751
0.751827 0.727565 0.714992
0.276585 0.731899 4.57771e-05
0.280751 0.731884 0.000106813
0.29572 0.731823 6.10361e-05
0.343008 0.731563 0
0.438148 0.730571 4.57771e-05
0.569711 0.726864 0.00015259
0.710185 0.710903 3.0518e-05
0.751827 0.699947 0.625177
0.751827 0.733013 0.721111
0.673823 0.751827 0.631632
0.673838 0.751827 0.631662
0.673961 0.751827 0.631754
0.674357 0.751827 0.632013
0.675608 0.751827 0.632288
0.680858 0.751827 0.633143
0.699596 0.751827 0.633738
0.75111 0.751827 0.542351
0.751827 0.742855 0.731075
0.74078 0.751827 0.734203
0.740764 0.751827 0.734203
0.74078 0.751827 0.734203
0.74078 0.751827 0.734203
0.740826 0.751827 0.734218
0.740963 0.751827 0.734279
0.741634 0.751827 0.734508
0.744137 0.751827 0.73521
0.751415 0.751827 0.732601
0 0.0037995 0.0521553
0.0314031 0.00434882 0.0637522
0.0932631 0.00868238 0.0928206
0.231434 0.0394293 0.14316
0.420005 0.0999313 0.185412
0.604242 0.139147 0.177401
0.751827 0.297139 0.000106813
0.751827 0.622309 0.556954
0.751827 0.725643 0.712932
0 0.0345006 0.070222
0.0347753 0.033463 0.0865949
0.105364 0.0421759 0.105791
0.238819 0.0679942 0.143679
0.421561 0.121004 0.182925
0.604379 0.160449 0.175937
0.751827 0.30103 9.15541e-05
0.751827 0.622492 0.557198
0.751827 0.725658 0.712947
0 0.108019 0.108186
0.0441749 0.113695 0.113985
0.12491 0.12491 0.12491
0.259403 0.135698 0.138781
0.426413 0.176562 0.174533
0.604898 0.211872 0.170062
0.751827 0.315908 4.57771e-05
0.751827 0.623224 0.558129
0.751827 0.725673 0.712963
0 0.254902 0.159319
0.0638132 0.257298 0.157504
0.139696 0.265309 0.147845
0.27631 0.275715 0.145296
0.434485 0.292958 0.16321
0.603632 0.32723 0.185122
0.751827 0.370489 0.0679484
0.751827 0.624979 0.559899
0.751827 0.72575 0.713054
0.000106813 0.433387 0.175998
0.00015259 0.433783 0.173388
0.151904 0.435187 0.163394
0.293309 0.437858 0.152132
0.443366 0.443351 0.157702
0.604685 0.453269 0.161288
0.74992 0.466728 0.168444
0.751827 0.630594 0.564508
0.751827 0.726116 0.713466
0.000244144 0.603891 0
0.000228885 0.603906 9.15541e-05
9.15541e-05 0.603967 0
0.280659 0.603449 0
0.44448 0.603037 6.10361e-05
0.600504 0.600702 9.15541e-05
0.743114 0.586252 6.10361e-05
0.751827 0.65182 0.58294
0.751827 0.727733 0.715297
0.222171 0.732387 0
0.229953 0.732372 0
0.255375 0.732311 9.15541e-05
0.321889 0.732021 9.15541e-05
0.43476 0.730922 0
0.569192 0.727108 0
0.710201 0.710903 0.000198367
0.751827 0.700221 0.626444
0.751827 0.733104 0.721294
0.673961 0.751827 0.63212
0.673991 0.751827 0.632136
0.674098 0.751827 0.632227
0.674601 0.751827 0.632639
0.675898 0.751827 0.632975
0.681102 0.751827 0.633829
0.699733 0.751827 0.634318
0.751095 0.751827 0.543343
0.751827 0.742855 0.731121
0.74078 0.751827 0.734218
0.74078 0.751827 0.734218
0.74078 0.751827 0.734218
0.740795 0.751827 0.734218
0.740826 0.751827 0.734234
0.740978 0.751827 0.734295
0.74165 0.751827 0.734524
0.744137 0.751827 0.735225
0.751415 0.751827 0.732601
0.0235904 0.035584 0.177203
0.0616617 0.0357519 0.183505
0.124819 0.0357214 0.20322
0.247456 0.0369116 0.246601
0.423178 0.082948 0.292226
0.604456 0.125704 0.308766
0.751827 0.159716 0.262287
0.751827 0.621439 0.560494
0.751827 0.726528 0.714458
0 0.0626841 0.189258
0.054551 0.0554513 0.198627
0.128115 0.058854 0.214954
0.251652 0.0713817 0.251316
0.424506 0.111513 0.292103
0.604578 0.151339 0.30837
0.751827 0.177646 0.262104
0.751827 0.621622 0.560723
0.751827 0.726528 0.714473
0 0.132021 0.215824
0.0463264 0.131548 0.224735
0.128283 0.124025 0.249699
0.264286 0.139925 0.265034
0.428656 0.175082 0.291676
0.605066 0.208011 0.306874
0.751827 0.273289 0.27332
0.751827 0.62237 0.561639
0.751827 0.726543 0.714488
0 0.263111 0.263447
0.0514534 0.264744 0.26511
0.141527 0.270054 0.270527
0.278553 0.278553 0.278553
0.436423 0.292592 0.291981
0.603586 0.327031 0.312993
0.751827 0.343542 0.277104
0.751827 0.625589 0.565606
0.751827 0.726619 0.71458
0.000122072 0.434455 0.298573
0 0.434821 0.298116
0.146639 0.436072 0.296544
0.29192 0.438788 0.294896
0.443412 0.443488 0.304143
0.599649 0.460517 0.334844
0.742351 0.502144 0.375463
0.751827 0.637934 0.580743
0.751827 0.72697 0.714961
4.57771e-05 0.6038 0.276951
0 0.60383 0.276677
0 0.603891 0.275578
0.282322 0.60322 0.283909
0.456336 0.600275 0.32256
0.599268 0.599985 0.32604
0.738384 0.594034 0.348089
0.751827 0.656855 0.595697
0.751827 0.728466 0.716594
0 0.735134 9.15541e-05
0.000198367 0.735119 7.62951e-05
0.000503548 0.735073 0
0.000381476 0.734234 0.00015259
0.453025 0.730373 0.272007
0.57438 0.726299 0.278965
0.709545 0.710567 0.291112
0.751827 0.70132 0.631556
0.751827 0.733501 0.722103
0.674601 0.751827 0.634195
0.674617 0.751827 0.634211
0.674739 0.751827 0.634302
0.675227 0.751827 0.634684
0.677104 0.751827 0.635966
0.682155 0.751827 0.636698
0.700282 0.751827 0.636774
0.751019 0.751827 0.547753
0.751827 0.742916 0.731334
0.74081 0.751827 0.73431
0.74081 0.751827 0.734295
0.74081 0.751827 0.73431
0.740826 0.751827 0.73431
0.740856 0.751827 0.73431
0.741009 0.751827 0.734371
0.741665 0.751827 0.7346
0.744152 0.751827 0.735271
0.751415 0.751827 0.732631
0.0611276 0.0988327 0.37995
0.103655 0.0978256 0.381338
0.17055 0.0937819 0.386389
0.277577 0.0734264 0.402472
0.431434 6.10361e-05 0.430579
0.60502 0 0.448707
0.751827 0.125856 0.43006
0.751827 0.61767 0.571923
0.751827 0.729641 0.719875
0 0.111299 0.384237
0.0907912 0.110689 0.385519
0.167834 0.108293 0.390188
0.278126 0.0980392 0.405097
0.432074 0.0720531 0.431342
0.605127 0.0946975 0.448661
0.751827 0.153201 0.430014
0.751827 0.617868 0.572122
0.751827 0.729656 0.719875
0 0.170809 0.392554
0 0.163989 0.396262
0.152773 0.15259 0.403433
0.279622 0.154986 0.414191
0.434195 0.168002 0.433814
0.605493 0.190188 0.448463
0.751827 0.257572 0.432135
0.751827 0.618616 0.572915
0.751827 0.729671 0.71989
0 0.282231 0.411933
3.0518e-05 0.281926 0.41384
0.138109 0.280522 0.420417
0.280568 0.278614 0.432471
0.438621 0.293767 0.438483
0.603677 0.32517 0.45008
0.751827 0.337575 0.4336
0.751827 0.621912 0.57641
0.751827 0.729717 0.719951
0 0.437675 0.438163
0 0.437903 0.438392
0.110552 0.438682 0.4392
0.292073 0.440253 0.440696
0.444266 0.444266 0.444266
0.593042 0.46894 0.464927
0.741772 0.500435 0.471626
0.751827 0.635355 0.590967
0.751827 0.729976 0.720195
0 0.603418 0.442466
0.000122072 0.603418 0.44242
0 0.603464 0.442237
0.274815 0.602808 0.443748
0.468055 0.596674 0.462898
0.596323 0.597223 0.484123
0.720974 0.612268 0.521706
0.751827 0.671321 0.630854
0.751827 0.73109 0.721309
0.000366217 0.734432 0.37615
0.000213626 0.734417 0.376135
0.000396735 0.734371 0.376043
0 0.734157 0.375677
0.47837 0.727687 0.442649
0.605447 0.71664 0.509361
0.705653 0.70779 0.511772
0.751827 0.704738 0.647929
0.751827 0.734997 0.725109
0.676814 0.751827 0.641962
0.676844 0.751827 0.641993
0.676997 0.751827 0.642145
0.677668 0.751827 0.642786
0.679637 0.751827 0.644221
0.686076 0.751827 0.647501
0.702327 0.751827 0.646097
0.750515 0.751827 0.568032
0.751827 0.74313 0.732174
0.740948 0.751827 0.734661
0.740948 0.751827 0.734661
0.740963 0.751827 0.734661
0.740963 0.751827 0.734661
0.740993 0.751827 0.734676
0.741146 0.751827 0.734722
0.741787 0.751827 0.734951
0.744228 0.751827 0.735546
0.751415 0.751827 0.732738
0 0.000183108 0.586603
0 0.00015259 0.58677
0.151888 0 0.587396
0.295094 0.000167849 0.589899
0.441962 0.00015259 0.597147
0.605051 0 0.604456
0.751827 0 0.587152
0.751827 0.618692 0.611399
0.751827 0.731106 0.724056
0 0.000167849 0.587243
0 7.62951e-05 0.587396
0.144656 0.000106813 0.588006
0.294255 6.10361e-05 0.590433
0.441978 3.0518e-05 0.597452
0.605066 0 0.604501
0.751827 0 0.587121
0.751827 0.618875 0.611536
0.751827 0.731106 0.724086
0 0.150805 0.589639
0 0.149981 0.589776
0.103593 0.146807 0.590326
0.290867 0.132219 0.592447
0.442008 6.10361e-05 0.598627
0.605158 0 0.604623
0.751827 0.0967117 0.587015
0.751827 0.619638 0.612131
0.751827 0.731151 0.724117
0 0.292058 0.593194
0 0.290517 0.593698
0 0.28426 0.595651
0.280034 0.279713 0.597971
0.44239 0.286107 0.600717
0.604089 0.305745 0.603326
0.751827 0.318746 0.587274
0.751827 0.62295 0.614679
0.751827 0.731304 0.724315
0 0.44155 0.600534
0 0.441474 0.600732
0 0.441215 0.601495
0.284642 0.442481 0.600565
0.452888 0.455009 0.588388
0.596338 0.4701 0.594614
0.739055 0.498009 0.59379
0.751827 0.636408 0.625406
0.751827 0.731975 0.725124
0 0.601083 0.601678
0 0.601083 0.601678
0 0.601083 0.601678
0.238102 0.600549 0.601083
0.467948 0.59617 0.596368
0.596414 0.596414 0.596414
0.704097 0.624353 0.620081
0.751827 0.673472 0.656641
0.751827 0.734386 0.728023
0.000381476 0.731594 0.561822
0.00062562 0.731579 0.561807
0 0.731533 0.561746
0.000259403 0.731197 0.561822
0.473533 0.725017 0.575113
0.625223 0.70602 0.616159
0.699168 0.700496 0.638636
0.751827 0.709545 0.677623
0.751827 0.738125 0.731655
0.6766 0.751827 0.656809
0.676631 0.751827 0.65684
0.676768 0.751827 0.656947
0.677348 0.751827 0.657374
0.679927 0.751827 0.659281
0.689403 0.751827 0.666163
0.707286 0.751827 0.671168
0.745052 0.747936 0.662135
0.751827 0.743694 0.734615
0.741436 0.751827 0.735958
0.741436 0.751827 0.735958
0.741436 0.751827 0.735958
0.741436 0.751827 0.735958
0.741466 0.751827 0.735973
0.741604 0.751827 0.736004
0.742184 0.751827 0.736126
0.744411 0.751827 0.736477
0.751431 0.751827 0.733227
0 0.000335698 0.751827
0 0.000335698 0.751827
0 0.000335698 0.751827
0 0.000335698 0.751827
0.417716 0 0.751827
0.593011 0 0.751827
0.740795 0 0.740032
0.751827 0.630793 0.675822
0.751827 0.73167 0.729503
0 0.000335698 0.751827
0 0.000335698 0.751827
0 0.000335698 0.751827
0 0.000335698 0.751827
0.417609 0.000244144 0.751827
0.592981 0 0.751827
0.740764 0 0.740001
0.751827 0.630945 0.675883
0.751827 0.731685 0.729519
0 0.000335698 0.751827
0 0.000335698 0.751827
0 0.000335698 0.751827
0 0.000335698 0.751827
0.417166 0.000167849 0.751827
0.592874 0 0.751827
0.740673 0.000808728 0.73991
0.751827 0.631586 0.676143
0.751827 0.731716 0.729549
0 0.322713 0.751827
0 0.320272 0.751827
0 0.312596 0.751827
0.256352 0.300084 0.751827
0.431846 0.292103 0.751827
0.591836 0.263172 0.751827
0.740139 0 0.739345
0.751827 0.634363 0.677287
0.751827 0.731838 0.729686
0 0.443229 0.751827
0 0.442756 0.751827
0 0.441154 0.751827
0.252659 0.439109 0.751827
0.454704 0.467201 0.746883
0.592721 0.471901 0.744976
0.73138 0.486763 0.728908
0.751827 0.645609 0.682094
0.751827 0.732433 0.730251
0 0.588144 0.751827
0 0.588098 0.751827
0.000640879 0.5879 0.751827
0 0.587304 0.751827
0.473091 0.594461 0.73962
0.609995 0.613764 0.700191
0.706004 0.626215 0.70277
0.751827 0.676341 0.69604
0.751827 0.734569 0.732311
0 0.719707 0.720195
0 0.719707 0.720195
0.000350958 0.719753 0.720256
0 0.719722 0.720226
0.471901 0.715236 0.715434
0.625818 0.70248 0.702281
0.698131 0.698131 0.698116
0.744121 0.714153 0.712184
0.751827 0.738811 0.735958
0.676524 0.751827 0.692348
0.676555 0.751827 0.692348
0.676661 0.751827 0.692393
0.67715 0.751827 0.692576
0.679301 0.751827 0.693324
0.687434 0.751827 0.696056
0.716182 0.743954 0.711376
0.739361 0.740063 0.721553
0.751827 0.743862 0.738155
0.741497 0.751827 0.737926
0.741497 0.751827 0.737911
0.741497 0.751827 0.737926
0.741512 0.751827 0.737926
0.741558 0.751827 0.737957
0.741756 0.751827 0.738079
0.742504 0.751827 0.738491
0.744625 0.751827 0.738766
0.751049 0.751827 0.73727
0.582284 0.607462 0.751827
0.582345 0.607462 0.751827
0.582589 0.607431 0.751827
0.583658 0.607355 0.751827
0.588708 0.607309 0.751827
0.614786 0.613886 0.751827
0.678431 0.633616 0.751827
0.751827 0.670085 0.749783
0.751827 0.734142 0.738994
0.58233 0.607538 0.751827
0.582391 0.607538 0.751827
0.582635 0.607523 0.751827
0.583703 0.607431 0.751827
0.588739 0.60737 0.751827
0.614801 0.613947 0.751827
0.678462 0.633738 0.751827
0.751827 0.67013 0.749783
0.751827 0.734157 0.738994
0.582513 0.607843 0.751827
0.582574 0.607843 0.751827
0.582818 0.607828 0.751827
0.583886 0.607736 0.751827
0.588846 0.607614 0.751827
0.614878 0.614176 0.751827
0.678614 0.63418 0.751827
0.751827 0.670344 0.749783
0.751827 0.734173 0.73901
0.583322 0.609216 0.751827
0.583398 0.609201 0.751827
0.583642 0.609186 0.751827
0.584695 0.60911 0.751827
0.589349 0.608759 0.751827
0.615198 0.615198 0.751827
0.679271 0.636118 0.751827
0.751827 0.671229 0.749767
0.751827 0.734264 0.739071
0.586908 0.615106 0.751827
0.586969 0.615106 0.751827
0.587213 0.615091 0.751827
0.588251 0.615045 0.751827
0.597086 0.618479 0.751827
0.621057 0.624323 0.751827
0.682124 0.644251 0.751827
0.751827 0.675029 0.749767
0.751827 0.734661 0.7393
0.601785 0.637583 0.751827
0.601831 0.637568 0.751827
0.602029 0.637568 0.751827
0.603967 0.6383 0.751827
0.615686 0.644068 0.751827
0.645823 0.657816 0.751827
0.691981 0.670192 0.751827
0.751827 0.687297 0.749676
0.751827 0.73611 0.740169
0.64596 0.692531 0.751827
0.646036 0.692561 0.751827
0.646357 0.692653 0.751827
0.647715 0.69308 0.751827
0.653513 0.694865 0.751827
0.672724 0.700816 0.751827
0.707347 0.709514 0.741955
0.744091 0.715984 0.74168
0.751827 0.739208 0.741802
0.665003 0.751827 0.751598
0.665034 0.751827 0.751598
0.665125 0.751827 0.751583
0.665568 0.751827 0.751553
0.667521 0.751827 0.751385
0.676371 0.750973 0.750362
0.717296 0.741283 0.741024
0.738933 0.738933 0.738933
0.750286 0.744442 0.744015
0.741115 0.751827 0.74229
0.741115 0.751827 0.742306
0.741115 0.751827 0.74229
0.741131 0.751827 0.742306
0.741161 0.751827 0.742306
0.741329 0.751827 0.742351
0.742046 0.751827 0.742535
0.745861 0.750225 0.744945
0.749859 0.749996 0.747295
0.711727 0.718425 0.751827
0.711757 0.718441 0.751827
0.711818 0.718486 0.751827
0.712108 0.718685 0.751827
0.713375 0.7196 0.751827
0.716609 0.721645 0.751827
0.722622 0.724239 0.751827
0.737285 0.730846 0.751827
0.751827 0.740261 0.750683
0.711742 0.718441 0.751827
0.711757 0.718441 0.751827
0.711818 0.718486 0.751827
0.712108 0.7187 0.751827
0.71339 0.7196 0.751827
0.716609 0.72166 0.751827
0.722637 0.724254 0.751827
0.737285 0.730861 0.751827
0.751827 0.740261 0.750683
0.711757 0.718456 0.751827
0.711772 0.718471 0.751827
0.711833 0.718517 0.751827
0.712139 0.718715 0.751827
0.71342 0.719631 0.751827
0.71667 0.721691 0.751827
0.722652 0.724285 0.751827
0.737285 0.730877 0.751827
0.751827 0.740276 0.750683
0.711849 0.718547 0.751827
0.711864 0.718563 0.751827
0.71194 0.718608 0.751827
0.71223 0.718822 0.751827
0.713497 0.719722 0.751827
0.716838 0.721859 0.751827
0.722774 0.724422 0.751827
0.737316 0.730953 0.751827
0.751827 0.740291 0.750683
0.712245 0.71899 0.751827
0.712276 0.719005 0.751827
0.712337 0.719051 0.751827
0.712627 0.719249 0.751827
0.713878 0.72015 0.751827
0.717632 0.722637 0.751827
0.723323 0.725017 0.751827
0.737484 0.731273 0.751827
0.751827 0.740353 0.750683
0.714 0.720882 0.751827
0.714015 0.720897 0.751827
0.714076 0.720943 0.751827
0.714351 0.721126 0.751827
0.715496 0.72192 0.751827
0.719768 0.724849 0.751827
0.725429 0.727398 0.751827
0.738125 0.732586 0.751827
0.751827 0.740673 0.750713
0.720195 0.727504 0.751827
0.720211 0.727504 0.751827
0.720256 0.727535 0.751827
0.720439 0.727642 0.751827
0.721202 0.72813 0.751827
0.724163 0.729961 0.751827
0.730632 0.733455 0.751827
0.739651 0.736202 0.751827
0.751827 0.74168 0.75079
0.732403 0.740322 0.751827
0.732403 0.740322 0.751827
0.732418 0.740337 0.751827
0.732464 0.740353 0.751827
0.732692 0.740444 0.751827
0.733577 0.740764 0.751827
0.736202 0.741543 0.751827
0.742397 0.742916 0.749096
0.75024 0.745541 0.749691
0.740291 0.751827 0.751583
0.740291 0.751827 0.751583
0.740291 0.751827 0.751583
0.740307 0.751827 0.751583
0.740337 0.751827 0.751583
0.740505 0.751812 0.751553
0.74136 0.751598 0.751369
0.746624 0.749889 0.749828
0.749981 0.749981 0.749981
