src/ACES/PixelManager-v.2.0-RC6/ACES/ACEScct-to-ACES2Bt1886.cube
TITLE "Generated by Resolve"
LUT_3D_SIZE 5
0 0 0
0.0694743 0 0.00791943
0.667048 0 0.0773022
1 0.550668 0.48333
1 0.99176 0.990265
0 0.0756085 0.0330358
0.0998703 0.0991684 4.57771e-05
0.678538 0.136584 0
1 0.553643 0.484413
1 0.99176 0.99028
0 0.586282 0.254078
0 0.592187 0.228717
0.616297 0.612253 0.000350958
1 0.617792 0.519341
1 0.991928 0.990448
0.623545 1 0.660456
0.624949 1 0.660471
0.651347 1 0.660166
1 1 0.559365
0.999924 0.994446 0.993042
0.998871 0.999954 0.998764
0.998871 0.999954 0.998764
0.998886 0.999954 0.998779
0.999222 0.999969 0.9991
1 1 1
0 0.0140078 0.0374914
0.0872969 6.10361e-05 0.0747234
0.665553 0 0.212055
1 0.554177 0.497185
1 0.991775 0.990311
0 0.0873121 0.0849165
0.10518 0.10518 0.10518
0.692027 0.0628824 0.184283
1 0.559289 0.500496
1 0.991791 0.990311
0 0.584466 0.305348
0 0.590311 0.289097
0.615763 0.60798 0.0866712
1 0.624353 0.535454
1 0.991958 0.990478
0.628885 1 0.66746
0.630274 1 0.667475
0.656321 1 0.667338
1 1 0.565087
0.999924 0.994461 0.993072
0.998871 0.999954 0.998764
0.998871 0.999954 0.998764
0.998886 0.999954 0.998779
0.999222 0.999969 0.9991
1 1 1
0 0.17464 0.460044
0.0747082 0.000198367 0.542977
0.689906 0.00015259 0.590341
1 0.555764 0.587045
1 0.992203 0.990951
0.000213626 0.226154 0.468711
0.0368048 0.182193 0.539773
0.700542 0.0602274 0.603067
1 0.561273 0.590097
1 0.992218 0.990967
0 0.595712 0.579248
0 0.598428 0.582223
0.593805 0.593805 0.593805
1 0.664393 0.655512
1 0.99237 0.991119
0.64625 1 0.723507
0.64892 1 0.724392
0.696162 1 0.74107
0.999817 1 0.643229
0.999893 0.994644 0.993408
0.998886 0.999954 0.998795
0.998886 0.999954 0.998795
0.998901 0.999954 0.99881
0.999237 0.999969 0.999115
1 1 1
0.506691 0.630213 1
0.511467 0.630121 1
0.588403 0.624323 1
1 0.707759 0.932906
0.999924 0.993469 0.993484
0.508217 0.633722 1
0.513619 0.634089 1
0.589715 0.62829 1
1 0.711254 0.933623
0.999924 0.993469 0.993484
0.534615 0.692592 1
0.540291 0.693462 1
0.630396 0.707286 1
1 0.772686 0.946395
0.999908 0.993637 0.993637
0.66566 1 0.984771
0.667018 1 0.984802
0.692088 1 0.985534
0.963226 0.963226 0.963226
0.999756 0.995895 0.995682
0.999054 0.999969 0.9991
0.999054 0.999969 0.9991
0.999069 0.999969 0.999115
0.99939 0.999969 0.99939
1 1 1
0.978607 0.984405 1
0.978637 0.984421 1
0.97908 0.984634 1
0.984512 0.986648 1
0.999863 0.998596 0.999359
0.978622 0.984421 1
0.978653 0.984436 1
0.979095 0.984634 1
0.984527 0.986664 1
0.999863 0.998596 0.999359
0.978897 0.984695 1
0.978912 0.98471 1
0.979355 0.984909 1
0.984756 0.986938 1
0.999863 0.998611 0.999374
0.983291 0.989029 1
0.983307 0.989029 1
0.983597 0.989136 1
0.988266 0.990997 1
0.999893 0.999069 0.999557
1 1 1
1 1 1
1 1 1
1 1 1
1 1 1
