src/ACES/PixelManager-v.2.0-RC6/ACES/ACEScct_ACES2-Comp.cube
TITLE "Generated by Resolve"
LUT_3D_SIZE 5
0 0 0
0.249989 0.0722667 0.0734264
0.499992 0.270008 0.238056
0.749996 0.526497 0.495964
1 0.776806 0.746349
0.065095 0.249989 0.0734264
0.249989 0.249989 0.0734264
0.499992 0.300008 0.238056
0.749996 0.527977 0.495964
1 0.776883 0.746349
0.248493 0.499992 0.238056
0.290379 0.499992 0.238056
0.499992 0.499992 0.238056
0.749996 0.550011 0.495964
1 0.777981 0.746349
0.508186 0.749996 0.495964
0.510338 0.749996 0.495964
0.540383 0.749996 0.495964
0.749996 0.749996 0.495964
1 0.800015 0.746349
0.758648 1 0.746349
0.75874 1 0.746349
0.760342 1 0.746349
0.790387 1 0.746349
1 1 0.746349
0.065095 0.0722667 0.249989
0.249989 0.0722667 0.249989
0.499992 0.270008 0.276692
0.749996 0.526497 0.497795
1 0.776806 0.746441
0.065095 0.249989 0.249989
0.249989 0.249989 0.249989
0.499992 0.300008 0.276692
0.749996 0.527977 0.497795
1 0.776883 0.746441
0.248493 0.499992 0.276692
0.290379 0.499992 0.276692
0.499992 0.499992 0.276692
0.749996 0.550011 0.497795
1 0.777981 0.746441
0.508186 0.749996 0.497795
0.510338 0.749996 0.497795
0.540383 0.749996 0.497795
0.749996 0.749996 0.497795
1 0.800015 0.746441
0.758648 1 0.746441
0.75874 1 0.746441
0.760342 1 0.746441
0.790387 1 0.746441
1 1 0.746441
0.248493 0.270008 0.499992
0.290379 0.270008 0.499992
0.499992 0.270008 0.499992
0.749996 0.526497 0.526696
1 0.776806 0.747799
0.248493 0.300008 0.499992
0.290379 0.300008 0.499992
0.499992 0.300008 0.499992
0.749996 0.527977 0.526696
1 0.776883 0.747799
0.248493 0.499992 0.499992
0.290379 0.499992 0.499992
0.499992 0.499992 0.499992
0.749996 0.550011 0.526696
1 0.777981 0.747799
0.508186 0.749996 0.526696
0.510338 0.749996 0.526696
0.540383 0.749996 0.526696
0.749996 0.749996 0.526696
1 0.800015 0.747799
0.758648 1 0.747799
0.75874 1 0.747799
0.760342 1 0.747799
0.790387 1 0.747799
1 1 0.747799
0.508186 0.526497 0.749996
0.510338 0.526497 0.749996
0.540383 0.526497 0.749996
0.749996 0.526497 0.749996
1 0.776806 0.776699
0.508186 0.527977 0.749996
0.510338 0.527977 0.749996
0.540383 0.527977 0.749996
0.749996 0.527977 0.749996
1 0.776883 0.776699
0.508186 0.550011 0.749996
0.510338 0.550011 0.749996
0.540383 0.550011 0.749996
0.749996 0.550011 0.749996
1 0.777981 0.776699
0.508186 0.749996 0.749996
0.510338 0.749996 0.749996
0.540383 0.749996 0.749996
0.749996 0.749996 0.749996
1 0.800015 0.776699
0.758648 1 0.776699
0.75874 1 0.776699
0.760342 1 0.776699
0.790387 1 0.776699
1 1 0.776699
0.758648 0.776806 1
0.75874 0.776806 1
0.760342 0.776806 1
0.790387 0.776806 1
1 0.776806 1
0.758648 0.776883 1
0.75874 0.776883 1
0.760342 0.776883 1
0.790387 0.776883 1
1 0.776883 1
0.758648 0.777981 1
0.75874 0.777981 1
0.760342 0.777981 1
0.790387 0.777981 1
1 0.777981 1
0.758648 0.800015 1
0.75874 0.800015 1
0.760342 0.800015 1
0.790387 0.800015 1
1 0.800015 1
0.758648 1 1
0.75874 1 1
0.760342 1 1
0.790387 1 1
1 1 1
