src/ACES/PixelManager-v.2.0-RC6/ACES/ACEScct-to-ACES2Rec2100.cube
TITLE "Generated by Resolve"
LUT_3D_SIZE 65
0 0 0
0 0 0
0 0 0
0 0 0
0 0 0
0.000701915 1.5259e-05 0
0.00450141 0.000137331 0
0.00920119 0.000381476 0
0.0142061 0.000701915 0
0.0193027 0.00111391 0
0.0243992 0.00158694 0
0.0300298 0.00216678 0
0.0366979 0.00296025 0
0.0445258 0.0039826 0
0.0536355 0.0053254 0
0.0641184 0.00701915 0
0.0760662 0.0091249 0
0.0895399 0.0117189 0
0.104555 0.0148318 0
0.121111 0.0185092 0
0.139178 0.0227817 0
0.158633 0.0276493 0
0.179385 0.0331121 0
0.201236 0.0391241 0
0.224033 0.0456397 1.5259e-05
0.247562 0.0526131 1.5259e-05
0.271626 0.0599527 1.5259e-05
0.296056 0.0675669 1.5259e-05
0.320668 0.0753643 1.5259e-05
0.345342 0.083238 1.5259e-05
0.369955 0.0910658 1.5259e-05
0.394461 0.0987716 1.5259e-05
0.418784 0.106218 3.0518e-05
0.442893 0.113313 1.5259e-05
0.466773 0.119921 1.5259e-05
0.490425 0.125933 1.5259e-05
0.513802 0.131228 3.0518e-05
0.536904 0.135683 0
0.559686 0.139193 0
0.582132 0.141665 3.0518e-05
0.604166 0.143069 3.0518e-05
0.625757 0.143481 0
0.643046 0.250065 7.62951e-05
0.663249 0.26125 0
0.682811 0.272663 9.15541e-05
0.70161 0.284138 9.15541e-05
0.719615 0.295674 7.62951e-05
0.736721 0.307408 6.10361e-05
0.751385 0.337774 0.000106813
0.751827 0.420661 0.237629
0.751827 0.477165 0.335042
0.751827 0.514748 0.392584
0.751827 0.542947 0.43508
0.751827 0.565972 0.469749
0.751827 0.585794 0.499718
0.751827 0.603845 0.527138
0.751827 0.620691 0.552819
0.751827 0.636713 0.577325
0.751827 0.652186 0.601007
0.751827 0.66714 0.623896
0.751827 0.681407 0.645731
0.751827 0.694682 0.66598
0.751827 0.706706 0.68426
0.751827 0.716991 0.699825
0.751827 0.725383 0.712474
0 0 0
0 0 0
0 0 0
0 0 0
0 0 0
0.000701915 1.5259e-05 0
0.00450141 0.000137331 0
0.00920119 0.000381476 0
0.0142061 0.000701915 0
0.0193027 0.00111391 0
0.0243992 0.00158694 0
0.0300298 0.00216678 0
0.0366979 0.00296025 0
0.0445258 0.0039826 0
0.0536355 0.0053254 0
0.0641184 0.00701915 0
0.0760662 0.0091249 0
0.0895399 0.0117189 0
0.104555 0.0148318 0
0.121111 0.0185092 0
0.139178 0.0227817 0
0.158633 0.0276493 0
0.179385 0.0331121 0
0.201236 0.0391241 0
0.224033 0.0456397 0
0.247562 0.0526131 0
0.271641 0.0599527 0
0.296056 0.0675669 1.5259e-05
0.320668 0.0753643 1.5259e-05
0.345342 0.083238 1.5259e-05
0.369955 0.0910658 1.5259e-05
0.394461 0.0987716 1.5259e-05
0.418784 0.106218 3.0518e-05
0.442893 0.113313 1.5259e-05
0.466773 0.119921 0
0.490425 0.125933 1.5259e-05
0.513802 0.131228 3.0518e-05
0.536904 0.135683 0
0.559686 0.139193 0
0.582116 0.141665 4.57771e-05
0.604166 0.143069 3.0518e-05
0.625757 0.143481 0
0.643046 0.250065 7.62951e-05
0.663249 0.26125 0
0.682795 0.272663 7.62951e-05
0.70161 0.284138 9.15541e-05
0.719615 0.295674 7.62951e-05
0.736721 0.307408 0.000122072
0.751385 0.337774 0
0.751827 0.420661 0.237629
0.751827 0.477165 0.335042
0.751827 0.514748 0.392584
0.751827 0.542947 0.43508
0.751827 0.565972 0.469749
0.751827 0.585794 0.499718
0.751827 0.603845 0.527138
0.751827 0.620691 0.552819
0.751827 0.636713 0.57731
0.751827 0.652186 0.601007
0.751827 0.66714 0.623896
0.751827 0.681407 0.645731
0.751827 0.694682 0.66598
0.751827 0.706706 0.68426
0.751827 0.716991 0.699825
0.751827 0.725383 0.712474
0 0 0
0 0 0
0 0 0
0 0 0
0 0 0
0.000701915 1.5259e-05 0
0.00450141 0.000137331 0
0.00920119 0.000381476 0
0.0142061 0.000701915 0
0.0193027 0.00111391 0
0.0243992 0.00158694 0
0.0300298 0.00216678 0
0.0366979 0.00296025 0
0.0445258 0.0039826 0
0.0536355 0.0053254 0
0.0641184 0.00701915 0
0.0760662 0.0091249 0
0.0895399 0.0117189 0
0.104555 0.0148318 0
0.121111 0.0185092 0
0.139178 0.0227817 0
0.158633 0.0276493 0
0.179385 0.0331121 0
0.201236 0.0391241 0
0.224033 0.0456397 1.5259e-05
0.247562 0.0526131 0
0.271641 0.0599527 0
0.296056 0.0675669 1.5259e-05
0.320668 0.0753643 0
0.345342 0.083238 1.5259e-05
0.369955 0.0910658 1.5259e-05
0.394461 0.0987716 1.5259e-05
0.418784 0.106218 3.0518e-05
0.442893 0.113313 1.5259e-05
0.466773 0.119921 0
0.490425 0.125933 1.5259e-05
0.513802 0.131228 1.5259e-05
0.536904 0.135683 0
0.559686 0.139193 0
0.582132 0.141665 3.0518e-05
0.604166 0.143069 3.0518e-05
0.625757 0.143481 0
0.643046 0.250065 7.62951e-05
0.663249 0.261234 6.10361e-05
0.682811 0.272663 9.15541e-05
0.70161 0.284138 9.15541e-05
0.719615 0.295674 7.62951e-05
0.736721 0.307408 0.000122072
0.751385 0.337774 0
0.751827 0.420661 0.237629
0.751827 0.477165 0.335042
0.751827 0.514748 0.392584
0.751827 0.542947 0.43508
0.751827 0.565972 0.469749
0.751827 0.585794 0.499718
0.751827 0.603845 0.527138
0.751827 0.620691 0.552819
0.751827 0.636713 0.57731
0.751827 0.652186 0.601007
0.751827 0.66714 0.623896
0.751827 0.681407 0.645731
0.751827 0.694682 0.66598
0.751827 0.706706 0.68426
0.751827 0.716991 0.699825
0.751827 0.725383 0.712474
0 0 0
0 0 0
0 0 0
0 0 0
0 0 0
0.000701915 1.5259e-05 0
0.00450141 0.000137331 0
0.00920119 0.000381476 0
0.0142061 0.000701915 0
0.0193027 0.00111391 0
0.0243992 0.00158694 0
0.0300298 0.00216678 0
0.0366979 0.00296025 0
0.0445258 0.0039826 0
0.0536355 0.0053254 0
0.0641184 0.00701915 0
0.0760662 0.0091249 0
0.0895399 0.0117189 0
0.104555 0.0148318 0
0.121111 0.0185092 0
0.139178 0.0227817 0
0.158633 0.0276493 0
0.179385 0.0331121 0
0.201236 0.0391241 0
0.224033 0.0456397 1.5259e-05
0.247562 0.0526131 1.5259e-05
0.271641 0.0599527 0
0.296056 0.0675669 1.5259e-05
0.320668 0.0753643 1.5259e-05
0.345342 0.083238 1.5259e-05
0.369955 0.0910658 1.5259e-05
0.394461 0.0987716 1.5259e-05
0.418784 0.106218 3.0518e-05
0.442893 0.113313 1.5259e-05
0.466773 0.119921 0
0.490425 0.125933 1.5259e-05
0.513802 0.131228 1.5259e-05
0.536904 0.135683 0
0.559686 0.139193 0
0.582116 0.141665 4.57771e-05
0.604166 0.143069 3.0518e-05
0.625757 0.143481 0
0.643046 0.250065 7.62951e-05
0.663249 0.26125 0
0.682811 0.272663 9.15541e-05
0.701625 0.284138 4.57771e-05
0.719615 0.295674 7.62951e-05
0.736721 0.307408 0.000122072
0.751385 0.337774 0
0.751827 0.420661 0.237629
0.751827 0.477165 0.335042
0.751827 0.514748 0.392584
0.751827 0.542947 0.43508
0.751827 0.565972 0.469749
0.751827 0.585794 0.499718
0.751827 0.603845 0.527138
0.751827 0.620691 0.552819
0.751827 0.636713 0.577325
0.751827 0.652186 0.601007
0.751827 0.66714 0.623896
0.751827 0.681407 0.645731
0.751827 0.694682 0.66598
0.751827 0.706706 0.68426
0.751827 0.716991 0.699825
0.751827 0.725383 0.712474
0 0 0
0 0 0
0 0 0
0 0 0
0 0 0
0.000701915 1.5259e-05 0
0.00450141 0.000137331 0
0.00920119 0.000381476 0
0.0142061 0.000701915 0
0.0193027 0.00111391 0
0.0243992 0.00158694 0
0.0300298 0.00216678 0
0.0366979 0.00296025 0
0.0445258 0.0039826 0
0.0536355 0.0053254 0
0.0641184 0.00701915 0
0.0760662 0.0091249 0
0.0895399 0.0117189 0
0.104555 0.0148318 0
0.121111 0.0185092 0
0.139178 0.0227817 0
0.158633 0.0276493 0
0.179385 0.0331121 0
0.201236 0.0391241 0
0.224033 0.0456397 1.5259e-05
0.247562 0.0526131 1.5259e-05
0.271626 0.0599527 1.5259e-05
0.296056 0.0675669 0
0.320668 0.0753643 1.5259e-05
0.345342 0.083238 1.5259e-05
0.369955 0.0910658 1.5259e-05
0.394461 0.0987716 1.5259e-05
0.418784 0.106218 0
0.442893 0.113313 1.5259e-05
0.466773 0.119921 0
0.490425 0.125933 1.5259e-05
0.513802 0.131228 1.5259e-05
0.536904 0.135683 0
0.559686 0.139193 0
0.582132 0.141665 3.0518e-05
0.604166 0.143069 3.0518e-05
0.625757 0.143481 0
0.643046 0.250065 7.62951e-05
0.663249 0.26125 0
0.682811 0.272663 0
0.70161 0.284138 9.15541e-05
0.719615 0.295674 7.62951e-05
0.736721 0.307408 6.10361e-05
0.751385 0.337774 0.000106813
0.751827 0.420661 0.237629
0.751827 0.477165 0.335042
0.751827 0.514748 0.392584
0.751827 0.542947 0.43508
0.751827 0.565972 0.469749
0.751827 0.585794 0.499718
0.751827 0.603845 0.527138
0.751827 0.620691 0.552819
0.751827 0.636713 0.57731
0.751827 0.652186 0.601007
0.751827 0.66714 0.623896
0.751827 0.681407 0.645731
0.751827 0.694682 0.66598
0.751827 0.706706 0.68426
0.751827 0.716991 0.699825
0.751827 0.725383 0.712474
0 0.00105287 0
0 0.00105287 0
0 0.00105287 0
0 0.00105287 0
0 0.00105287 0
0.0015259 0.0015259 0
0.00598154 0.00268559 0
0.0109255 0.00366217 0
0.0160525 0.00456245 0
0.02121 0.00538643 0
0.0263523 0.00616464 0
0.0320134 0.00698863 0
0.0386969 0.00793469 0
0.0465553 0.00901808 0
0.0556802 0.0102693 0
0.0661784 0.0116884 0
0.0781415 0.0133059 0
0.0915236 0.0156252 0
0.106401 0.018555 0
0.12282 0.022034 0
0.140719 0.0260929 0
0.160021 0.0307622 0
0.180591 0.0360266 0
0.202289 0.041886 1.5259e-05
0.224933 0.0482948 0
0.24831 0.0551614 1.5259e-05
0.272251 0.0624094 0
0.296574 0.0699474 0
0.32108 0.0776532 1.5259e-05
0.345663 0.0854505 1.5259e-05
0.370214 0.0932326 1.5259e-05
0.394659 0.100877 1.5259e-05
0.418936 0.108293 1.5259e-05
0.44303 0.115343 1.5259e-05
0.46688 0.12195 1.5259e-05
0.490501 0.127962 3.0518e-05
0.513863 0.133272 0
0.536934 0.137758 3.0518e-05
0.559716 0.141329 6.10361e-05
0.582147 0.143877 6.10361e-05
0.604181 0.145373 4.57771e-05
0.625772 0.145892 3.0518e-05
0.643076 0.250355 0
0.663264 0.261662 1.5259e-05
0.682811 0.273106 0
0.701625 0.284566 9.15541e-05
0.719615 0.296086 0
0.736721 0.30779 9.15541e-05
0.751385 0.338048 0
0.751827 0.420768 0.237675
0.751827 0.477226 0.335073
0.751827 0.514778 0.392599
0.751827 0.542977 0.435096
0.751827 0.565988 0.469764
0.751827 0.585794 0.499718
0.751827 0.603845 0.527138
0.751827 0.620691 0.552834
0.751827 0.636728 0.577325
0.751827 0.652186 0.601007
0.751827 0.66714 0.623896
0.751827 0.681407 0.645731
0.751827 0.694682 0.665995
0.751827 0.706706 0.684276
0.751827 0.716991 0.699825
0.751827 0.725383 0.712474
0 0.00666819 0
0 0.00666819 0
0 0.00666819 0
0 0.00666819 0
0 0.00666819 0
0.00325017 0.00743114 0
0.00939956 0.00939956 0
0.0150149 0.0111391 0
0.0204776 0.0127108 0
0.0258183 0.0141604 0
0.0310369 0.0155032 0
0.0367132 0.0169223 0
0.0433661 0.0185245 0
0.0511177 0.0203403 0
0.0601053 0.0223697 0
0.0704051 0.0246281 0
0.0821088 0.0271305 0
0.0953078 0.0298924 0
0.110033 0.0329137 0
0.126268 0.0361639 0
0.143984 0.0396582 0
0.163104 0.0434272 0
0.183505 0.0473182 1.5259e-05
0.205035 0.0514534 0
0.227451 0.0562295 1.5259e-05
0.250446 0.0627909 1.5259e-05
0.274037 0.0697185 1.5259e-05
0.298024 0.0769513 0
0.322271 0.0843824 1.5259e-05
0.346639 0.0919051 0
0.370993 0.099443 1.5259e-05
0.395285 0.106874 3.0518e-05
0.419425 0.114153 0
0.443397 0.121141 3.0518e-05
0.46717 0.127703 0
0.490715 0.133715 3.0518e-05
0.514015 0.139071 3.0518e-05
0.537072 0.143648 3.0518e-05
0.559808 0.147356 1.5259e-05
0.582208 0.150088 4.57771e-05
0.604227 0.151843 0
0.6224 0.24007 0
0.643137 0.251453 1.5259e-05
0.66331 0.262974 9.15541e-05
0.682826 0.274464 9.15541e-05
0.701625 0.285878 7.62951e-05
0.719615 0.297322 7.62951e-05
0.736706 0.308888 7.62951e-05
0.751369 0.338857 9.15541e-05
0.751827 0.421103 0.237797
0.751827 0.477394 0.335149
0.751827 0.514885 0.39266
0.751827 0.543053 0.435126
0.751827 0.566033 0.469795
0.751827 0.58584 0.499748
0.751827 0.603876 0.527169
0.751827 0.620722 0.55285
0.751827 0.636744 0.57734
0.751827 0.652201 0.601022
0.751827 0.66714 0.623911
0.751827 0.681407 0.645731
0.751827 0.694697 0.665995
0.751827 0.706706 0.684276
0.751827 0.716991 0.699825
0.751827 0.725383 0.712474
0 0.0133364 0
0 0.0133364 0
0 0.0133364 0
0 0.0133364 0
0 0.0133364 0
0.00451667 0.0141756 0
0.0121157 0.0163729 0
0.0183566 0.0183566 0
0.024155 0.0201724 0
0.0296788 0.0218662 0
0.0350042 0.0234379 0
0.0407263 0.0251011 0
0.0473945 0.026978 0
0.0551156 0.0290837 0
0.0639963 0.0314488 0
0.0741588 0.0340734 0
0.0856947 0.0369726 0
0.0986801 0.0401617 0
0.11313 0.0436103 0
0.129091 0.0473487 0
0.146502 0.0513161 0
0.165316 0.0555123 0
0.185428 0.0599069 0
0.206668 0.0644083 0
0.22887 0.0690929 1.5259e-05
0.251881 0.0737163 1.5259e-05
0.275471 0.0784161 1.5259e-05
0.299428 0.0834974 1.5259e-05
0.323415 0.0907454 0
0.347555 0.0981003 1.5259e-05
0.371725 0.10547 0
0.395865 0.112764 1.5259e-05
0.419883 0.119875 0
0.443748 0.126711 3.0518e-05
0.467445 0.133165 3.0518e-05
0.490929 0.139116 0
0.514183 0.144457 3.0518e-05
0.537179 0.149096 3.0518e-05
0.559884 0.152895 3.0518e-05
0.582269 0.15581 7.62951e-05
0.601297 0.229435 3.0518e-05
0.622507 0.241016 4.57771e-05
0.643198 0.25275 3.0518e-05
0.66334 0.264378 6.10361e-05
0.682826 0.275837 7.62951e-05
0.701625 0.28719 0
0.7196 0.298528 7.62951e-05
0.73669 0.310002 3.0518e-05
0.751354 0.339651 9.15541e-05
0.751827 0.421424 0.237919
0.751827 0.477577 0.335225
0.751827 0.514992 0.392706
0.751827 0.543114 0.435172
0.751827 0.566094 0.469825
0.751827 0.58587 0.499779
0.751827 0.603906 0.527184
0.751827 0.620752 0.552865
0.751827 0.636759 0.577356
0.751827 0.652216 0.601038
0.751827 0.667155 0.623911
0.751827 0.681422 0.645747
0.751827 0.694697 0.665995
0.751827 0.706722 0.684276
0.751827 0.716991 0.699825
0.751827 0.725383 0.712474
0 0.0202182 0
0 0.0202182 0
0 0.0202182 0
0 0.0202182 0
0 0.0202182 0
0.00553903 0.0211032 0
0.014435 0.0233768 0
0.0212253 0.0254368 0
0.0273442 0.0273594 0
0.033051 0.0291447 0
0.0384833 0.0308232 0
0.0442817 0.0325933 0
0.0509804 0.0345922 0
0.0586862 0.0368658 0
0.0675212 0.0393988 0
0.0775921 0.0422217 0
0.0889754 0.0453346 0
0.101778 0.0487526 0
0.116014 0.0524605 0
0.131716 0.0564584 0
0.148882 0.0607004 0
0.167422 0.0651713 0
0.187243 0.0698253 0
0.208225 0.0746319 1.5259e-05
0.230182 0.0795148 0
0.252964 0.0843977 0
0.276341 0.0893263 0
0.300175 0.0940871 0
0.324269 0.0988022 1.5259e-05
0.34844 0.103807 0
0.372442 0.11104 1.5259e-05
0.396429 0.118212 1.5259e-05
0.420325 0.125231 3.0518e-05
0.444099 0.131975 1.5259e-05
0.467704 0.138369 3.0518e-05
0.491127 0.144289 1.5259e-05
0.514336 0.149645 0
0.537285 0.154314 3.0518e-05
0.559976 0.15819 3.0518e-05
0.58233 0.161227 0
0.601434 0.230274 6.10361e-05
0.622568 0.242298 6.10361e-05
0.643244 0.254185 0
0.663355 0.265827 3.0518e-05
0.682841 0.277256 6.10361e-05
0.701625 0.288518 0.000106813
0.719585 0.299748 7.62951e-05
0.736675 0.311101 0
0.751339 0.340459 7.62951e-05
0.751827 0.421759 0.238041
0.751827 0.477745 0.335302
0.751827 0.515099 0.392752
0.751827 0.543191 0.435203
0.751827 0.566155 0.469871
0.751827 0.585916 0.499809
0.751827 0.603937 0.527214
0.751827 0.620768 0.552895
0.751827 0.636774 0.577371
0.751827 0.652232 0.601038
0.751827 0.66717 0.623926
0.751827 0.681422 0.645762
0.751827 0.694697 0.66601
0.751827 0.706722 0.684276
0.751827 0.716991 0.69984
0.751827 0.725383 0.712474
0 0.0270848 0
0 0.0270848 0
0 0.0270848 0
0 0.0270848 0
0 0.0270848 0
0.00639353 0.027985 0
0.0164645 0.0302434 0
0.0237736 0.0323339 0
0.0301823 0.0342718 0
0.0360723 0.0361028 0
0.0416266 0.0378271 0
0.0474861 0.0396429 0
0.0542153 0.0417029 0
0.0619364 0.0440375 0
0.0707408 0.0466621 0
0.0807202 0.0495918 0
0.0920119 0.0528267 0
0.104646 0.0563668 0
0.1187 0.0602274 0
0.134203 0.0643778 0
0.151125 0.0687877 0
0.169406 0.0734417 1.5259e-05
0.188998 0.0782635 0
0.20972 0.083238 1.5259e-05
0.231449 0.0882887 1.5259e-05
0.254002 0.0933547 1.5259e-05
0.277195 0.0983749 1.5259e-05
0.300847 0.103319 1.5259e-05
0.324804 0.108095 0
0.348913 0.112703 0
0.373037 0.117189 0
0.396979 0.123308 0
0.420768 0.13022 1.5259e-05
0.444434 0.136889 3.0518e-05
0.467964 0.143236 1.5259e-05
0.491325 0.149126 3.0518e-05
0.514488 0.154482 3.0518e-05
0.537408 0.159182 1.5259e-05
0.560052 0.163134 3.0518e-05
0.579995 0.219211 4.57771e-05
0.601526 0.231647 3.0518e-05
0.622644 0.243824 6.10361e-05
0.643275 0.255726 6.10361e-05
0.663371 0.267323 0
0.682841 0.278676 9.15541e-05
0.70161 0.289845 3.0518e-05
0.719585 0.300954 0.000122072
0.73666 0.312184 0
0.751339 0.341238 7.62951e-05
0.751827 0.42208 0.238163
0.751827 0.477928 0.335378
0.751827 0.515206 0.392813
0.751827 0.543267 0.435248
0.751827 0.566201 0.469902
0.751827 0.585962 0.499825
0.751827 0.603967 0.527245
0.751827 0.620798 0.552911
0.751827 0.63679 0.577386
0.751827 0.652247 0.601053
0.751827 0.66717 0.623941
0.751827 0.681437 0.645762
0.751827 0.694713 0.66601
0.751827 0.706722 0.684291
0.751827 0.716991 0.69984
0.751827 0.725383 0.712474
0 0.0337987 0
0 0.0337987 0
0 0.0337987 0
0 0.0337987 0
0 0.0337987 0
0.00709545 0.0347143 0
0.0182956 0.0369421 0
0.0260777 0.0390173 0
0.0327459 0.0409552 0
0.038819 0.0427863 0
0.04448 0.0445106 0
0.0504158 0.0463417 0
0.0571908 0.0484169 0
0.0649271 0.0507973 0
0.0737011 0.0534524 0
0.0836347 0.0564279 0
0.0948196 0.0597238 0
0.107332 0.0633402 0
0.121233 0.067277 0
0.136538 0.0715038 0
0.153246 0.0760204 0
0.171313 0.0807813 0
0.190661 0.0857252 0
0.211154 0.0908064 1.5259e-05
0.23267 0.095964 0
0.255009 0.101152 0
0.278019 0.106264 1.5259e-05
0.301503 0.111299 0
0.325322 0.116167 1.5259e-05
0.34931 0.120851 1.5259e-05
0.373373 0.125277 1.5259e-05
0.397375 0.129549 1.5259e-05
0.42118 0.13492 0
0.44477 0.141527 0
0.468223 0.147814 1.5259e-05
0.491524 0.153689 4.57771e-05
0.514641 0.15903 0
0.537514 0.16376 4.57771e-05
0.55819 0.207919 0
0.580087 0.220905 3.0518e-05
0.601587 0.233371 3.0518e-05
0.62269 0.245518 4.57771e-05
0.643305 0.257343 4.57771e-05
0.663386 0.268864 4.57771e-05
0.682857 0.28011 7.62951e-05
0.70161 0.291157 0.000122072
0.719585 0.302159 0
0.736645 0.313268 0.000106813
0.751308 0.342031 0.000122072
0.751827 0.4224 0.238285
0.751827 0.478096 0.335454
0.751827 0.515312 0.392859
0.751827 0.543328 0.435279
0.751827 0.566247 0.469932
0.751827 0.585992 0.499855
0.751827 0.604013 0.52726
0.751827 0.620829 0.552926
0.751827 0.63682 0.577401
0.751827 0.652262 0.601068
0.751827 0.667185 0.623957
0.751827 0.681437 0.645762
0.751827 0.694713 0.666026
0.751827 0.706722 0.684291
0.751827 0.716991 0.69984
0.751827 0.725383 0.712489
0 0.0410925 0
0 0.0410925 0
0 0.0410925 0
0 0.0410925 0
0 0.0410925 0
0.00775158 0.0420233 0
0.0201419 0.0441901 0
0.028397 0.0462043 0
0.0353704 0.0481117 0
0.0416114 0.0499275 0
0.0473945 0.0516365 0
0.0534218 0.0534524 0
0.0602579 0.0555276 0
0.0679942 0.0578927 0
0.0767681 0.0605631 0
0.0866407 0.0635538 0
0.0977493 0.066865 0
0.11014 0.0705119 0
0.123873 0.0744945 0
0.138994 0.0787823 0
0.155489 0.0833448 1.5259e-05
0.173327 0.0881666 1.5259e-05
0.192432 0.0931868 0
0.212696 0.0983597 1.5259e-05
0.233967 0.103593 1.5259e-05
0.256107 0.108843 0
0.278904 0.114061 0
0.302235 0.119142 0
0.325902 0.124086 0
0.349767 0.128817 1.5259e-05
0.373709 0.133318 1.5259e-05
0.39765 0.137545 1.5259e-05
0.4215 0.141573 1.5259e-05
0.444846 0.15053 1.5259e-05
0.467948 0.161181 1.5259e-05
0.490883 0.172702 0
0.513603 0.184726 1.5259e-05
0.536095 0.197299 4.57771e-05
0.558312 0.210346 4.57771e-05
0.580179 0.223316 4.57771e-05
0.601648 0.235569 6.10361e-05
0.622721 0.247547 4.57771e-05
0.64332 0.25922 7.62951e-05
0.663386 0.270604 6.10361e-05
0.682857 0.281712 4.57771e-05
0.70161 0.292638 0
0.71957 0.303502 0
0.736645 0.314473 0.000106813
0.751308 0.342901 0.000106813
0.751827 0.422766 0.238422
0.751827 0.478279 0.335531
0.751827 0.515435 0.39292
0.751827 0.54342 0.435325
0.751827 0.566308 0.469963
0.751827 0.586053 0.499886
0.751827 0.604044 0.527291
0.751827 0.620844 0.552956
0.751827 0.636835 0.577432
0.751827 0.652277 0.601083
0.751827 0.667201 0.623957
0.751827 0.681453 0.645777
0.751827 0.694713 0.666026
0.751827 0.706737 0.684291
0.751827 0.717006 0.69984
0.751827 0.725383 0.712489
0 0.0495613 0
0 0.0495613 0
0 0.0495613 0
0 0.0495613 0
0 0.0495613 0
0.00852979 0.0505074 0
0.0221408 0.0525978 0
0.0309453 0.054551 0
0.0382239 0.0563973 0
0.0446784 0.0581674 0
0.0505989 0.0598459 0
0.0567178 0.0616312 0
0.0636301 0.0636759 0
0.0714122 0.0660105 0
0.0801709 0.0686503 0
0.090013 0.0716259 0
0.10103 0.0749218 0
0.113283 0.0785687 0
0.126864 0.082536 0
0.141772 0.0868391 0
0.158038 0.0914321 0
0.175631 0.0962692 0
0.194476 0.101335 0
0.214466 0.106554 0
0.235477 0.111849 0
0.257374 0.117144 1.5259e-05
0.279957 0.122423 1.5259e-05
0.303075 0.127565 0
0.326574 0.132555 1.5259e-05
0.350286 0.137346 1.5259e-05
0.374121 0.141878 1.5259e-05
0.397955 0.146166 1.5259e-05
0.421744 0.150118 0
0.445029 0.158541 3.0518e-05
0.468147 0.167956 4.57771e-05
0.491066 0.178058 1.5259e-05
0.513771 0.189303 1.5259e-05
0.536217 0.201389 4.57771e-05
0.558389 0.214038 3.0518e-05
0.58024 0.226581 6.10361e-05
0.601694 0.238437 3.0518e-05
0.622751 0.250126 6.10361e-05
0.643351 0.26157 1.5259e-05
0.663401 0.27274 0
0.682857 0.283665 7.62951e-05
0.701595 0.294408 0
0.719554 0.305119 0.000137331
0.736614 0.315923 9.15541e-05
0.751278 0.343954 9.15541e-05
0.751827 0.423194 0.23859
0.751827 0.478523 0.335637
0.751827 0.515587 0.392981
0.751827 0.543511 0.435386
0.751827 0.566384 0.470008
0.751827 0.586099 0.499916
0.751827 0.604089 0.527321
0.751827 0.620874 0.552987
0.751827 0.636866 0.577447
0.751827 0.652293 0.601099
0.751827 0.667216 0.623972
0.751827 0.681468 0.645792
0.751827 0.694728 0.666026
0.751827 0.706737 0.684306
0.751827 0.717006 0.699855
0.751827 0.725383 0.712489
0 0.0593423 0
0 0.0593423 0
0 0.0593423 0
0 0.0593423 0
0 0.0593423 0
0.00952163 0.0602579 0
0.0242771 0.0622721 0
0.0336919 0.0641337 0
0.0413367 0.065919 0
0.0480201 0.0676127 0
0.0540932 0.0692302 0
0.0603342 0.0709544 0
0.0673381 0.0729381 0
0.0751659 0.075227 0
0.0839399 0.0778058 0
0.0937362 0.0807202 0
0.104677 0.0839704 0
0.116793 0.0875563 0
0.130205 0.0914931 0
0.1449 0.0957656 1.5259e-05
0.160922 0.100328 0
0.178241 0.105165 0
0.196796 0.110216 0
0.216495 0.115434 1.5259e-05
0.237232 0.12076 0
0.258839 0.126101 0
0.281178 0.131395 1.5259e-05
0.304067 0.136584 1.5259e-05
0.327367 0.141604 0
0.350912 0.14641 1.5259e-05
0.374609 0.151003 1.5259e-05
0.398337 0.155276 3.0518e-05
0.422019 0.159319 1.5259e-05
0.445289 0.166705 1.5259e-05
0.468299 0.175982 0
0.491173 0.185824 1.5259e-05
0.513863 0.195926 3.0518e-05
0.536294 0.207034 1.5259e-05
0.55845 0.218906 4.57771e-05
0.580285 0.230793 0
0.601724 0.2421 0
0.622766 0.253346 4.57771e-05
0.643351 0.264454 0
0.663401 0.275334 4.57771e-05
0.682841 0.286015 3.0518e-05
0.701579 0.296559 0.000106813
0.719524 0.307042 6.10361e-05
0.736599 0.317632 0
0.751247 0.345205 1.5259e-05
0.751827 0.423728 0.238788
0.751827 0.478798 0.33576
0.751827 0.515755 0.393072
0.751827 0.543633 0.435447
0.751827 0.566461 0.470054
0.751827 0.58616 0.499962
